{
  "type": "map",
  "version": "1.10",
  "orientation": "orthogonal",
  "renderorder": "right-down",
  "width": 26,
  "height": 22,
  "tilewidth": 16,
  "tileheight": 16,
  "infinite": false,
  "backgroundcolor": "#0b121d",
  "tilesets": [
    {
      "firstgid": 1,
      "source": "parts.tsj"
    }
  ],
  "layers": [
    {
      "type": "tilelayer",
      "name": "floor",
      "width": 26,
      "height": 22,
      "visible": true,
      "opacity": 1,
      "data": [
        0,
        0,
        0,
        0,
        0,
        0,
        0,
        0,
        0,
        0,
        0,
        0,
        33,
        33,
        33,
        0,
        0,
        0,
        0,
        0,
        0,
        0,
        0,
        0,
        0,
        0,
        0,
        0,
        0,
        0,
        0,
        0,
        0,
        0,
        0,
        0,
        0,
        0,
        34,
        34,
        34,
        0,
        0,
        0,
        0,
        0,
        0,
        0,
        0,
        0,
        0,
        0,
        0,
        0,
        0,
        0,
        0,
        0,
        0,
        0,
        0,
        0,
        0,
        0,
        35,
        33,
        34,
        0,
        0,
        0,
        0,
        0,
        0,
        0,
        0,
        0,
        0,
        0,
        0,
        0,
        0,
        0,
        0,
        0,
        0,
        0,
        0,
        33,
        33,
        33,
        33,
        34,
        35,
        33,
        34,
        33,
        33,
        33,
        0,
        0,
        0,
        0,
        0,
        0,
        0,
        0,
        0,
        0,
        0,
        6,
        7,
        8,
        1,
        2,
        34,
        34,
        34,
        35,
        33,
        34,
        35,
        34,
        34,
        34,
        34,
        34,
        0,
        0,
        0,
        0,
        0,
        0,
        0,
        0,
        13,
        14,
        15,
        16,
        9,
        10,
        11,
        35,
        35,
        33,
        34,
        35,
        33,
        35,
        35,
        35,
        35,
        35,
        35,
        0,
        0,
        0,
        0,
        0,
        0,
        20,
        21,
        22,
        23,
        24,
        17,
        18,
        19,
        33,
        33,
        34,
        35,
        33,
        34,
        33,
        33,
        33,
        33,
        33,
        33,
        33,
        0,
        0,
        0,
        0,
        27,
        28,
        29,
        30,
        31,
        32,
        25,
        26,
        27,
        34,
        34,
        35,
        33,
        34,
        35,
        34,
        34,
        34,
        29,
        30,
        31,
        34,
        0,
        0,
        0,
        0,
        35,
        4,
        5,
        6,
        7,
        8,
        1,
        2,
        35,
        35,
        35,
        33,
        34,
        35,
        33,
        35,
        35,
        4,
        5,
        6,
        7,
        8,
        0,
        0,
        0,
        0,
        33,
        33,
        13,
        14,
        15,
        16,
        9,
        33,
        33,
        33,
        33,
        34,
        35,
        33,
        34,
        33,
        11,
        12,
        13,
        14,
        15,
        16,
        0,
        0,
        0,
        0,
        0,
        34,
        34,
        34,
        34,
        34,
        34,
        34,
        34,
        34,
        34,
        35,
        33,
        34,
        35,
        34,
        19,
        20,
        21,
        22,
        23,
        24,
        0,
        0,
        0,
        0,
        0,
        0,
        35,
        35,
        35,
        35,
        35,
        35,
        35,
        34,
        35,
        33,
        34,
        35,
        35,
        35,
        27,
        28,
        29,
        30,
        31,
        32,
        0,
        0,
        0,
        0,
        0,
        0,
        33,
        33,
        33,
        33,
        33,
        33,
        33,
        35,
        33,
        34,
        35,
        33,
        33,
        33,
        3,
        4,
        5,
        6,
        7,
        0,
        0,
        0,
        0,
        0,
        0,
        0,
        34,
        34,
        15,
        16,
        9,
        10,
        11,
        33,
        34,
        35,
        33,
        34,
        34,
        34,
        11,
        12,
        13,
        14,
        15,
        0,
        0,
        0,
        0,
        0,
        0,
        0,
        35,
        22,
        23,
        24,
        17,
        18,
        19,
        34,
        35,
        33,
        34,
        35,
        35,
        35,
        35,
        20,
        21,
        22,
        23,
        0,
        0,
        0,
        0,
        0,
        0,
        0,
        0,
        30,
        31,
        32,
        25,
        26,
        34,
        35,
        33,
        34,
        35,
        33,
        33,
        33,
        33,
        33,
        29,
        30,
        0,
        0,
        0,
        0,
        0,
        0,
        0,
        0,
        0,
        0,
        7,
        8,
        1,
        2,
        35,
        33,
        34,
        35,
        33,
        34,
        34,
        34,
        34,
        34,
        34,
        0,
        0,
        0,
        0,
        0,
        0,
        0,
        0,
        0,
        0,
        0,
        0,
        0,
        9,
        10,
        33,
        34,
        35,
        33,
        34,
        35,
        35,
        35,
        35,
        0,
        0,
        0,
        0,
        0,
        0,
        0,
        0,
        0,
        0,
        0,
        0,
        0,
        0,
        0,
        0,
        0,
        0,
        35,
        33,
        34,
        35,
        33,
        0,
        0,
        0,
        0,
        0,
        0,
        0,
        0,
        0,
        0,
        0,
        0,
        0,
        0,
        0,
        0,
        0,
        0,
        0,
        0,
        0,
        0,
        34,
        35,
        33,
        0,
        0,
        0,
        0,
        0,
        0,
        0,
        0,
        0,
        0,
        0,
        0,
        0,
        0,
        0,
        0,
        0,
        0,
        0,
        0,
        0,
        0,
        0,
        35,
        33,
        34,
        0,
        0,
        0,
        0,
        0,
        0,
        0,
        0,
        0,
        0,
        0,
        0,
        0,
        0,
        0,
        0,
        0,
        0,
        0,
        0,
        0,
        0,
        0,
        33,
        34,
        35,
        0,
        0,
        0,
        0,
        0,
        0,
        0,
        0,
        0,
        0,
        0
      ]
    },
    {
      "type": "objectgroup",
      "name": "walls",
      "visible": true,
      "opacity": 1,
      "draworder": "topdown",
      "objects": [
        {
          "id": 1,
          "gid": 40,
          "x": 182,
          "y": 16,
          "width": 12,
          "height": 32,
          "rotation": 0,
          "visible": true
        },
        {
          "id": 2,
          "gid": 41,
          "x": 238,
          "y": 16,
          "width": 12,
          "height": 32,
          "rotation": 0,
          "visible": true
        },
        {
          "id": 3,
          "gid": 40,
          "x": 182,
          "y": 32,
          "width": 12,
          "height": 32,
          "rotation": 0,
          "visible": true
        },
        {
          "id": 4,
          "gid": 41,
          "x": 238,
          "y": 32,
          "width": 12,
          "height": 32,
          "rotation": 0,
          "visible": true
        },
        {
          "id": 5,
          "gid": 40,
          "x": 182,
          "y": 48,
          "width": 12,
          "height": 32,
          "rotation": 0,
          "visible": true
        },
        {
          "id": 6,
          "gid": 41,
          "x": 238,
          "y": 48,
          "width": 12,
          "height": 32,
          "rotation": 0,
          "visible": true
        },
        {
          "id": 7,
          "gid": 37,
          "x": 144,
          "y": 48,
          "width": 16,
          "height": 32,
          "rotation": 0,
          "visible": true
        },
        {
          "id": 8,
          "gid": 40,
          "x": 134,
          "y": 64,
          "width": 12,
          "height": 32,
          "rotation": 0,
          "visible": true
        },
        {
          "id": 9,
          "gid": 36,
          "x": 160,
          "y": 48,
          "width": 16,
          "height": 32,
          "rotation": 0,
          "visible": true
        },
        {
          "id": 10,
          "gid": 37,
          "x": 176,
          "y": 48,
          "width": 16,
          "height": 32,
          "rotation": 0,
          "visible": true
        },
        {
          "id": 11,
          "gid": 37,
          "x": 240,
          "y": 48,
          "width": 16,
          "height": 32,
          "rotation": 0,
          "visible": true
        },
        {
          "id": 12,
          "gid": 36,
          "x": 256,
          "y": 48,
          "width": 16,
          "height": 32,
          "rotation": 0,
          "visible": true
        },
        {
          "id": 13,
          "gid": 37,
          "x": 272,
          "y": 48,
          "width": 16,
          "height": 32,
          "rotation": 0,
          "visible": true
        },
        {
          "id": 14,
          "gid": 36,
          "x": 288,
          "y": 48,
          "width": 16,
          "height": 32,
          "rotation": 0,
          "visible": true
        },
        {
          "id": 15,
          "gid": 37,
          "x": 304,
          "y": 48,
          "width": 16,
          "height": 32,
          "rotation": 0,
          "visible": true
        },
        {
          "id": 16,
          "gid": 41,
          "x": 318,
          "y": 64,
          "width": 12,
          "height": 32,
          "rotation": 0,
          "visible": true
        },
        {
          "id": 17,
          "gid": 36,
          "x": 80,
          "y": 64,
          "width": 16,
          "height": 32,
          "rotation": 0,
          "visible": true
        },
        {
          "id": 18,
          "gid": 40,
          "x": 70,
          "y": 80,
          "width": 12,
          "height": 32,
          "rotation": 0,
          "visible": true
        },
        {
          "id": 19,
          "gid": 37,
          "x": 96,
          "y": 64,
          "width": 16,
          "height": 32,
          "rotation": 0,
          "visible": true
        },
        {
          "id": 20,
          "gid": 36,
          "x": 112,
          "y": 64,
          "width": 16,
          "height": 32,
          "rotation": 0,
          "visible": true
        },
        {
          "id": 21,
          "gid": 37,
          "x": 128,
          "y": 64,
          "width": 16,
          "height": 32,
          "rotation": 0,
          "visible": true
        },
        {
          "id": 22,
          "gid": 37,
          "x": 320,
          "y": 64,
          "width": 16,
          "height": 32,
          "rotation": 0,
          "visible": true
        },
        {
          "id": 23,
          "gid": 36,
          "x": 336,
          "y": 64,
          "width": 16,
          "height": 32,
          "rotation": 0,
          "visible": true
        },
        {
          "id": 24,
          "gid": 41,
          "x": 350,
          "y": 80,
          "width": 12,
          "height": 32,
          "rotation": 0,
          "visible": true
        },
        {
          "id": 25,
          "gid": 36,
          "x": 64,
          "y": 80,
          "width": 16,
          "height": 32,
          "rotation": 0,
          "visible": true
        },
        {
          "id": 26,
          "gid": 40,
          "x": 54,
          "y": 96,
          "width": 12,
          "height": 32,
          "rotation": 0,
          "visible": true
        },
        {
          "id": 27,
          "gid": 36,
          "x": 352,
          "y": 80,
          "width": 16,
          "height": 32,
          "rotation": 0,
          "visible": true
        },
        {
          "id": 28,
          "gid": 41,
          "x": 366,
          "y": 96,
          "width": 12,
          "height": 32,
          "rotation": 0,
          "visible": true
        },
        {
          "id": 29,
          "gid": 36,
          "x": 48,
          "y": 96,
          "width": 16,
          "height": 32,
          "rotation": 0,
          "visible": true
        },
        {
          "id": 30,
          "gid": 40,
          "x": 38,
          "y": 112,
          "width": 12,
          "height": 32,
          "rotation": 0,
          "visible": true
        },
        {
          "id": 31,
          "gid": 36,
          "x": 368,
          "y": 96,
          "width": 16,
          "height": 32,
          "rotation": 0,
          "visible": true
        },
        {
          "id": 32,
          "gid": 41,
          "x": 382,
          "y": 112,
          "width": 12,
          "height": 32,
          "rotation": 0,
          "visible": true
        },
        {
          "id": 33,
          "gid": 36,
          "x": 32,
          "y": 112,
          "width": 16,
          "height": 32,
          "rotation": 0,
          "visible": true
        },
        {
          "id": 34,
          "gid": 40,
          "x": 22,
          "y": 128,
          "width": 12,
          "height": 32,
          "rotation": 0,
          "visible": true
        },
        {
          "id": 35,
          "gid": 41,
          "x": 382,
          "y": 128,
          "width": 12,
          "height": 32,
          "rotation": 0,
          "visible": true
        },
        {
          "id": 36,
          "gid": 40,
          "x": 22,
          "y": 144,
          "width": 12,
          "height": 32,
          "rotation": 0,
          "visible": true
        },
        {
          "id": 37,
          "gid": 41,
          "x": 382,
          "y": 144,
          "width": 12,
          "height": 32,
          "rotation": 0,
          "visible": true
        },
        {
          "id": 38,
          "gid": 40,
          "x": 22,
          "y": 160,
          "width": 12,
          "height": 32,
          "rotation": 0,
          "visible": true
        },
        {
          "id": 39,
          "gid": 36,
          "x": 32,
          "y": 188,
          "width": 16,
          "height": 32,
          "rotation": 0,
          "visible": true
        },
        {
          "id": 40,
          "gid": 41,
          "x": 382,
          "y": 160,
          "width": 12,
          "height": 32,
          "rotation": 0,
          "visible": true
        },
        {
          "id": 41,
          "gid": 40,
          "x": 38,
          "y": 176,
          "width": 12,
          "height": 32,
          "rotation": 0,
          "visible": true
        },
        {
          "id": 42,
          "gid": 36,
          "x": 48,
          "y": 204,
          "width": 16,
          "height": 32,
          "rotation": 0,
          "visible": true
        },
        {
          "id": 43,
          "gid": 41,
          "x": 382,
          "y": 176,
          "width": 12,
          "height": 32,
          "rotation": 0,
          "visible": true
        },
        {
          "id": 44,
          "gid": 40,
          "x": 54,
          "y": 192,
          "width": 12,
          "height": 32,
          "rotation": 0,
          "visible": true
        },
        {
          "id": 45,
          "gid": 41,
          "x": 382,
          "y": 192,
          "width": 12,
          "height": 32,
          "rotation": 0,
          "visible": true
        },
        {
          "id": 46,
          "gid": 37,
          "x": 368,
          "y": 220,
          "width": 16,
          "height": 32,
          "rotation": 0,
          "visible": true
        },
        {
          "id": 47,
          "gid": 40,
          "x": 54,
          "y": 208,
          "width": 12,
          "height": 32,
          "rotation": 0,
          "visible": true
        },
        {
          "id": 48,
          "gid": 41,
          "x": 366,
          "y": 208,
          "width": 12,
          "height": 32,
          "rotation": 0,
          "visible": true
        },
        {
          "id": 49,
          "gid": 40,
          "x": 54,
          "y": 224,
          "width": 12,
          "height": 32,
          "rotation": 0,
          "visible": true
        },
        {
          "id": 50,
          "gid": 41,
          "x": 366,
          "y": 224,
          "width": 12,
          "height": 32,
          "rotation": 0,
          "visible": true
        },
        {
          "id": 51,
          "gid": 40,
          "x": 54,
          "y": 240,
          "width": 12,
          "height": 32,
          "rotation": 0,
          "visible": true
        },
        {
          "id": 52,
          "gid": 37,
          "x": 64,
          "y": 268,
          "width": 16,
          "height": 32,
          "rotation": 0,
          "visible": true
        },
        {
          "id": 53,
          "gid": 41,
          "x": 366,
          "y": 240,
          "width": 12,
          "height": 32,
          "rotation": 0,
          "visible": true
        },
        {
          "id": 54,
          "gid": 37,
          "x": 352,
          "y": 268,
          "width": 16,
          "height": 32,
          "rotation": 0,
          "visible": true
        },
        {
          "id": 55,
          "gid": 40,
          "x": 70,
          "y": 256,
          "width": 12,
          "height": 32,
          "rotation": 0,
          "visible": true
        },
        {
          "id": 56,
          "gid": 37,
          "x": 80,
          "y": 284,
          "width": 16,
          "height": 32,
          "rotation": 0,
          "visible": true
        },
        {
          "id": 57,
          "gid": 41,
          "x": 350,
          "y": 256,
          "width": 12,
          "height": 32,
          "rotation": 0,
          "visible": true
        },
        {
          "id": 58,
          "gid": 37,
          "x": 336,
          "y": 284,
          "width": 16,
          "height": 32,
          "rotation": 0,
          "visible": true
        },
        {
          "id": 59,
          "gid": 40,
          "x": 86,
          "y": 272,
          "width": 12,
          "height": 32,
          "rotation": 0,
          "visible": true
        },
        {
          "id": 60,
          "gid": 37,
          "x": 96,
          "y": 300,
          "width": 16,
          "height": 32,
          "rotation": 0,
          "visible": true
        },
        {
          "id": 61,
          "gid": 36,
          "x": 112,
          "y": 300,
          "width": 16,
          "height": 32,
          "rotation": 0,
          "visible": true
        },
        {
          "id": 62,
          "gid": 36,
          "x": 304,
          "y": 300,
          "width": 16,
          "height": 32,
          "rotation": 0,
          "visible": true
        },
        {
          "id": 63,
          "gid": 41,
          "x": 334,
          "y": 272,
          "width": 12,
          "height": 32,
          "rotation": 0,
          "visible": true
        },
        {
          "id": 64,
          "gid": 37,
          "x": 320,
          "y": 300,
          "width": 16,
          "height": 32,
          "rotation": 0,
          "visible": true
        },
        {
          "id": 65,
          "gid": 40,
          "x": 118,
          "y": 288,
          "width": 12,
          "height": 32,
          "rotation": 0,
          "visible": true
        },
        {
          "id": 66,
          "gid": 36,
          "x": 128,
          "y": 316,
          "width": 16,
          "height": 32,
          "rotation": 0,
          "visible": true
        },
        {
          "id": 67,
          "gid": 37,
          "x": 144,
          "y": 316,
          "width": 16,
          "height": 32,
          "rotation": 0,
          "visible": true
        },
        {
          "id": 68,
          "gid": 36,
          "x": 160,
          "y": 316,
          "width": 16,
          "height": 32,
          "rotation": 0,
          "visible": true
        },
        {
          "id": 69,
          "gid": 36,
          "x": 256,
          "y": 316,
          "width": 16,
          "height": 32,
          "rotation": 0,
          "visible": true
        },
        {
          "id": 70,
          "gid": 37,
          "x": 272,
          "y": 316,
          "width": 16,
          "height": 32,
          "rotation": 0,
          "visible": true
        },
        {
          "id": 71,
          "gid": 41,
          "x": 302,
          "y": 288,
          "width": 12,
          "height": 32,
          "rotation": 0,
          "visible": true
        },
        {
          "id": 72,
          "gid": 36,
          "x": 288,
          "y": 316,
          "width": 16,
          "height": 32,
          "rotation": 0,
          "visible": true
        },
        {
          "id": 73,
          "gid": 40,
          "x": 166,
          "y": 304,
          "width": 12,
          "height": 32,
          "rotation": 0,
          "visible": true
        },
        {
          "id": 74,
          "gid": 36,
          "x": 176,
          "y": 332,
          "width": 16,
          "height": 32,
          "rotation": 0,
          "visible": true
        },
        {
          "id": 75,
          "gid": 41,
          "x": 254,
          "y": 304,
          "width": 12,
          "height": 32,
          "rotation": 0,
          "visible": true
        },
        {
          "id": 76,
          "gid": 36,
          "x": 240,
          "y": 332,
          "width": 16,
          "height": 32,
          "rotation": 0,
          "visible": true
        },
        {
          "id": 77,
          "gid": 40,
          "x": 182,
          "y": 320,
          "width": 12,
          "height": 32,
          "rotation": 0,
          "visible": true
        },
        {
          "id": 78,
          "gid": 41,
          "x": 238,
          "y": 320,
          "width": 12,
          "height": 32,
          "rotation": 0,
          "visible": true
        },
        {
          "id": 79,
          "gid": 40,
          "x": 182,
          "y": 336,
          "width": 12,
          "height": 32,
          "rotation": 0,
          "visible": true
        },
        {
          "id": 80,
          "gid": 41,
          "x": 238,
          "y": 336,
          "width": 12,
          "height": 32,
          "rotation": 0,
          "visible": true
        },
        {
          "id": 81,
          "gid": 40,
          "x": 182,
          "y": 352,
          "width": 12,
          "height": 32,
          "rotation": 0,
          "visible": true
        },
        {
          "id": 82,
          "gid": 41,
          "x": 238,
          "y": 352,
          "width": 12,
          "height": 32,
          "rotation": 0,
          "visible": true
        }
      ]
    },
    {
      "type": "objectgroup",
      "name": "grass",
      "visible": true,
      "opacity": 1,
      "draworder": "topdown",
      "objects": [
        {
          "id": 83,
          "gid": 48,
          "x": 160,
          "y": 72,
          "width": 24,
          "height": 24,
          "rotation": 0,
          "visible": true
        },
        {
          "id": 84,
          "gid": 48,
          "x": 304,
          "y": 88,
          "width": 24,
          "height": 24,
          "rotation": 0,
          "visible": true
        },
        {
          "id": 85,
          "gid": 46,
          "x": 288,
          "y": 96,
          "width": 32,
          "height": 32,
          "rotation": 0,
          "visible": true
        },
        {
          "id": 86,
          "gid": 48,
          "x": 80,
          "y": 112,
          "width": 24,
          "height": 24,
          "rotation": 0,
          "visible": true
        },
        {
          "id": 87,
          "gid": 48,
          "x": 352,
          "y": 128,
          "width": 24,
          "height": 24,
          "rotation": 0,
          "visible": true
        },
        {
          "id": 88,
          "gid": 45,
          "x": 64,
          "y": 144,
          "width": 32,
          "height": 32,
          "rotation": 0,
          "visible": true
        },
        {
          "id": 89,
          "gid": 48,
          "x": 64,
          "y": 160,
          "width": 24,
          "height": 24,
          "rotation": 0,
          "visible": true
        },
        {
          "id": 90,
          "gid": 46,
          "x": 80,
          "y": 192,
          "width": 32,
          "height": 32,
          "rotation": 0,
          "visible": true
        },
        {
          "id": 91,
          "gid": 48,
          "x": 336,
          "y": 208,
          "width": 24,
          "height": 24,
          "rotation": 0,
          "visible": true
        },
        {
          "id": 92,
          "gid": 45,
          "x": 320,
          "y": 240,
          "width": 32,
          "height": 32,
          "rotation": 0,
          "visible": true
        },
        {
          "id": 93,
          "gid": 48,
          "x": 112,
          "y": 256,
          "width": 24,
          "height": 24,
          "rotation": 0,
          "visible": true
        },
        {
          "id": 94,
          "gid": 45,
          "x": 128,
          "y": 272,
          "width": 32,
          "height": 32,
          "rotation": 0,
          "visible": true
        },
        {
          "id": 95,
          "gid": 46,
          "x": 256,
          "y": 288,
          "width": 32,
          "height": 32,
          "rotation": 0,
          "visible": true
        }
      ]
    },
    {
      "type": "objectgroup",
      "name": "objects",
      "visible": true,
      "opacity": 1,
      "draworder": "topdown",
      "objects": [
        {
          "id": 96,
          "gid": 47,
          "x": 96,
          "y": 107,
          "width": 20,
          "height": 24,
          "rotation": 0,
          "visible": true
        },
        {
          "id": 97,
          "gid": 49,
          "x": 128,
          "y": 109,
          "width": 32,
          "height": 32,
          "rotation": 0,
          "visible": true
        },
        {
          "id": 98,
          "gid": 47,
          "x": 336,
          "y": 120,
          "width": 20,
          "height": 24,
          "rotation": 0,
          "visible": true
        },
        {
          "id": 99,
          "gid": 47,
          "x": 349,
          "y": 147,
          "width": 20,
          "height": 24,
          "rotation": 0,
          "visible": true
        },
        {
          "id": 100,
          "gid": 47,
          "x": 54,
          "y": 154,
          "width": 20,
          "height": 24,
          "rotation": 0,
          "visible": true
        },
        {
          "id": 101,
          "gid": 49,
          "x": 304,
          "y": 205,
          "width": 32,
          "height": 32,
          "rotation": 0,
          "visible": true
        },
        {
          "id": 102,
          "gid": 47,
          "x": 320,
          "y": 224,
          "width": 20,
          "height": 24,
          "rotation": 0,
          "visible": true
        },
        {
          "id": 103,
          "gid": 47,
          "x": 272,
          "y": 272,
          "width": 20,
          "height": 24,
          "rotation": 0,
          "visible": true
        }
      ]
    },
    {
      "type": "objectgroup",
      "name": "collision",
      "visible": false,
      "opacity": 1,
      "objects": [
        {
          "id": 104,
          "x": 0,
          "y": 0,
          "width": 16,
          "height": 16,
          "visible": true
        },
        {
          "id": 105,
          "x": 16,
          "y": 0,
          "width": 16,
          "height": 16,
          "visible": true
        },
        {
          "id": 106,
          "x": 32,
          "y": 0,
          "width": 16,
          "height": 16,
          "visible": true
        },
        {
          "id": 107,
          "x": 48,
          "y": 0,
          "width": 16,
          "height": 16,
          "visible": true
        },
        {
          "id": 108,
          "x": 64,
          "y": 0,
          "width": 16,
          "height": 16,
          "visible": true
        },
        {
          "id": 109,
          "x": 80,
          "y": 0,
          "width": 16,
          "height": 16,
          "visible": true
        },
        {
          "id": 110,
          "x": 96,
          "y": 0,
          "width": 16,
          "height": 16,
          "visible": true
        },
        {
          "id": 111,
          "x": 112,
          "y": 0,
          "width": 16,
          "height": 16,
          "visible": true
        },
        {
          "id": 112,
          "x": 128,
          "y": 0,
          "width": 16,
          "height": 16,
          "visible": true
        },
        {
          "id": 113,
          "x": 144,
          "y": 0,
          "width": 16,
          "height": 16,
          "visible": true
        },
        {
          "id": 114,
          "x": 160,
          "y": 0,
          "width": 16,
          "height": 16,
          "visible": true
        },
        {
          "id": 115,
          "x": 176,
          "y": 0,
          "width": 16,
          "height": 16,
          "visible": true
        },
        {
          "id": 116,
          "x": 240,
          "y": 0,
          "width": 16,
          "height": 16,
          "visible": true
        },
        {
          "id": 117,
          "x": 256,
          "y": 0,
          "width": 16,
          "height": 16,
          "visible": true
        },
        {
          "id": 118,
          "x": 272,
          "y": 0,
          "width": 16,
          "height": 16,
          "visible": true
        },
        {
          "id": 119,
          "x": 288,
          "y": 0,
          "width": 16,
          "height": 16,
          "visible": true
        },
        {
          "id": 120,
          "x": 304,
          "y": 0,
          "width": 16,
          "height": 16,
          "visible": true
        },
        {
          "id": 121,
          "x": 320,
          "y": 0,
          "width": 16,
          "height": 16,
          "visible": true
        },
        {
          "id": 122,
          "x": 336,
          "y": 0,
          "width": 16,
          "height": 16,
          "visible": true
        },
        {
          "id": 123,
          "x": 352,
          "y": 0,
          "width": 16,
          "height": 16,
          "visible": true
        },
        {
          "id": 124,
          "x": 368,
          "y": 0,
          "width": 16,
          "height": 16,
          "visible": true
        },
        {
          "id": 125,
          "x": 384,
          "y": 0,
          "width": 16,
          "height": 16,
          "visible": true
        },
        {
          "id": 126,
          "x": 400,
          "y": 0,
          "width": 16,
          "height": 16,
          "visible": true
        },
        {
          "id": 127,
          "x": 0,
          "y": 16,
          "width": 16,
          "height": 16,
          "visible": true
        },
        {
          "id": 128,
          "x": 16,
          "y": 16,
          "width": 16,
          "height": 16,
          "visible": true
        },
        {
          "id": 129,
          "x": 32,
          "y": 16,
          "width": 16,
          "height": 16,
          "visible": true
        },
        {
          "id": 130,
          "x": 48,
          "y": 16,
          "width": 16,
          "height": 16,
          "visible": true
        },
        {
          "id": 131,
          "x": 64,
          "y": 16,
          "width": 16,
          "height": 16,
          "visible": true
        },
        {
          "id": 132,
          "x": 80,
          "y": 16,
          "width": 16,
          "height": 16,
          "visible": true
        },
        {
          "id": 133,
          "x": 96,
          "y": 16,
          "width": 16,
          "height": 16,
          "visible": true
        },
        {
          "id": 134,
          "x": 112,
          "y": 16,
          "width": 16,
          "height": 16,
          "visible": true
        },
        {
          "id": 135,
          "x": 128,
          "y": 16,
          "width": 16,
          "height": 16,
          "visible": true
        },
        {
          "id": 136,
          "x": 144,
          "y": 16,
          "width": 16,
          "height": 16,
          "visible": true
        },
        {
          "id": 137,
          "x": 160,
          "y": 16,
          "width": 16,
          "height": 16,
          "visible": true
        },
        {
          "id": 138,
          "x": 176,
          "y": 16,
          "width": 16,
          "height": 16,
          "visible": true
        },
        {
          "id": 139,
          "x": 240,
          "y": 16,
          "width": 16,
          "height": 16,
          "visible": true
        },
        {
          "id": 140,
          "x": 256,
          "y": 16,
          "width": 16,
          "height": 16,
          "visible": true
        },
        {
          "id": 141,
          "x": 272,
          "y": 16,
          "width": 16,
          "height": 16,
          "visible": true
        },
        {
          "id": 142,
          "x": 288,
          "y": 16,
          "width": 16,
          "height": 16,
          "visible": true
        },
        {
          "id": 143,
          "x": 304,
          "y": 16,
          "width": 16,
          "height": 16,
          "visible": true
        },
        {
          "id": 144,
          "x": 320,
          "y": 16,
          "width": 16,
          "height": 16,
          "visible": true
        },
        {
          "id": 145,
          "x": 336,
          "y": 16,
          "width": 16,
          "height": 16,
          "visible": true
        },
        {
          "id": 146,
          "x": 352,
          "y": 16,
          "width": 16,
          "height": 16,
          "visible": true
        },
        {
          "id": 147,
          "x": 368,
          "y": 16,
          "width": 16,
          "height": 16,
          "visible": true
        },
        {
          "id": 148,
          "x": 384,
          "y": 16,
          "width": 16,
          "height": 16,
          "visible": true
        },
        {
          "id": 149,
          "x": 400,
          "y": 16,
          "width": 16,
          "height": 16,
          "visible": true
        },
        {
          "id": 150,
          "x": 0,
          "y": 32,
          "width": 16,
          "height": 16,
          "visible": true
        },
        {
          "id": 151,
          "x": 16,
          "y": 32,
          "width": 16,
          "height": 16,
          "visible": true
        },
        {
          "id": 152,
          "x": 32,
          "y": 32,
          "width": 16,
          "height": 16,
          "visible": true
        },
        {
          "id": 153,
          "x": 48,
          "y": 32,
          "width": 16,
          "height": 16,
          "visible": true
        },
        {
          "id": 154,
          "x": 64,
          "y": 32,
          "width": 16,
          "height": 16,
          "visible": true
        },
        {
          "id": 155,
          "x": 80,
          "y": 32,
          "width": 16,
          "height": 16,
          "visible": true
        },
        {
          "id": 156,
          "x": 96,
          "y": 32,
          "width": 16,
          "height": 16,
          "visible": true
        },
        {
          "id": 157,
          "x": 112,
          "y": 32,
          "width": 16,
          "height": 16,
          "visible": true
        },
        {
          "id": 158,
          "x": 128,
          "y": 32,
          "width": 16,
          "height": 16,
          "visible": true
        },
        {
          "id": 159,
          "x": 144,
          "y": 32,
          "width": 16,
          "height": 16,
          "visible": true
        },
        {
          "id": 160,
          "x": 160,
          "y": 32,
          "width": 16,
          "height": 16,
          "visible": true
        },
        {
          "id": 161,
          "x": 176,
          "y": 32,
          "width": 16,
          "height": 16,
          "visible": true
        },
        {
          "id": 162,
          "x": 240,
          "y": 32,
          "width": 16,
          "height": 16,
          "visible": true
        },
        {
          "id": 163,
          "x": 256,
          "y": 32,
          "width": 16,
          "height": 16,
          "visible": true
        },
        {
          "id": 164,
          "x": 272,
          "y": 32,
          "width": 16,
          "height": 16,
          "visible": true
        },
        {
          "id": 165,
          "x": 288,
          "y": 32,
          "width": 16,
          "height": 16,
          "visible": true
        },
        {
          "id": 166,
          "x": 304,
          "y": 32,
          "width": 16,
          "height": 16,
          "visible": true
        },
        {
          "id": 167,
          "x": 320,
          "y": 32,
          "width": 16,
          "height": 16,
          "visible": true
        },
        {
          "id": 168,
          "x": 336,
          "y": 32,
          "width": 16,
          "height": 16,
          "visible": true
        },
        {
          "id": 169,
          "x": 352,
          "y": 32,
          "width": 16,
          "height": 16,
          "visible": true
        },
        {
          "id": 170,
          "x": 368,
          "y": 32,
          "width": 16,
          "height": 16,
          "visible": true
        },
        {
          "id": 171,
          "x": 384,
          "y": 32,
          "width": 16,
          "height": 16,
          "visible": true
        },
        {
          "id": 172,
          "x": 400,
          "y": 32,
          "width": 16,
          "height": 16,
          "visible": true
        },
        {
          "id": 173,
          "x": 0,
          "y": 48,
          "width": 16,
          "height": 16,
          "visible": true
        },
        {
          "id": 174,
          "x": 16,
          "y": 48,
          "width": 16,
          "height": 16,
          "visible": true
        },
        {
          "id": 175,
          "x": 32,
          "y": 48,
          "width": 16,
          "height": 16,
          "visible": true
        },
        {
          "id": 176,
          "x": 48,
          "y": 48,
          "width": 16,
          "height": 16,
          "visible": true
        },
        {
          "id": 177,
          "x": 64,
          "y": 48,
          "width": 16,
          "height": 16,
          "visible": true
        },
        {
          "id": 178,
          "x": 80,
          "y": 48,
          "width": 16,
          "height": 16,
          "visible": true
        },
        {
          "id": 179,
          "x": 96,
          "y": 48,
          "width": 16,
          "height": 16,
          "visible": true
        },
        {
          "id": 180,
          "x": 112,
          "y": 48,
          "width": 16,
          "height": 16,
          "visible": true
        },
        {
          "id": 181,
          "x": 128,
          "y": 48,
          "width": 16,
          "height": 16,
          "visible": true
        },
        {
          "id": 182,
          "x": 320,
          "y": 48,
          "width": 16,
          "height": 16,
          "visible": true
        },
        {
          "id": 183,
          "x": 336,
          "y": 48,
          "width": 16,
          "height": 16,
          "visible": true
        },
        {
          "id": 184,
          "x": 352,
          "y": 48,
          "width": 16,
          "height": 16,
          "visible": true
        },
        {
          "id": 185,
          "x": 368,
          "y": 48,
          "width": 16,
          "height": 16,
          "visible": true
        },
        {
          "id": 186,
          "x": 384,
          "y": 48,
          "width": 16,
          "height": 16,
          "visible": true
        },
        {
          "id": 187,
          "x": 400,
          "y": 48,
          "width": 16,
          "height": 16,
          "visible": true
        },
        {
          "id": 188,
          "x": 0,
          "y": 64,
          "width": 16,
          "height": 16,
          "visible": true
        },
        {
          "id": 189,
          "x": 16,
          "y": 64,
          "width": 16,
          "height": 16,
          "visible": true
        },
        {
          "id": 190,
          "x": 32,
          "y": 64,
          "width": 16,
          "height": 16,
          "visible": true
        },
        {
          "id": 191,
          "x": 48,
          "y": 64,
          "width": 16,
          "height": 16,
          "visible": true
        },
        {
          "id": 192,
          "x": 64,
          "y": 64,
          "width": 16,
          "height": 16,
          "visible": true
        },
        {
          "id": 193,
          "x": 352,
          "y": 64,
          "width": 16,
          "height": 16,
          "visible": true
        },
        {
          "id": 194,
          "x": 368,
          "y": 64,
          "width": 16,
          "height": 16,
          "visible": true
        },
        {
          "id": 195,
          "x": 384,
          "y": 64,
          "width": 16,
          "height": 16,
          "visible": true
        },
        {
          "id": 196,
          "x": 400,
          "y": 64,
          "width": 16,
          "height": 16,
          "visible": true
        },
        {
          "id": 197,
          "x": 0,
          "y": 80,
          "width": 16,
          "height": 16,
          "visible": true
        },
        {
          "id": 198,
          "x": 16,
          "y": 80,
          "width": 16,
          "height": 16,
          "visible": true
        },
        {
          "id": 199,
          "x": 32,
          "y": 80,
          "width": 16,
          "height": 16,
          "visible": true
        },
        {
          "id": 200,
          "x": 48,
          "y": 80,
          "width": 16,
          "height": 16,
          "visible": true
        },
        {
          "id": 201,
          "x": 368,
          "y": 80,
          "width": 16,
          "height": 16,
          "visible": true
        },
        {
          "id": 202,
          "x": 384,
          "y": 80,
          "width": 16,
          "height": 16,
          "visible": true
        },
        {
          "id": 203,
          "x": 400,
          "y": 80,
          "width": 16,
          "height": 16,
          "visible": true
        },
        {
          "id": 204,
          "x": 0,
          "y": 96,
          "width": 16,
          "height": 16,
          "visible": true
        },
        {
          "id": 205,
          "x": 16,
          "y": 96,
          "width": 16,
          "height": 16,
          "visible": true
        },
        {
          "id": 206,
          "x": 32,
          "y": 96,
          "width": 16,
          "height": 16,
          "visible": true
        },
        {
          "id": 207,
          "x": 128,
          "y": 96,
          "width": 16,
          "height": 16,
          "visible": true
        },
        {
          "id": 208,
          "x": 144,
          "y": 96,
          "width": 16,
          "height": 16,
          "visible": true
        },
        {
          "id": 209,
          "x": 384,
          "y": 96,
          "width": 16,
          "height": 16,
          "visible": true
        },
        {
          "id": 210,
          "x": 400,
          "y": 96,
          "width": 16,
          "height": 16,
          "visible": true
        },
        {
          "id": 211,
          "x": 0,
          "y": 112,
          "width": 16,
          "height": 16,
          "visible": true
        },
        {
          "id": 212,
          "x": 16,
          "y": 112,
          "width": 16,
          "height": 16,
          "visible": true
        },
        {
          "id": 213,
          "x": 384,
          "y": 112,
          "width": 16,
          "height": 16,
          "visible": true
        },
        {
          "id": 214,
          "x": 400,
          "y": 112,
          "width": 16,
          "height": 16,
          "visible": true
        },
        {
          "id": 215,
          "x": 0,
          "y": 128,
          "width": 16,
          "height": 16,
          "visible": true
        },
        {
          "id": 216,
          "x": 16,
          "y": 128,
          "width": 16,
          "height": 16,
          "visible": true
        },
        {
          "id": 217,
          "x": 384,
          "y": 128,
          "width": 16,
          "height": 16,
          "visible": true
        },
        {
          "id": 218,
          "x": 400,
          "y": 128,
          "width": 16,
          "height": 16,
          "visible": true
        },
        {
          "id": 219,
          "x": 0,
          "y": 144,
          "width": 16,
          "height": 16,
          "visible": true
        },
        {
          "id": 220,
          "x": 16,
          "y": 144,
          "width": 16,
          "height": 16,
          "visible": true
        },
        {
          "id": 221,
          "x": 384,
          "y": 144,
          "width": 16,
          "height": 16,
          "visible": true
        },
        {
          "id": 222,
          "x": 400,
          "y": 144,
          "width": 16,
          "height": 16,
          "visible": true
        },
        {
          "id": 223,
          "x": 0,
          "y": 160,
          "width": 16,
          "height": 16,
          "visible": true
        },
        {
          "id": 224,
          "x": 16,
          "y": 160,
          "width": 16,
          "height": 16,
          "visible": true
        },
        {
          "id": 225,
          "x": 32,
          "y": 160,
          "width": 16,
          "height": 16,
          "visible": true
        },
        {
          "id": 226,
          "x": 384,
          "y": 160,
          "width": 16,
          "height": 16,
          "visible": true
        },
        {
          "id": 227,
          "x": 400,
          "y": 160,
          "width": 16,
          "height": 16,
          "visible": true
        },
        {
          "id": 228,
          "x": 0,
          "y": 176,
          "width": 16,
          "height": 16,
          "visible": true
        },
        {
          "id": 229,
          "x": 16,
          "y": 176,
          "width": 16,
          "height": 16,
          "visible": true
        },
        {
          "id": 230,
          "x": 32,
          "y": 176,
          "width": 16,
          "height": 16,
          "visible": true
        },
        {
          "id": 231,
          "x": 48,
          "y": 176,
          "width": 16,
          "height": 16,
          "visible": true
        },
        {
          "id": 232,
          "x": 384,
          "y": 176,
          "width": 16,
          "height": 16,
          "visible": true
        },
        {
          "id": 233,
          "x": 400,
          "y": 176,
          "width": 16,
          "height": 16,
          "visible": true
        },
        {
          "id": 234,
          "x": 0,
          "y": 192,
          "width": 16,
          "height": 16,
          "visible": true
        },
        {
          "id": 235,
          "x": 16,
          "y": 192,
          "width": 16,
          "height": 16,
          "visible": true
        },
        {
          "id": 236,
          "x": 32,
          "y": 192,
          "width": 16,
          "height": 16,
          "visible": true
        },
        {
          "id": 237,
          "x": 48,
          "y": 192,
          "width": 16,
          "height": 16,
          "visible": true
        },
        {
          "id": 238,
          "x": 304,
          "y": 192,
          "width": 16,
          "height": 16,
          "visible": true
        },
        {
          "id": 239,
          "x": 320,
          "y": 192,
          "width": 16,
          "height": 16,
          "visible": true
        },
        {
          "id": 240,
          "x": 368,
          "y": 192,
          "width": 16,
          "height": 16,
          "visible": true
        },
        {
          "id": 241,
          "x": 384,
          "y": 192,
          "width": 16,
          "height": 16,
          "visible": true
        },
        {
          "id": 242,
          "x": 400,
          "y": 192,
          "width": 16,
          "height": 16,
          "visible": true
        },
        {
          "id": 243,
          "x": 0,
          "y": 208,
          "width": 16,
          "height": 16,
          "visible": true
        },
        {
          "id": 244,
          "x": 16,
          "y": 208,
          "width": 16,
          "height": 16,
          "visible": true
        },
        {
          "id": 245,
          "x": 32,
          "y": 208,
          "width": 16,
          "height": 16,
          "visible": true
        },
        {
          "id": 246,
          "x": 48,
          "y": 208,
          "width": 16,
          "height": 16,
          "visible": true
        },
        {
          "id": 247,
          "x": 368,
          "y": 208,
          "width": 16,
          "height": 16,
          "visible": true
        },
        {
          "id": 248,
          "x": 384,
          "y": 208,
          "width": 16,
          "height": 16,
          "visible": true
        },
        {
          "id": 249,
          "x": 400,
          "y": 208,
          "width": 16,
          "height": 16,
          "visible": true
        },
        {
          "id": 250,
          "x": 0,
          "y": 224,
          "width": 16,
          "height": 16,
          "visible": true
        },
        {
          "id": 251,
          "x": 16,
          "y": 224,
          "width": 16,
          "height": 16,
          "visible": true
        },
        {
          "id": 252,
          "x": 32,
          "y": 224,
          "width": 16,
          "height": 16,
          "visible": true
        },
        {
          "id": 253,
          "x": 48,
          "y": 224,
          "width": 16,
          "height": 16,
          "visible": true
        },
        {
          "id": 254,
          "x": 368,
          "y": 224,
          "width": 16,
          "height": 16,
          "visible": true
        },
        {
          "id": 255,
          "x": 384,
          "y": 224,
          "width": 16,
          "height": 16,
          "visible": true
        },
        {
          "id": 256,
          "x": 400,
          "y": 224,
          "width": 16,
          "height": 16,
          "visible": true
        },
        {
          "id": 257,
          "x": 0,
          "y": 240,
          "width": 16,
          "height": 16,
          "visible": true
        },
        {
          "id": 258,
          "x": 16,
          "y": 240,
          "width": 16,
          "height": 16,
          "visible": true
        },
        {
          "id": 259,
          "x": 32,
          "y": 240,
          "width": 16,
          "height": 16,
          "visible": true
        },
        {
          "id": 260,
          "x": 48,
          "y": 240,
          "width": 16,
          "height": 16,
          "visible": true
        },
        {
          "id": 261,
          "x": 64,
          "y": 240,
          "width": 16,
          "height": 16,
          "visible": true
        },
        {
          "id": 262,
          "x": 352,
          "y": 240,
          "width": 16,
          "height": 16,
          "visible": true
        },
        {
          "id": 263,
          "x": 368,
          "y": 240,
          "width": 16,
          "height": 16,
          "visible": true
        },
        {
          "id": 264,
          "x": 384,
          "y": 240,
          "width": 16,
          "height": 16,
          "visible": true
        },
        {
          "id": 265,
          "x": 400,
          "y": 240,
          "width": 16,
          "height": 16,
          "visible": true
        },
        {
          "id": 266,
          "x": 0,
          "y": 256,
          "width": 16,
          "height": 16,
          "visible": true
        },
        {
          "id": 267,
          "x": 16,
          "y": 256,
          "width": 16,
          "height": 16,
          "visible": true
        },
        {
          "id": 268,
          "x": 32,
          "y": 256,
          "width": 16,
          "height": 16,
          "visible": true
        },
        {
          "id": 269,
          "x": 48,
          "y": 256,
          "width": 16,
          "height": 16,
          "visible": true
        },
        {
          "id": 270,
          "x": 64,
          "y": 256,
          "width": 16,
          "height": 16,
          "visible": true
        },
        {
          "id": 271,
          "x": 80,
          "y": 256,
          "width": 16,
          "height": 16,
          "visible": true
        },
        {
          "id": 272,
          "x": 336,
          "y": 256,
          "width": 16,
          "height": 16,
          "visible": true
        },
        {
          "id": 273,
          "x": 352,
          "y": 256,
          "width": 16,
          "height": 16,
          "visible": true
        },
        {
          "id": 274,
          "x": 368,
          "y": 256,
          "width": 16,
          "height": 16,
          "visible": true
        },
        {
          "id": 275,
          "x": 384,
          "y": 256,
          "width": 16,
          "height": 16,
          "visible": true
        },
        {
          "id": 276,
          "x": 400,
          "y": 256,
          "width": 16,
          "height": 16,
          "visible": true
        },
        {
          "id": 277,
          "x": 0,
          "y": 272,
          "width": 16,
          "height": 16,
          "visible": true
        },
        {
          "id": 278,
          "x": 16,
          "y": 272,
          "width": 16,
          "height": 16,
          "visible": true
        },
        {
          "id": 279,
          "x": 32,
          "y": 272,
          "width": 16,
          "height": 16,
          "visible": true
        },
        {
          "id": 280,
          "x": 48,
          "y": 272,
          "width": 16,
          "height": 16,
          "visible": true
        },
        {
          "id": 281,
          "x": 64,
          "y": 272,
          "width": 16,
          "height": 16,
          "visible": true
        },
        {
          "id": 282,
          "x": 80,
          "y": 272,
          "width": 16,
          "height": 16,
          "visible": true
        },
        {
          "id": 283,
          "x": 96,
          "y": 272,
          "width": 16,
          "height": 16,
          "visible": true
        },
        {
          "id": 284,
          "x": 112,
          "y": 272,
          "width": 16,
          "height": 16,
          "visible": true
        },
        {
          "id": 285,
          "x": 304,
          "y": 272,
          "width": 16,
          "height": 16,
          "visible": true
        },
        {
          "id": 286,
          "x": 320,
          "y": 272,
          "width": 16,
          "height": 16,
          "visible": true
        },
        {
          "id": 287,
          "x": 336,
          "y": 272,
          "width": 16,
          "height": 16,
          "visible": true
        },
        {
          "id": 288,
          "x": 352,
          "y": 272,
          "width": 16,
          "height": 16,
          "visible": true
        },
        {
          "id": 289,
          "x": 368,
          "y": 272,
          "width": 16,
          "height": 16,
          "visible": true
        },
        {
          "id": 290,
          "x": 384,
          "y": 272,
          "width": 16,
          "height": 16,
          "visible": true
        },
        {
          "id": 291,
          "x": 400,
          "y": 272,
          "width": 16,
          "height": 16,
          "visible": true
        },
        {
          "id": 292,
          "x": 0,
          "y": 288,
          "width": 16,
          "height": 16,
          "visible": true
        },
        {
          "id": 293,
          "x": 16,
          "y": 288,
          "width": 16,
          "height": 16,
          "visible": true
        },
        {
          "id": 294,
          "x": 32,
          "y": 288,
          "width": 16,
          "height": 16,
          "visible": true
        },
        {
          "id": 295,
          "x": 48,
          "y": 288,
          "width": 16,
          "height": 16,
          "visible": true
        },
        {
          "id": 296,
          "x": 64,
          "y": 288,
          "width": 16,
          "height": 16,
          "visible": true
        },
        {
          "id": 297,
          "x": 80,
          "y": 288,
          "width": 16,
          "height": 16,
          "visible": true
        },
        {
          "id": 298,
          "x": 96,
          "y": 288,
          "width": 16,
          "height": 16,
          "visible": true
        },
        {
          "id": 299,
          "x": 112,
          "y": 288,
          "width": 16,
          "height": 16,
          "visible": true
        },
        {
          "id": 300,
          "x": 128,
          "y": 288,
          "width": 16,
          "height": 16,
          "visible": true
        },
        {
          "id": 301,
          "x": 144,
          "y": 288,
          "width": 16,
          "height": 16,
          "visible": true
        },
        {
          "id": 302,
          "x": 160,
          "y": 288,
          "width": 16,
          "height": 16,
          "visible": true
        },
        {
          "id": 303,
          "x": 256,
          "y": 288,
          "width": 16,
          "height": 16,
          "visible": true
        },
        {
          "id": 304,
          "x": 272,
          "y": 288,
          "width": 16,
          "height": 16,
          "visible": true
        },
        {
          "id": 305,
          "x": 288,
          "y": 288,
          "width": 16,
          "height": 16,
          "visible": true
        },
        {
          "id": 306,
          "x": 304,
          "y": 288,
          "width": 16,
          "height": 16,
          "visible": true
        },
        {
          "id": 307,
          "x": 320,
          "y": 288,
          "width": 16,
          "height": 16,
          "visible": true
        },
        {
          "id": 308,
          "x": 336,
          "y": 288,
          "width": 16,
          "height": 16,
          "visible": true
        },
        {
          "id": 309,
          "x": 352,
          "y": 288,
          "width": 16,
          "height": 16,
          "visible": true
        },
        {
          "id": 310,
          "x": 368,
          "y": 288,
          "width": 16,
          "height": 16,
          "visible": true
        },
        {
          "id": 311,
          "x": 384,
          "y": 288,
          "width": 16,
          "height": 16,
          "visible": true
        },
        {
          "id": 312,
          "x": 400,
          "y": 288,
          "width": 16,
          "height": 16,
          "visible": true
        },
        {
          "id": 313,
          "x": 0,
          "y": 304,
          "width": 16,
          "height": 16,
          "visible": true
        },
        {
          "id": 314,
          "x": 16,
          "y": 304,
          "width": 16,
          "height": 16,
          "visible": true
        },
        {
          "id": 315,
          "x": 32,
          "y": 304,
          "width": 16,
          "height": 16,
          "visible": true
        },
        {
          "id": 316,
          "x": 48,
          "y": 304,
          "width": 16,
          "height": 16,
          "visible": true
        },
        {
          "id": 317,
          "x": 64,
          "y": 304,
          "width": 16,
          "height": 16,
          "visible": true
        },
        {
          "id": 318,
          "x": 80,
          "y": 304,
          "width": 16,
          "height": 16,
          "visible": true
        },
        {
          "id": 319,
          "x": 96,
          "y": 304,
          "width": 16,
          "height": 16,
          "visible": true
        },
        {
          "id": 320,
          "x": 112,
          "y": 304,
          "width": 16,
          "height": 16,
          "visible": true
        },
        {
          "id": 321,
          "x": 128,
          "y": 304,
          "width": 16,
          "height": 16,
          "visible": true
        },
        {
          "id": 322,
          "x": 144,
          "y": 304,
          "width": 16,
          "height": 16,
          "visible": true
        },
        {
          "id": 323,
          "x": 160,
          "y": 304,
          "width": 16,
          "height": 16,
          "visible": true
        },
        {
          "id": 324,
          "x": 176,
          "y": 304,
          "width": 16,
          "height": 16,
          "visible": true
        },
        {
          "id": 325,
          "x": 240,
          "y": 304,
          "width": 16,
          "height": 16,
          "visible": true
        },
        {
          "id": 326,
          "x": 256,
          "y": 304,
          "width": 16,
          "height": 16,
          "visible": true
        },
        {
          "id": 327,
          "x": 272,
          "y": 304,
          "width": 16,
          "height": 16,
          "visible": true
        },
        {
          "id": 328,
          "x": 288,
          "y": 304,
          "width": 16,
          "height": 16,
          "visible": true
        },
        {
          "id": 329,
          "x": 304,
          "y": 304,
          "width": 16,
          "height": 16,
          "visible": true
        },
        {
          "id": 330,
          "x": 320,
          "y": 304,
          "width": 16,
          "height": 16,
          "visible": true
        },
        {
          "id": 331,
          "x": 336,
          "y": 304,
          "width": 16,
          "height": 16,
          "visible": true
        },
        {
          "id": 332,
          "x": 352,
          "y": 304,
          "width": 16,
          "height": 16,
          "visible": true
        },
        {
          "id": 333,
          "x": 368,
          "y": 304,
          "width": 16,
          "height": 16,
          "visible": true
        },
        {
          "id": 334,
          "x": 384,
          "y": 304,
          "width": 16,
          "height": 16,
          "visible": true
        },
        {
          "id": 335,
          "x": 400,
          "y": 304,
          "width": 16,
          "height": 16,
          "visible": true
        },
        {
          "id": 336,
          "x": 0,
          "y": 320,
          "width": 16,
          "height": 16,
          "visible": true
        },
        {
          "id": 337,
          "x": 16,
          "y": 320,
          "width": 16,
          "height": 16,
          "visible": true
        },
        {
          "id": 338,
          "x": 32,
          "y": 320,
          "width": 16,
          "height": 16,
          "visible": true
        },
        {
          "id": 339,
          "x": 48,
          "y": 320,
          "width": 16,
          "height": 16,
          "visible": true
        },
        {
          "id": 340,
          "x": 64,
          "y": 320,
          "width": 16,
          "height": 16,
          "visible": true
        },
        {
          "id": 341,
          "x": 80,
          "y": 320,
          "width": 16,
          "height": 16,
          "visible": true
        },
        {
          "id": 342,
          "x": 96,
          "y": 320,
          "width": 16,
          "height": 16,
          "visible": true
        },
        {
          "id": 343,
          "x": 112,
          "y": 320,
          "width": 16,
          "height": 16,
          "visible": true
        },
        {
          "id": 344,
          "x": 128,
          "y": 320,
          "width": 16,
          "height": 16,
          "visible": true
        },
        {
          "id": 345,
          "x": 144,
          "y": 320,
          "width": 16,
          "height": 16,
          "visible": true
        },
        {
          "id": 346,
          "x": 160,
          "y": 320,
          "width": 16,
          "height": 16,
          "visible": true
        },
        {
          "id": 347,
          "x": 176,
          "y": 320,
          "width": 16,
          "height": 16,
          "visible": true
        },
        {
          "id": 348,
          "x": 240,
          "y": 320,
          "width": 16,
          "height": 16,
          "visible": true
        },
        {
          "id": 349,
          "x": 256,
          "y": 320,
          "width": 16,
          "height": 16,
          "visible": true
        },
        {
          "id": 350,
          "x": 272,
          "y": 320,
          "width": 16,
          "height": 16,
          "visible": true
        },
        {
          "id": 351,
          "x": 288,
          "y": 320,
          "width": 16,
          "height": 16,
          "visible": true
        },
        {
          "id": 352,
          "x": 304,
          "y": 320,
          "width": 16,
          "height": 16,
          "visible": true
        },
        {
          "id": 353,
          "x": 320,
          "y": 320,
          "width": 16,
          "height": 16,
          "visible": true
        },
        {
          "id": 354,
          "x": 336,
          "y": 320,
          "width": 16,
          "height": 16,
          "visible": true
        },
        {
          "id": 355,
          "x": 352,
          "y": 320,
          "width": 16,
          "height": 16,
          "visible": true
        },
        {
          "id": 356,
          "x": 368,
          "y": 320,
          "width": 16,
          "height": 16,
          "visible": true
        },
        {
          "id": 357,
          "x": 384,
          "y": 320,
          "width": 16,
          "height": 16,
          "visible": true
        },
        {
          "id": 358,
          "x": 400,
          "y": 320,
          "width": 16,
          "height": 16,
          "visible": true
        },
        {
          "id": 359,
          "x": 0,
          "y": 336,
          "width": 16,
          "height": 16,
          "visible": true
        },
        {
          "id": 360,
          "x": 16,
          "y": 336,
          "width": 16,
          "height": 16,
          "visible": true
        },
        {
          "id": 361,
          "x": 32,
          "y": 336,
          "width": 16,
          "height": 16,
          "visible": true
        },
        {
          "id": 362,
          "x": 48,
          "y": 336,
          "width": 16,
          "height": 16,
          "visible": true
        },
        {
          "id": 363,
          "x": 64,
          "y": 336,
          "width": 16,
          "height": 16,
          "visible": true
        },
        {
          "id": 364,
          "x": 80,
          "y": 336,
          "width": 16,
          "height": 16,
          "visible": true
        },
        {
          "id": 365,
          "x": 96,
          "y": 336,
          "width": 16,
          "height": 16,
          "visible": true
        },
        {
          "id": 366,
          "x": 112,
          "y": 336,
          "width": 16,
          "height": 16,
          "visible": true
        },
        {
          "id": 367,
          "x": 128,
          "y": 336,
          "width": 16,
          "height": 16,
          "visible": true
        },
        {
          "id": 368,
          "x": 144,
          "y": 336,
          "width": 16,
          "height": 16,
          "visible": true
        },
        {
          "id": 369,
          "x": 160,
          "y": 336,
          "width": 16,
          "height": 16,
          "visible": true
        },
        {
          "id": 370,
          "x": 176,
          "y": 336,
          "width": 16,
          "height": 16,
          "visible": true
        },
        {
          "id": 371,
          "x": 240,
          "y": 336,
          "width": 16,
          "height": 16,
          "visible": true
        },
        {
          "id": 372,
          "x": 256,
          "y": 336,
          "width": 16,
          "height": 16,
          "visible": true
        },
        {
          "id": 373,
          "x": 272,
          "y": 336,
          "width": 16,
          "height": 16,
          "visible": true
        },
        {
          "id": 374,
          "x": 288,
          "y": 336,
          "width": 16,
          "height": 16,
          "visible": true
        },
        {
          "id": 375,
          "x": 304,
          "y": 336,
          "width": 16,
          "height": 16,
          "visible": true
        },
        {
          "id": 376,
          "x": 320,
          "y": 336,
          "width": 16,
          "height": 16,
          "visible": true
        },
        {
          "id": 377,
          "x": 336,
          "y": 336,
          "width": 16,
          "height": 16,
          "visible": true
        },
        {
          "id": 378,
          "x": 352,
          "y": 336,
          "width": 16,
          "height": 16,
          "visible": true
        },
        {
          "id": 379,
          "x": 368,
          "y": 336,
          "width": 16,
          "height": 16,
          "visible": true
        },
        {
          "id": 380,
          "x": 384,
          "y": 336,
          "width": 16,
          "height": 16,
          "visible": true
        },
        {
          "id": 381,
          "x": 400,
          "y": 336,
          "width": 16,
          "height": 16,
          "visible": true
        }
      ]
    }
  ]
}