{"type":"map","orientation":"orthogonal","renderorder":"right-down","width":30,"height":24,"tilewidth":32,"tileheight":32,"infinite":false,"tilesets":[{"firstgid":1,"source":"terrain.tsj"},{"firstgid":149,"source":"props.tsj"}],"layers":[{"id":1,"type":"tilelayer","name":"cliff","width":30,"height":24,"data":[0,0,0,0,0,0,0,0,0,0,0,0,0,0,0,0,0,0,0,0,0,0,0,0,0,0,0,0,0,0,0,0,0,0,0,0,0,0,0,0,0,0,0,0,0,0,0,0,0,0,0,0,0,0,0,0,0,0,0,0,0,0,0,0,0,0,0,0,0,0,0,0,0,0,0,0,0,0,0,0,0,0,0,0,0,0,0,0,0,0,0,0,0,0,0,0,0,0,0,0,0,0,0,0,0,0,0,0,0,0,0,0,0,0,0,0,0,0,0,0,0,0,0,0,0,0,0,0,0,0,0,0,0,0,0,0,0,0,0,0,0,0,0,0,0,0,0,0,0,0,0,0,0,0,0,0,0,0,0,0,142,142,142,0,0,0,0,0,0,0,0,0,0,0,0,0,0,0,0,0,0,0,0,0,0,0,0,0,0,0,0,0,0,0,0,0,0,0,0,0,0,0,0,0,0,0,0,0,0,0,0,0,0,0,0,0,0,0,0,0,0,0,0,143,142,142,142,142,144,0,0,0,0,0,0,0,0,0,0,0,0,0,143,142,142,142,142,0,142,144,0,0,0,0,0,0,0,0,0,0,0,0,0,0,0,0,0,0,0,0,0,0,0,0,0,0,0,0,0,0,0,0,0,0,0,0,0,0,0,0,0,0,143,142,0,142,142,144,0,0,0,0,0,0,0,0,0,0,0,0,143,142,0,142,142,144,0,0,0,0,0,0,0,0,0,0,0,0,0,0,0,0,0,0,0,143,142,0,0,0,0,0,0,0,0,0,0,0,0,0,0,0,0,0,0,0,0,0,0,0,0,0,0,0,0,0,0,0,0,0,0,0,0,0,0,0,0,0,0,0,0,0,0,0,0,0,0,0,0,0,0,0,0,0,0,0,0,0,0,0,0,0,0,0,0,0,0,0,0,0,0,0,0,0,0,0,0,0,0,0,0,0,0,0,0,142,142,0,0,0,0,0,0,0,0,0,0,0,142,142,142,0,0,0,0,0,0,0,0,0,0,0,0,0,0,0,0,0,0,0,0,0,0,0,0,0,0,0,0,0,0,0,0,0,0,0,0,0,0,0,0,0,0,0,0,0,0,0,0,0,0,0,0,0,0,0,0,0,0,0,0,0,0,0,0,0,0,0,0,0,0,0,0,0,0,0,0,0,0,0,142,142,142,142,142,0,0,0,0,0,0,0,0,0,0,0,0,0,0,0,0,0,0,0,0,0,0,0,0,0,0,0,0,0,0,0,0,0,0,0,0,0,0,0,0,0,0,0,0,0,0,0,0,143,142,142,0,142,142,144,0,0,0,0,0,0,0,0,0,0,0,0,0,0,0,0,0,0,0,0,0,0,0,0,0,0,0,0,0,0,0,0,0,0,0,143,142,142,0,0,0,142,142,142,142,144,0,0,0,0,0,0,0,0,0,0,0,0,0,0,0,0,0,0,0,0,0,0,0,0,0,0,0,0,0,0,0,0,0,0,0,0,0,0,0,0,145,0,0,0,0,0,0,0,0,0,0,0,143,142,144,0,0,0,0,0,0,0,0,0,0,0,0,0,0,0,0,0,0,0,0,0,0,0,0,0,0,0,0,0,0,0,0,0,0,0,0,0,0,0],"visible":true,"opacity":1,"x":0,"y":0},{"id":2,"type":"tilelayer","name":"ground","width":30,"height":24,"data":[0,0,0,0,0,0,0,0,0,0,0,0,0,0,0,0,0,0,0,0,0,0,0,0,0,0,0,0,0,0,0,0,0,0,0,0,0,0,0,0,0,0,0,0,0,0,0,0,0,0,0,0,0,0,0,0,0,0,0,0,0,0,68,79,32,79,79,32,126,27,0,0,0,115,126,32,32,32,27,0,0,0,0,0,0,0,0,0,0,0,0,0,119,141,94,141,94,47,141,90,0,0,0,72,94,94,94,94,43,0,0,0,21,126,126,79,79,74,0,0,0,0,72,141,141,94,94,141,47,91,58,105,58,73,94,47,94,47,43,0,0,0,119,94,94,141,94,90,0,0,0,0,25,47,141,141,94,94,141,137,0,0,0,119,47,141,47,141,147,147,147,147,147,47,141,47,141,137,0,0,0,0,25,94,94,94,94,94,47,90,0,0,0,17,133,133,86,133,35,0,0,0,25,94,94,47,94,90,0,0,0,0,17,133,39,39,39,87,133,82,0,0,0,0,0,0,0,0,0,0,0,0,25,94,141,141,47,137,0,0,0,0,0,0,0,0,0,53,0,0,0,0,0,0,0,0,0,0,0,0,0,0,17,133,146,133,86,35,0,0,0,0,0,0,0,0,0,53,0,0,97,11,109,105,58,103,0,0,0,0,0,0,0,0,146,0,0,0,0,0,0,0,0,0,0,50,11,108,0,0,0,0,6,0,0,0,0,0,0,0,0,0,0,0,146,0,0,0,0,0,0,0,0,0,0,0,0,100,0,0,0,0,53,0,0,68,79,126,126,126,126,126,148,148,146,27,0,0,0,0,0,0,0,21,32,32,32,33,32,121,0,0,6,0,0,119,141,47,94,141,94,94,148,148,94,90,0,0,0,0,0,0,0,72,45,39,133,89,141,43,0,0,53,0,0,119,94,45,133,39,86,89,47,94,47,90,0,0,0,0,0,0,0,72,90,0,0,72,47,137,0,0,6,0,0,119,47,43,0,0,0,119,47,94,47,90,0,0,0,0,0,0,0,25,137,0,0,119,47,46,126,79,80,126,32,34,47,43,0,0,0,72,47,94,94,43,0,0,0,0,0,0,0,72,46,32,126,81,47,92,86,86,133,39,86,89,47,90,0,0,0,119,94,94,141,43,0,0,0,0,0,0,0,72,141,141,94,47,94,43,0,0,0,0,0,25,94,93,32,32,126,81,94,141,141,137,0,0,0,0,0,0,0,64,86,86,40,133,86,35,0,0,0,0,0,119,47,141,141,141,94,47,94,47,141,43,0,0,0,0,0,0,0,0,0,0,53,0,0,0,0,0,0,0,0,17,133,39,136,141,139,133,86,39,133,82,0,0,0,0,0,0,0,0,0,0,100,0,0,0,0,0,0,0,0,0,0,0,72,141,137,0,0,0,0,0,0,0,0,0,0,0,0,0,0,0,96,0,0,0,0,0,0,0,0,0,0,0,64,39,129,0,0,0,0,0,0,0,0,0,0,0,0,0,0,0,0,0,0,0,0,0,0,0,0,0,0,0,0,0,0,0,0,0,0,0,0,0,0,0,0,0,0,0,0,0,0,0,0,0,0,0,0,0,0,0,0,0,0,0,0,0,0,0,0,0,0,0,0,0],"visible":true,"opacity":1,"x":0,"y":0},{"id":3,"name":"props","type":"objectgroup","visible":true,"opacity":1,"objects":[{"id":1,"gid":160,"x":160,"y":96,"width":64,"height":64,"visible":true,"rotation":0},{"id":2,"gid":161,"x":64,"y":128,"width":64,"height":64,"visible":true,"rotation":0},{"id":3,"gid":163,"x":512,"y":128,"width":64,"height":64,"visible":true,"rotation":0},{"id":4,"gid":157,"x":832,"y":160,"width":64,"height":64,"visible":true,"rotation":0},{"id":5,"gid":162,"x":96,"y":576,"width":64,"height":64,"visible":true,"rotation":0}]},{"id":4,"name":"collision","type":"objectgroup","visible":false,"opacity":1,"objects":[{"id":1,"x":0,"y":0,"width":32,"height":32,"visible":true,"rotation":0},{"id":2,"x":32,"y":0,"width":32,"height":32,"visible":true,"rotation":0},{"id":3,"x":64,"y":0,"width":32,"height":32,"visible":true,"rotation":0},{"id":4,"x":96,"y":0,"width":32,"height":32,"visible":true,"rotation":0},{"id":5,"x":128,"y":0,"width":32,"height":32,"visible":true,"rotation":0},{"id":6,"x":160,"y":0,"width":32,"height":32,"visible":true,"rotation":0},{"id":7,"x":192,"y":0,"width":32,"height":32,"visible":true,"rotation":0},{"id":8,"x":224,"y":0,"width":32,"height":32,"visible":true,"rotation":0},{"id":9,"x":256,"y":0,"width":32,"height":32,"visible":true,"rotation":0},{"id":10,"x":288,"y":0,"width":32,"height":32,"visible":true,"rotation":0},{"id":11,"x":320,"y":0,"width":32,"height":32,"visible":true,"rotation":0},{"id":12,"x":352,"y":0,"width":32,"height":32,"visible":true,"rotation":0},{"id":13,"x":384,"y":0,"width":32,"height":32,"visible":true,"rotation":0},{"id":14,"x":416,"y":0,"width":32,"height":32,"visible":true,"rotation":0},{"id":15,"x":448,"y":0,"width":32,"height":32,"visible":true,"rotation":0},{"id":16,"x":480,"y":0,"width":32,"height":32,"visible":true,"rotation":0},{"id":17,"x":512,"y":0,"width":32,"height":32,"visible":true,"rotation":0},{"id":18,"x":544,"y":0,"width":32,"height":32,"visible":true,"rotation":0},{"id":19,"x":576,"y":0,"width":32,"height":32,"visible":true,"rotation":0},{"id":20,"x":608,"y":0,"width":32,"height":32,"visible":true,"rotation":0},{"id":21,"x":640,"y":0,"width":32,"height":32,"visible":true,"rotation":0},{"id":22,"x":672,"y":0,"width":32,"height":32,"visible":true,"rotation":0},{"id":23,"x":704,"y":0,"width":32,"height":32,"visible":true,"rotation":0},{"id":24,"x":736,"y":0,"width":32,"height":32,"visible":true,"rotation":0},{"id":25,"x":768,"y":0,"width":32,"height":32,"visible":true,"rotation":0},{"id":26,"x":800,"y":0,"width":32,"height":32,"visible":true,"rotation":0},{"id":27,"x":832,"y":0,"width":32,"height":32,"visible":true,"rotation":0},{"id":28,"x":864,"y":0,"width":32,"height":32,"visible":true,"rotation":0},{"id":29,"x":896,"y":0,"width":32,"height":32,"visible":true,"rotation":0},{"id":30,"x":928,"y":0,"width":32,"height":32,"visible":true,"rotation":0},{"id":31,"x":0,"y":32,"width":32,"height":32,"visible":true,"rotation":0},{"id":32,"x":32,"y":32,"width":32,"height":32,"visible":true,"rotation":0},{"id":33,"x":64,"y":32,"width":32,"height":32,"visible":true,"rotation":0},{"id":34,"x":96,"y":32,"width":32,"height":32,"visible":true,"rotation":0},{"id":35,"x":128,"y":32,"width":32,"height":32,"visible":true,"rotation":0},{"id":36,"x":160,"y":32,"width":32,"height":32,"visible":true,"rotation":0},{"id":37,"x":192,"y":32,"width":32,"height":32,"visible":true,"rotation":0},{"id":38,"x":224,"y":32,"width":32,"height":32,"visible":true,"rotation":0},{"id":39,"x":256,"y":32,"width":32,"height":32,"visible":true,"rotation":0},{"id":40,"x":288,"y":32,"width":32,"height":32,"visible":true,"rotation":0},{"id":41,"x":320,"y":32,"width":32,"height":32,"visible":true,"rotation":0},{"id":42,"x":352,"y":32,"width":32,"height":32,"visible":true,"rotation":0},{"id":43,"x":384,"y":32,"width":32,"height":32,"visible":true,"rotation":0},{"id":44,"x":416,"y":32,"width":32,"height":32,"visible":true,"rotation":0},{"id":45,"x":448,"y":32,"width":32,"height":32,"visible":true,"rotation":0},{"id":46,"x":480,"y":32,"width":32,"height":32,"visible":true,"rotation":0},{"id":47,"x":512,"y":32,"width":32,"height":32,"visible":true,"rotation":0},{"id":48,"x":544,"y":32,"width":32,"height":32,"visible":true,"rotation":0},{"id":49,"x":576,"y":32,"width":32,"height":32,"visible":true,"rotation":0},{"id":50,"x":608,"y":32,"width":32,"height":32,"visible":true,"rotation":0},{"id":51,"x":640,"y":32,"width":32,"height":32,"visible":true,"rotation":0},{"id":52,"x":672,"y":32,"width":32,"height":32,"visible":true,"rotation":0},{"id":53,"x":704,"y":32,"width":32,"height":32,"visible":true,"rotation":0},{"id":54,"x":736,"y":32,"width":32,"height":32,"visible":true,"rotation":0},{"id":55,"x":768,"y":32,"width":32,"height":32,"visible":true,"rotation":0},{"id":56,"x":800,"y":32,"width":32,"height":32,"visible":true,"rotation":0},{"id":57,"x":832,"y":32,"width":32,"height":32,"visible":true,"rotation":0},{"id":58,"x":864,"y":32,"width":32,"height":32,"visible":true,"rotation":0},{"id":59,"x":896,"y":32,"width":32,"height":32,"visible":true,"rotation":0},{"id":60,"x":928,"y":32,"width":32,"height":32,"visible":true,"rotation":0},{"id":61,"x":0,"y":64,"width":32,"height":32,"visible":true,"rotation":0},{"id":62,"x":32,"y":64,"width":32,"height":32,"visible":true,"rotation":0},{"id":71,"x":320,"y":64,"width":32,"height":32,"visible":true,"rotation":0},{"id":72,"x":352,"y":64,"width":32,"height":32,"visible":true,"rotation":0},{"id":73,"x":384,"y":64,"width":32,"height":32,"visible":true,"rotation":0},{"id":80,"x":608,"y":64,"width":32,"height":32,"visible":true,"rotation":0},{"id":81,"x":640,"y":64,"width":32,"height":32,"visible":true,"rotation":0},{"id":82,"x":672,"y":64,"width":32,"height":32,"visible":true,"rotation":0},{"id":83,"x":704,"y":64,"width":32,"height":32,"visible":true,"rotation":0},{"id":84,"x":736,"y":64,"width":32,"height":32,"visible":true,"rotation":0},{"id":85,"x":768,"y":64,"width":32,"height":32,"visible":true,"rotation":0},{"id":86,"x":800,"y":64,"width":32,"height":32,"visible":true,"rotation":0},{"id":87,"x":832,"y":64,"width":32,"height":32,"visible":true,"rotation":0},{"id":88,"x":864,"y":64,"width":32,"height":32,"visible":true,"rotation":0},{"id":89,"x":896,"y":64,"width":32,"height":32,"visible":true,"rotation":0},{"id":90,"x":928,"y":64,"width":32,"height":32,"visible":true,"rotation":0},{"id":91,"x":0,"y":96,"width":32,"height":32,"visible":true,"rotation":0},{"id":92,"x":32,"y":96,"width":32,"height":32,"visible":true,"rotation":0},{"id":101,"x":320,"y":96,"width":32,"height":32,"visible":true,"rotation":0},{"id":102,"x":352,"y":96,"width":32,"height":32,"visible":true,"rotation":0},{"id":103,"x":384,"y":96,"width":32,"height":32,"visible":true,"rotation":0},{"id":110,"x":608,"y":96,"width":32,"height":32,"visible":true,"rotation":0},{"id":111,"x":640,"y":96,"width":32,"height":32,"visible":true,"rotation":0},{"id":112,"x":672,"y":96,"width":32,"height":32,"visible":true,"rotation":0},{"id":119,"x":896,"y":96,"width":32,"height":32,"visible":true,"rotation":0},{"id":120,"x":928,"y":96,"width":32,"height":32,"visible":true,"rotation":0},{"id":121,"x":0,"y":128,"width":32,"height":32,"visible":true,"rotation":0},{"id":122,"x":32,"y":128,"width":32,"height":32,"visible":true,"rotation":0},{"id":140,"x":608,"y":128,"width":32,"height":32,"visible":true,"rotation":0},{"id":141,"x":640,"y":128,"width":32,"height":32,"visible":true,"rotation":0},{"id":142,"x":672,"y":128,"width":32,"height":32,"visible":true,"rotation":0},{"id":149,"x":896,"y":128,"width":32,"height":32,"visible":true,"rotation":0},{"id":150,"x":928,"y":128,"width":32,"height":32,"visible":true,"rotation":0},{"id":151,"x":0,"y":160,"width":32,"height":32,"visible":true,"rotation":0},{"id":152,"x":32,"y":160,"width":32,"height":32,"visible":true,"rotation":0},{"id":161,"x":320,"y":160,"width":32,"height":32,"visible":true,"rotation":0},{"id":162,"x":352,"y":160,"width":32,"height":32,"visible":true,"rotation":0},{"id":163,"x":384,"y":160,"width":32,"height":32,"visible":true,"rotation":0},{"id":179,"x":896,"y":160,"width":32,"height":32,"visible":true,"rotation":0},{"id":180,"x":928,"y":160,"width":32,"height":32,"visible":true,"rotation":0},{"id":181,"x":0,"y":192,"width":32,"height":32,"visible":true,"rotation":0},{"id":182,"x":32,"y":192,"width":32,"height":32,"visible":true,"rotation":0},{"id":191,"x":320,"y":192,"width":32,"height":32,"visible":true,"rotation":0},{"id":192,"x":352,"y":192,"width":32,"height":32,"visible":true,"rotation":0},{"id":193,"x":384,"y":192,"width":32,"height":32,"visible":true,"rotation":0},{"id":200,"x":608,"y":192,"width":32,"height":32,"visible":true,"rotation":0},{"id":201,"x":640,"y":192,"width":32,"height":32,"visible":true,"rotation":0},{"id":202,"x":672,"y":192,"width":32,"height":32,"visible":true,"rotation":0},{"id":209,"x":896,"y":192,"width":32,"height":32,"visible":true,"rotation":0},{"id":210,"x":928,"y":192,"width":32,"height":32,"visible":true,"rotation":0},{"id":211,"x":0,"y":224,"width":32,"height":32,"visible":true,"rotation":0},{"id":212,"x":32,"y":224,"width":32,"height":32,"visible":true,"rotation":0},{"id":221,"x":320,"y":224,"width":32,"height":32,"visible":true,"rotation":0},{"id":222,"x":352,"y":224,"width":32,"height":32,"visible":true,"rotation":0},{"id":223,"x":384,"y":224,"width":32,"height":32,"visible":true,"rotation":0},{"id":224,"x":416,"y":224,"width":32,"height":32,"visible":true,"rotation":0},{"id":225,"x":448,"y":224,"width":32,"height":32,"visible":true,"rotation":0},{"id":226,"x":480,"y":224,"width":32,"height":32,"visible":true,"rotation":0},{"id":227,"x":512,"y":224,"width":32,"height":32,"visible":true,"rotation":0},{"id":228,"x":544,"y":224,"width":32,"height":32,"visible":true,"rotation":0},{"id":229,"x":576,"y":224,"width":32,"height":32,"visible":true,"rotation":0},{"id":230,"x":608,"y":224,"width":32,"height":32,"visible":true,"rotation":0},{"id":231,"x":640,"y":224,"width":32,"height":32,"visible":true,"rotation":0},{"id":232,"x":672,"y":224,"width":32,"height":32,"visible":true,"rotation":0},{"id":239,"x":896,"y":224,"width":32,"height":32,"visible":true,"rotation":0},{"id":240,"x":928,"y":224,"width":32,"height":32,"visible":true,"rotation":0},{"id":241,"x":0,"y":256,"width":32,"height":32,"visible":true,"rotation":0},{"id":242,"x":32,"y":256,"width":32,"height":32,"visible":true,"rotation":0},{"id":243,"x":64,"y":256,"width":32,"height":32,"visible":true,"rotation":0},{"id":244,"x":96,"y":256,"width":32,"height":32,"visible":true,"rotation":0},{"id":245,"x":128,"y":256,"width":32,"height":32,"visible":true,"rotation":0},{"id":246,"x":160,"y":256,"width":32,"height":32,"visible":true,"rotation":0},{"id":247,"x":192,"y":256,"width":32,"height":32,"visible":true,"rotation":0},{"id":249,"x":256,"y":256,"width":32,"height":32,"visible":true,"rotation":0},{"id":250,"x":288,"y":256,"width":32,"height":32,"visible":true,"rotation":0},{"id":251,"x":320,"y":256,"width":32,"height":32,"visible":true,"rotation":0},{"id":252,"x":352,"y":256,"width":32,"height":32,"visible":true,"rotation":0},{"id":253,"x":384,"y":256,"width":32,"height":32,"visible":true,"rotation":0},{"id":254,"x":416,"y":256,"width":32,"height":32,"visible":true,"rotation":0},{"id":255,"x":448,"y":256,"width":32,"height":32,"visible":true,"rotation":0},{"id":256,"x":480,"y":256,"width":32,"height":32,"visible":true,"rotation":0},{"id":257,"x":512,"y":256,"width":32,"height":32,"visible":true,"rotation":0},{"id":258,"x":544,"y":256,"width":32,"height":32,"visible":true,"rotation":0},{"id":259,"x":576,"y":256,"width":32,"height":32,"visible":true,"rotation":0},{"id":260,"x":608,"y":256,"width":32,"height":32,"visible":true,"rotation":0},{"id":261,"x":640,"y":256,"width":32,"height":32,"visible":true,"rotation":0},{"id":262,"x":672,"y":256,"width":32,"height":32,"visible":true,"rotation":0},{"id":269,"x":896,"y":256,"width":32,"height":32,"visible":true,"rotation":0},{"id":270,"x":928,"y":256,"width":32,"height":32,"visible":true,"rotation":0},{"id":271,"x":0,"y":288,"width":32,"height":32,"visible":true,"rotation":0},{"id":272,"x":32,"y":288,"width":32,"height":32,"visible":true,"rotation":0},{"id":273,"x":64,"y":288,"width":32,"height":32,"visible":true,"rotation":0},{"id":274,"x":96,"y":288,"width":32,"height":32,"visible":true,"rotation":0},{"id":275,"x":128,"y":288,"width":32,"height":32,"visible":true,"rotation":0},{"id":276,"x":160,"y":288,"width":32,"height":32,"visible":true,"rotation":0},{"id":277,"x":192,"y":288,"width":32,"height":32,"visible":true,"rotation":0},{"id":279,"x":256,"y":288,"width":32,"height":32,"visible":true,"rotation":0},{"id":280,"x":288,"y":288,"width":32,"height":32,"visible":true,"rotation":0},{"id":287,"x":512,"y":288,"width":32,"height":32,"visible":true,"rotation":0},{"id":288,"x":544,"y":288,"width":32,"height":32,"visible":true,"rotation":0},{"id":289,"x":576,"y":288,"width":32,"height":32,"visible":true,"rotation":0},{"id":290,"x":608,"y":288,"width":32,"height":32,"visible":true,"rotation":0},{"id":291,"x":640,"y":288,"width":32,"height":32,"visible":true,"rotation":0},{"id":292,"x":672,"y":288,"width":32,"height":32,"visible":true,"rotation":0},{"id":293,"x":704,"y":288,"width":32,"height":32,"visible":true,"rotation":0},{"id":294,"x":736,"y":288,"width":32,"height":32,"visible":true,"rotation":0},{"id":296,"x":800,"y":288,"width":32,"height":32,"visible":true,"rotation":0},{"id":297,"x":832,"y":288,"width":32,"height":32,"visible":true,"rotation":0},{"id":298,"x":864,"y":288,"width":32,"height":32,"visible":true,"rotation":0},{"id":299,"x":896,"y":288,"width":32,"height":32,"visible":true,"rotation":0},{"id":300,"x":928,"y":288,"width":32,"height":32,"visible":true,"rotation":0},{"id":301,"x":0,"y":320,"width":32,"height":32,"visible":true,"rotation":0},{"id":302,"x":32,"y":320,"width":32,"height":32,"visible":true,"rotation":0},{"id":303,"x":64,"y":320,"width":32,"height":32,"visible":true,"rotation":0},{"id":304,"x":96,"y":320,"width":32,"height":32,"visible":true,"rotation":0},{"id":305,"x":128,"y":320,"width":32,"height":32,"visible":true,"rotation":0},{"id":309,"x":256,"y":320,"width":32,"height":32,"visible":true,"rotation":0},{"id":310,"x":288,"y":320,"width":32,"height":32,"visible":true,"rotation":0},{"id":311,"x":320,"y":320,"width":32,"height":32,"visible":true,"rotation":0},{"id":312,"x":352,"y":320,"width":32,"height":32,"visible":true,"rotation":0},{"id":314,"x":416,"y":320,"width":32,"height":32,"visible":true,"rotation":0},{"id":315,"x":448,"y":320,"width":32,"height":32,"visible":true,"rotation":0},{"id":316,"x":480,"y":320,"width":32,"height":32,"visible":true,"rotation":0},{"id":317,"x":512,"y":320,"width":32,"height":32,"visible":true,"rotation":0},{"id":318,"x":544,"y":320,"width":32,"height":32,"visible":true,"rotation":0},{"id":319,"x":576,"y":320,"width":32,"height":32,"visible":true,"rotation":0},{"id":320,"x":608,"y":320,"width":32,"height":32,"visible":true,"rotation":0},{"id":321,"x":640,"y":320,"width":32,"height":32,"visible":true,"rotation":0},{"id":322,"x":672,"y":320,"width":32,"height":32,"visible":true,"rotation":0},{"id":323,"x":704,"y":320,"width":32,"height":32,"visible":true,"rotation":0},{"id":324,"x":736,"y":320,"width":32,"height":32,"visible":true,"rotation":0},{"id":326,"x":800,"y":320,"width":32,"height":32,"visible":true,"rotation":0},{"id":327,"x":832,"y":320,"width":32,"height":32,"visible":true,"rotation":0},{"id":328,"x":864,"y":320,"width":32,"height":32,"visible":true,"rotation":0},{"id":329,"x":896,"y":320,"width":32,"height":32,"visible":true,"rotation":0},{"id":330,"x":928,"y":320,"width":32,"height":32,"visible":true,"rotation":0},{"id":331,"x":0,"y":352,"width":32,"height":32,"visible":true,"rotation":0},{"id":332,"x":32,"y":352,"width":32,"height":32,"visible":true,"rotation":0},{"id":333,"x":64,"y":352,"width":32,"height":32,"visible":true,"rotation":0},{"id":334,"x":96,"y":352,"width":32,"height":32,"visible":true,"rotation":0},{"id":335,"x":128,"y":352,"width":32,"height":32,"visible":true,"rotation":0},{"id":336,"x":160,"y":352,"width":32,"height":32,"visible":true,"rotation":0},{"id":337,"x":192,"y":352,"width":32,"height":32,"visible":true,"rotation":0},{"id":339,"x":256,"y":352,"width":32,"height":32,"visible":true,"rotation":0},{"id":340,"x":288,"y":352,"width":32,"height":32,"visible":true,"rotation":0},{"id":341,"x":320,"y":352,"width":32,"height":32,"visible":true,"rotation":0},{"id":342,"x":352,"y":352,"width":32,"height":32,"visible":true,"rotation":0},{"id":344,"x":416,"y":352,"width":32,"height":32,"visible":true,"rotation":0},{"id":345,"x":448,"y":352,"width":32,"height":32,"visible":true,"rotation":0},{"id":357,"x":832,"y":352,"width":32,"height":32,"visible":true,"rotation":0},{"id":358,"x":864,"y":352,"width":32,"height":32,"visible":true,"rotation":0},{"id":359,"x":896,"y":352,"width":32,"height":32,"visible":true,"rotation":0},{"id":360,"x":928,"y":352,"width":32,"height":32,"visible":true,"rotation":0},{"id":361,"x":0,"y":384,"width":32,"height":32,"visible":true,"rotation":0},{"id":362,"x":32,"y":384,"width":32,"height":32,"visible":true,"rotation":0},{"id":363,"x":64,"y":384,"width":32,"height":32,"visible":true,"rotation":0},{"id":371,"x":320,"y":384,"width":32,"height":32,"visible":true,"rotation":0},{"id":372,"x":352,"y":384,"width":32,"height":32,"visible":true,"rotation":0},{"id":374,"x":416,"y":384,"width":32,"height":32,"visible":true,"rotation":0},{"id":375,"x":448,"y":384,"width":32,"height":32,"visible":true,"rotation":0},{"id":387,"x":832,"y":384,"width":32,"height":32,"visible":true,"rotation":0},{"id":388,"x":864,"y":384,"width":32,"height":32,"visible":true,"rotation":0},{"id":389,"x":896,"y":384,"width":32,"height":32,"visible":true,"rotation":0},{"id":390,"x":928,"y":384,"width":32,"height":32,"visible":true,"rotation":0},{"id":391,"x":0,"y":416,"width":32,"height":32,"visible":true,"rotation":0},{"id":392,"x":32,"y":416,"width":32,"height":32,"visible":true,"rotation":0},{"id":393,"x":64,"y":416,"width":32,"height":32,"visible":true,"rotation":0},{"id":401,"x":320,"y":416,"width":32,"height":32,"visible":true,"rotation":0},{"id":402,"x":352,"y":416,"width":32,"height":32,"visible":true,"rotation":0},{"id":404,"x":416,"y":416,"width":32,"height":32,"visible":true,"rotation":0},{"id":405,"x":448,"y":416,"width":32,"height":32,"visible":true,"rotation":0},{"id":417,"x":832,"y":416,"width":32,"height":32,"visible":true,"rotation":0},{"id":418,"x":864,"y":416,"width":32,"height":32,"visible":true,"rotation":0},{"id":419,"x":896,"y":416,"width":32,"height":32,"visible":true,"rotation":0},{"id":420,"x":928,"y":416,"width":32,"height":32,"visible":true,"rotation":0},{"id":421,"x":0,"y":448,"width":32,"height":32,"visible":true,"rotation":0},{"id":422,"x":32,"y":448,"width":32,"height":32,"visible":true,"rotation":0},{"id":423,"x":64,"y":448,"width":32,"height":32,"visible":true,"rotation":0},{"id":426,"x":160,"y":448,"width":32,"height":32,"visible":true,"rotation":0},{"id":427,"x":192,"y":448,"width":32,"height":32,"visible":true,"rotation":0},{"id":431,"x":320,"y":448,"width":32,"height":32,"visible":true,"rotation":0},{"id":432,"x":352,"y":448,"width":32,"height":32,"visible":true,"rotation":0},{"id":434,"x":416,"y":448,"width":32,"height":32,"visible":true,"rotation":0},{"id":435,"x":448,"y":448,"width":32,"height":32,"visible":true,"rotation":0},{"id":439,"x":576,"y":448,"width":32,"height":32,"visible":true,"rotation":0},{"id":440,"x":608,"y":448,"width":32,"height":32,"visible":true,"rotation":0},{"id":441,"x":640,"y":448,"width":32,"height":32,"visible":true,"rotation":0},{"id":447,"x":832,"y":448,"width":32,"height":32,"visible":true,"rotation":0},{"id":448,"x":864,"y":448,"width":32,"height":32,"visible":true,"rotation":0},{"id":449,"x":896,"y":448,"width":32,"height":32,"visible":true,"rotation":0},{"id":450,"x":928,"y":448,"width":32,"height":32,"visible":true,"rotation":0},{"id":451,"x":0,"y":480,"width":32,"height":32,"visible":true,"rotation":0},{"id":452,"x":32,"y":480,"width":32,"height":32,"visible":true,"rotation":0},{"id":453,"x":64,"y":480,"width":32,"height":32,"visible":true,"rotation":0},{"id":456,"x":160,"y":480,"width":32,"height":32,"visible":true,"rotation":0},{"id":457,"x":192,"y":480,"width":32,"height":32,"visible":true,"rotation":0},{"id":469,"x":576,"y":480,"width":32,"height":32,"visible":true,"rotation":0},{"id":470,"x":608,"y":480,"width":32,"height":32,"visible":true,"rotation":0},{"id":471,"x":640,"y":480,"width":32,"height":32,"visible":true,"rotation":0},{"id":477,"x":832,"y":480,"width":32,"height":32,"visible":true,"rotation":0},{"id":478,"x":864,"y":480,"width":32,"height":32,"visible":true,"rotation":0},{"id":479,"x":896,"y":480,"width":32,"height":32,"visible":true,"rotation":0},{"id":480,"x":928,"y":480,"width":32,"height":32,"visible":true,"rotation":0},{"id":481,"x":0,"y":512,"width":32,"height":32,"visible":true,"rotation":0},{"id":482,"x":32,"y":512,"width":32,"height":32,"visible":true,"rotation":0},{"id":483,"x":64,"y":512,"width":32,"height":32,"visible":true,"rotation":0},{"id":499,"x":576,"y":512,"width":32,"height":32,"visible":true,"rotation":0},{"id":500,"x":608,"y":512,"width":32,"height":32,"visible":true,"rotation":0},{"id":501,"x":640,"y":512,"width":32,"height":32,"visible":true,"rotation":0},{"id":507,"x":832,"y":512,"width":32,"height":32,"visible":true,"rotation":0},{"id":508,"x":864,"y":512,"width":32,"height":32,"visible":true,"rotation":0},{"id":509,"x":896,"y":512,"width":32,"height":32,"visible":true,"rotation":0},{"id":510,"x":928,"y":512,"width":32,"height":32,"visible":true,"rotation":0},{"id":511,"x":0,"y":544,"width":32,"height":32,"visible":true,"rotation":0},{"id":512,"x":32,"y":544,"width":32,"height":32,"visible":true,"rotation":0},{"id":513,"x":64,"y":544,"width":32,"height":32,"visible":true,"rotation":0},{"id":521,"x":320,"y":544,"width":32,"height":32,"visible":true,"rotation":0},{"id":522,"x":352,"y":544,"width":32,"height":32,"visible":true,"rotation":0},{"id":523,"x":384,"y":544,"width":32,"height":32,"visible":true,"rotation":0},{"id":524,"x":416,"y":544,"width":32,"height":32,"visible":true,"rotation":0},{"id":525,"x":448,"y":544,"width":32,"height":32,"visible":true,"rotation":0},{"id":537,"x":832,"y":544,"width":32,"height":32,"visible":true,"rotation":0},{"id":538,"x":864,"y":544,"width":32,"height":32,"visible":true,"rotation":0},{"id":539,"x":896,"y":544,"width":32,"height":32,"visible":true,"rotation":0},{"id":540,"x":928,"y":544,"width":32,"height":32,"visible":true,"rotation":0},{"id":541,"x":0,"y":576,"width":32,"height":32,"visible":true,"rotation":0},{"id":542,"x":32,"y":576,"width":32,"height":32,"visible":true,"rotation":0},{"id":543,"x":64,"y":576,"width":32,"height":32,"visible":true,"rotation":0},{"id":551,"x":320,"y":576,"width":32,"height":32,"visible":true,"rotation":0},{"id":552,"x":352,"y":576,"width":32,"height":32,"visible":true,"rotation":0},{"id":553,"x":384,"y":576,"width":32,"height":32,"visible":true,"rotation":0},{"id":554,"x":416,"y":576,"width":32,"height":32,"visible":true,"rotation":0},{"id":555,"x":448,"y":576,"width":32,"height":32,"visible":true,"rotation":0},{"id":567,"x":832,"y":576,"width":32,"height":32,"visible":true,"rotation":0},{"id":568,"x":864,"y":576,"width":32,"height":32,"visible":true,"rotation":0},{"id":569,"x":896,"y":576,"width":32,"height":32,"visible":true,"rotation":0},{"id":570,"x":928,"y":576,"width":32,"height":32,"visible":true,"rotation":0},{"id":571,"x":0,"y":608,"width":32,"height":32,"visible":true,"rotation":0},{"id":572,"x":32,"y":608,"width":32,"height":32,"visible":true,"rotation":0},{"id":573,"x":64,"y":608,"width":32,"height":32,"visible":true,"rotation":0},{"id":574,"x":96,"y":608,"width":32,"height":32,"visible":true,"rotation":0},{"id":575,"x":128,"y":608,"width":32,"height":32,"visible":true,"rotation":0},{"id":576,"x":160,"y":608,"width":32,"height":32,"visible":true,"rotation":0},{"id":578,"x":224,"y":608,"width":32,"height":32,"visible":true,"rotation":0},{"id":579,"x":256,"y":608,"width":32,"height":32,"visible":true,"rotation":0},{"id":580,"x":288,"y":608,"width":32,"height":32,"visible":true,"rotation":0},{"id":581,"x":320,"y":608,"width":32,"height":32,"visible":true,"rotation":0},{"id":582,"x":352,"y":608,"width":32,"height":32,"visible":true,"rotation":0},{"id":583,"x":384,"y":608,"width":32,"height":32,"visible":true,"rotation":0},{"id":584,"x":416,"y":608,"width":32,"height":32,"visible":true,"rotation":0},{"id":585,"x":448,"y":608,"width":32,"height":32,"visible":true,"rotation":0},{"id":597,"x":832,"y":608,"width":32,"height":32,"visible":true,"rotation":0},{"id":598,"x":864,"y":608,"width":32,"height":32,"visible":true,"rotation":0},{"id":599,"x":896,"y":608,"width":32,"height":32,"visible":true,"rotation":0},{"id":600,"x":928,"y":608,"width":32,"height":32,"visible":true,"rotation":0},{"id":601,"x":0,"y":640,"width":32,"height":32,"visible":true,"rotation":0},{"id":602,"x":32,"y":640,"width":32,"height":32,"visible":true,"rotation":0},{"id":603,"x":64,"y":640,"width":32,"height":32,"visible":true,"rotation":0},{"id":604,"x":96,"y":640,"width":32,"height":32,"visible":true,"rotation":0},{"id":605,"x":128,"y":640,"width":32,"height":32,"visible":true,"rotation":0},{"id":606,"x":160,"y":640,"width":32,"height":32,"visible":true,"rotation":0},{"id":608,"x":224,"y":640,"width":32,"height":32,"visible":true,"rotation":0},{"id":609,"x":256,"y":640,"width":32,"height":32,"visible":true,"rotation":0},{"id":610,"x":288,"y":640,"width":32,"height":32,"visible":true,"rotation":0},{"id":611,"x":320,"y":640,"width":32,"height":32,"visible":true,"rotation":0},{"id":612,"x":352,"y":640,"width":32,"height":32,"visible":true,"rotation":0},{"id":613,"x":384,"y":640,"width":32,"height":32,"visible":true,"rotation":0},{"id":614,"x":416,"y":640,"width":32,"height":32,"visible":true,"rotation":0},{"id":615,"x":448,"y":640,"width":32,"height":32,"visible":true,"rotation":0},{"id":616,"x":480,"y":640,"width":32,"height":32,"visible":true,"rotation":0},{"id":617,"x":512,"y":640,"width":32,"height":32,"visible":true,"rotation":0},{"id":618,"x":544,"y":640,"width":32,"height":32,"visible":true,"rotation":0},{"id":622,"x":672,"y":640,"width":32,"height":32,"visible":true,"rotation":0},{"id":623,"x":704,"y":640,"width":32,"height":32,"visible":true,"rotation":0},{"id":624,"x":736,"y":640,"width":32,"height":32,"visible":true,"rotation":0},{"id":625,"x":768,"y":640,"width":32,"height":32,"visible":true,"rotation":0},{"id":626,"x":800,"y":640,"width":32,"height":32,"visible":true,"rotation":0},{"id":627,"x":832,"y":640,"width":32,"height":32,"visible":true,"rotation":0},{"id":628,"x":864,"y":640,"width":32,"height":32,"visible":true,"rotation":0},{"id":629,"x":896,"y":640,"width":32,"height":32,"visible":true,"rotation":0},{"id":630,"x":928,"y":640,"width":32,"height":32,"visible":true,"rotation":0},{"id":631,"x":0,"y":672,"width":32,"height":32,"visible":true,"rotation":0},{"id":632,"x":32,"y":672,"width":32,"height":32,"visible":true,"rotation":0},{"id":633,"x":64,"y":672,"width":32,"height":32,"visible":true,"rotation":0},{"id":634,"x":96,"y":672,"width":32,"height":32,"visible":true,"rotation":0},{"id":635,"x":128,"y":672,"width":32,"height":32,"visible":true,"rotation":0},{"id":636,"x":160,"y":672,"width":32,"height":32,"visible":true,"rotation":0},{"id":638,"x":224,"y":672,"width":32,"height":32,"visible":true,"rotation":0},{"id":639,"x":256,"y":672,"width":32,"height":32,"visible":true,"rotation":0},{"id":640,"x":288,"y":672,"width":32,"height":32,"visible":true,"rotation":0},{"id":641,"x":320,"y":672,"width":32,"height":32,"visible":true,"rotation":0},{"id":642,"x":352,"y":672,"width":32,"height":32,"visible":true,"rotation":0},{"id":643,"x":384,"y":672,"width":32,"height":32,"visible":true,"rotation":0},{"id":644,"x":416,"y":672,"width":32,"height":32,"visible":true,"rotation":0},{"id":645,"x":448,"y":672,"width":32,"height":32,"visible":true,"rotation":0},{"id":646,"x":480,"y":672,"width":32,"height":32,"visible":true,"rotation":0},{"id":647,"x":512,"y":672,"width":32,"height":32,"visible":true,"rotation":0},{"id":648,"x":544,"y":672,"width":32,"height":32,"visible":true,"rotation":0},{"id":652,"x":672,"y":672,"width":32,"height":32,"visible":true,"rotation":0},{"id":653,"x":704,"y":672,"width":32,"height":32,"visible":true,"rotation":0},{"id":654,"x":736,"y":672,"width":32,"height":32,"visible":true,"rotation":0},{"id":655,"x":768,"y":672,"width":32,"height":32,"visible":true,"rotation":0},{"id":656,"x":800,"y":672,"width":32,"height":32,"visible":true,"rotation":0},{"id":657,"x":832,"y":672,"width":32,"height":32,"visible":true,"rotation":0},{"id":658,"x":864,"y":672,"width":32,"height":32,"visible":true,"rotation":0},{"id":659,"x":896,"y":672,"width":32,"height":32,"visible":true,"rotation":0},{"id":660,"x":928,"y":672,"width":32,"height":32,"visible":true,"rotation":0},{"id":661,"x":0,"y":704,"width":32,"height":32,"visible":true,"rotation":0},{"id":662,"x":32,"y":704,"width":32,"height":32,"visible":true,"rotation":0},{"id":663,"x":64,"y":704,"width":32,"height":32,"visible":true,"rotation":0},{"id":664,"x":96,"y":704,"width":32,"height":32,"visible":true,"rotation":0},{"id":665,"x":128,"y":704,"width":32,"height":32,"visible":true,"rotation":0},{"id":666,"x":160,"y":704,"width":32,"height":32,"visible":true,"rotation":0},{"id":667,"x":192,"y":704,"width":32,"height":32,"visible":true,"rotation":0},{"id":668,"x":224,"y":704,"width":32,"height":32,"visible":true,"rotation":0},{"id":669,"x":256,"y":704,"width":32,"height":32,"visible":true,"rotation":0},{"id":670,"x":288,"y":704,"width":32,"height":32,"visible":true,"rotation":0},{"id":671,"x":320,"y":704,"width":32,"height":32,"visible":true,"rotation":0},{"id":672,"x":352,"y":704,"width":32,"height":32,"visible":true,"rotation":0},{"id":673,"x":384,"y":704,"width":32,"height":32,"visible":true,"rotation":0},{"id":674,"x":416,"y":704,"width":32,"height":32,"visible":true,"rotation":0},{"id":675,"x":448,"y":704,"width":32,"height":32,"visible":true,"rotation":0},{"id":676,"x":480,"y":704,"width":32,"height":32,"visible":true,"rotation":0},{"id":677,"x":512,"y":704,"width":32,"height":32,"visible":true,"rotation":0},{"id":678,"x":544,"y":704,"width":32,"height":32,"visible":true,"rotation":0},{"id":679,"x":576,"y":704,"width":32,"height":32,"visible":true,"rotation":0},{"id":680,"x":608,"y":704,"width":32,"height":32,"visible":true,"rotation":0},{"id":681,"x":640,"y":704,"width":32,"height":32,"visible":true,"rotation":0},{"id":682,"x":672,"y":704,"width":32,"height":32,"visible":true,"rotation":0},{"id":683,"x":704,"y":704,"width":32,"height":32,"visible":true,"rotation":0},{"id":684,"x":736,"y":704,"width":32,"height":32,"visible":true,"rotation":0},{"id":685,"x":768,"y":704,"width":32,"height":32,"visible":true,"rotation":0},{"id":686,"x":800,"y":704,"width":32,"height":32,"visible":true,"rotation":0},{"id":687,"x":832,"y":704,"width":32,"height":32,"visible":true,"rotation":0},{"id":688,"x":864,"y":704,"width":32,"height":32,"visible":true,"rotation":0},{"id":689,"x":896,"y":704,"width":32,"height":32,"visible":true,"rotation":0},{"id":690,"x":928,"y":704,"width":32,"height":32,"visible":true,"rotation":0},{"id":691,"x":0,"y":736,"width":32,"height":32,"visible":true,"rotation":0},{"id":692,"x":32,"y":736,"width":32,"height":32,"visible":true,"rotation":0},{"id":693,"x":64,"y":736,"width":32,"height":32,"visible":true,"rotation":0},{"id":694,"x":96,"y":736,"width":32,"height":32,"visible":true,"rotation":0},{"id":695,"x":128,"y":736,"width":32,"height":32,"visible":true,"rotation":0},{"id":696,"x":160,"y":736,"width":32,"height":32,"visible":true,"rotation":0},{"id":697,"x":192,"y":736,"width":32,"height":32,"visible":true,"rotation":0},{"id":698,"x":224,"y":736,"width":32,"height":32,"visible":true,"rotation":0},{"id":699,"x":256,"y":736,"width":32,"height":32,"visible":true,"rotation":0},{"id":700,"x":288,"y":736,"width":32,"height":32,"visible":true,"rotation":0},{"id":701,"x":320,"y":736,"width":32,"height":32,"visible":true,"rotation":0},{"id":702,"x":352,"y":736,"width":32,"height":32,"visible":true,"rotation":0},{"id":703,"x":384,"y":736,"width":32,"height":32,"visible":true,"rotation":0},{"id":704,"x":416,"y":736,"width":32,"height":32,"visible":true,"rotation":0},{"id":705,"x":448,"y":736,"width":32,"height":32,"visible":true,"rotation":0},{"id":706,"x":480,"y":736,"width":32,"height":32,"visible":true,"rotation":0},{"id":707,"x":512,"y":736,"width":32,"height":32,"visible":true,"rotation":0},{"id":708,"x":544,"y":736,"width":32,"height":32,"visible":true,"rotation":0},{"id":709,"x":576,"y":736,"width":32,"height":32,"visible":true,"rotation":0},{"id":710,"x":608,"y":736,"width":32,"height":32,"visible":true,"rotation":0},{"id":711,"x":640,"y":736,"width":32,"height":32,"visible":true,"rotation":0},{"id":712,"x":672,"y":736,"width":32,"height":32,"visible":true,"rotation":0},{"id":713,"x":704,"y":736,"width":32,"height":32,"visible":true,"rotation":0},{"id":714,"x":736,"y":736,"width":32,"height":32,"visible":true,"rotation":0},{"id":715,"x":768,"y":736,"width":32,"height":32,"visible":true,"rotation":0},{"id":716,"x":800,"y":736,"width":32,"height":32,"visible":true,"rotation":0},{"id":717,"x":832,"y":736,"width":32,"height":32,"visible":true,"rotation":0},{"id":718,"x":864,"y":736,"width":32,"height":32,"visible":true,"rotation":0},{"id":719,"x":896,"y":736,"width":32,"height":32,"visible":true,"rotation":0},{"id":720,"x":928,"y":736,"width":32,"height":32,"visible":true,"rotation":0}]}]}