{"type":"map","orientation":"orthogonal","renderorder":"right-down","width":40,"height":30,"tilewidth":32,"tileheight":32,"infinite":false,"tilesets":[{"firstgid":1,"source":"terrain.tsj"},{"firstgid":149,"source":"props.tsj"}],"layers":[{"id":1,"type":"tilelayer","name":"cliff","width":40,"height":30,"data":[0,0,0,0,0,0,0,0,0,0,0,0,0,0,0,0,0,0,0,0,0,0,0,0,0,0,0,0,0,0,0,0,0,0,0,0,0,0,0,0,0,0,0,0,0,0,0,0,0,0,0,0,0,0,0,0,0,0,0,0,0,0,0,0,0,0,0,0,0,0,0,0,0,0,0,0,0,0,0,0,0,0,0,0,0,0,0,0,0,0,0,0,0,0,0,0,0,0,0,0,0,0,0,0,0,0,0,0,0,0,0,0,0,0,0,0,0,0,0,0,0,0,145,0,0,0,0,145,0,0,0,0,143,144,0,0,0,143,144,0,0,0,0,0,0,0,0,0,0,0,0,0,0,144,0,0,0,0,144,0,0,0,0,0,0,0,0,0,0,0,0,0,0,0,0,0,0,0,0,0,0,0,145,0,0,0,0,145,0,0,0,0,145,0,0,0,0,145,0,0,0,0,0,0,0,0,0,0,0,0,0,0,0,0,0,0,0,0,0,0,0,0,0,0,0,0,0,0,0,0,0,0,0,0,0,0,0,0,0,0,0,0,0,0,0,0,0,0,0,0,0,0,0,0,0,0,0,0,0,0,0,0,0,0,0,0,0,0,0,0,0,0,0,0,0,0,0,0,0,0,0,0,0,0,0,0,0,0,0,0,0,0,0,0,0,0,0,0,0,0,0,0,0,0,0,0,0,0,0,0,0,0,0,0,0,0,0,0,0,0,0,143,144,0,0,0,143,144,0,0,0,143,142,144,0,0,143,142,144,0,0,143,0,0,0,0,143,0,0,0,0,143,0,144,0,0,143,0,144,0,0,0,0,0,0,0,0,0,0,0,0,0,0,0,0,0,0,0,0,0,0,0,145,0,0,0,0,145,0,0,0,0,145,0,0,0,0,145,0,0,0,0,0,0,0,0,0,0,0,0,0,0,0,0,0,0,0,0,0,0,0,0,0,0,0,0,0,0,0,0,0,0,0,0,0,0,0,0,0,0,0,0,0,0,0,0,0,0,0,0,0,0,0,0,0,0,0,0,0,0,0,0,0,0,0,0,0,0,0,0,0,0,0,0,0,0,0,0,0,0,0,0,0,0,0,0,0,0,0,0,0,0,0,0,0,0,0,0,0,0,0,0,0,0,0,0,0,0,0,0,0,0,0,0,0,0,0,0,0,0,0,0,143,144,0,0,0,0,144,0,0,143,142,144,0,0,143,0,144,0,0,0,0,0,0,0,0,0,0,0,0,143,0,0,0,0,143,0,0,0,0,0,0,0,0,0,0,145,0,0,0,0,0,0,0,0,0,145,0,0,0,0,143,144,0,0,0,143,144,0,0,0,143,144,0,0,0,143,144,0,0,0,0,0,0,0,0,0,0,0,0,0,0,0,0,0,0,0,0,0,0,0,0,0,0,0,0,0,0,0,0,0,0,0,0,0,0,0,0,0,0,0,0,0,0,0,0,0,0,0,0,0,0,0,0,0,0,0,0,0,0,0,0,0,0,0,0,0,0,0,0,0,0,0,0,0,0,0,0,0,0,0,0,0,0,0,0,0,0,0,0,0,0,0,0,0,0,0,0,0,0,0,0,0,0,0,0,0,0,0,0,0,0,0,0,0,0,0,0,0,0,0,0,0,0,0,143,0,0,0,0,0,0,0,0,0,0,0,0,0,0,0,0,144,0,0,0,0,144,0,0,0,0,144,0,0,0,0,0,0,0,0,143,144,0,0,0,143,144,0,0,143,144,0,0,0,143,144,0,0,0,143,144,0,0,0,143,144,0,0,0,143,144,0,0,0,143,142,144,0,0,0,0,0,0,0,0,0,0,0,0,0,0,0,0,0,0,0,0,0,0,0,0,0,0,0,0,0,0,0,0,0,0,0,0,0,0,0,0,0,0,0,0,0,0,0,0,0,0,0,0,0,0,0,0,0,0,0,0,0,0,0,0,0,0,0,0,0,0,0,0,0,0,0,0,0,0,0,0,0,0,0,0,0,0,0,0,0,0,0,0,0,0,0,0,0,0,0,0,0,0,0,0,0,0,0,0,0,0,0,0,0,0,0,0,0,0,0,0,0,0,0,0,0,0,0,0,0,0,0,0,143,144,0,0,0,143,142,144,0,0,143,0,0,0,0,143,0,144,0,0,143,142,144,0,0,143,0,144,0,0,143,142,144,0,0,143,142,144,0,0,0,0,0,0,0,0,0,0,0,0,0,145,0,0,0,0,145,0,0,0,0,0,0,0,0,0,145,0,0,0,0,0,0,0,0,0,0,0,0,0,0,0,0,0,0,0,0,0,0,0,0,0,0,0,0,0,0,0,0,0,0,0,0,0,0,0,0,0,0,0,0,0,0,0,0,0,0,0,0,0,0,0,0,0,0,0,0,0,0,0,0,0,0,0,0,0,0,0,0,0,0,0,0,0,0,0,0,0,0,0,0,0,0,0,0,0,0,0,0,0,0,0,0,0,0,0,0,0,0,0,0,0,0,0,0,0,0,0,0,0,0,0,0,0,0,0,0,0,0,0,143,0,0,0,0,143,0,0,0,0,0,0,0,0,0,0,0,144,0,0,0,0,144,0,0,0,0,0,0,0,0,0,0,0,0,0,0,0,0,0,0,143,144,0,0,0,143,144,0,0,143,144,0,0,0,143,144,0,0,0,143,144,0,0,0,143,142,144,0,0,143,142,144,0,0,0,0,0,0],"visible":true,"opacity":1,"x":0,"y":0},{"id":2,"type":"tilelayer","name":"ground","width":40,"height":30,"data":[0,0,0,0,0,0,0,0,0,0,0,0,0,0,0,0,0,0,0,0,0,0,0,0,0,0,0,0,0,0,0,0,0,0,0,0,0,0,0,0,0,0,0,0,0,0,0,5,0,0,0,0,0,0,0,0,0,52,0,0,0,0,0,0,0,0,0,5,0,0,0,0,0,0,0,0,0,99,0,0,0,0,48,0,0,0,0,2,0,0,0,0,50,103,0,0,0,4,9,0,0,0,52,0,0,0,0,6,0,0,0,0,7,103,0,0,0,55,103,0,0,0,0,0,0,0,0,0,0,0,0,0,0,0,0,0,0,0,0,0,0,0,2,0,0,0,0,49,0,0,0,0,2,0,0,0,0,49,0,0,0,0,0,0,0,0,0,0,0,0,0,0,0,0,0,0,0,0,0,0,0,0,0,0,0,0,0,0,0,0,0,0,0,0,0,0,0,0,0,0,0,0,0,0,0,0,0,0,0,0,0,0,0,0,0,0,0,0,0,0,0,0,0,0,0,0,0,0,0,0,0,0,0,0,0,0,0,0,0,0,0,0,0,0,0,0,0,52,0,0,0,0,0,0,0,0,0,99,0,0,0,0,0,0,0,0,0,52,0,0,0,0,0,0,0,0,0,52,0,0,0,3,9,0,0,0,3,57,0,0,0,50,105,9,0,0,3,106,56,0,0,50,13,0,0,0,3,108,0,0,0,3,109,103,0,0,50,110,56,0,0,0,0,0,0,0,0,0,0,0,0,0,0,0,0,0,0,0,0,0,0,0,2,0,0,0,0,2,0,0,0,0,49,0,0,0,0,49,0,0,0,0,0,0,0,0,0,0,0,0,0,0,0,0,0,0,0,0,0,0,0,0,0,0,0,0,0,0,0,0,0,0,0,0,0,0,0,0,0,0,0,0,0,0,0,0,0,0,0,0,0,0,0,0,0,0,0,0,0,0,0,0,0,0,0,0,0,0,0,0,0,0,0,0,0,0,0,0,0,0,0,0,68,121,0,0,0,115,74,0,0,0,68,74,0,0,0,115,121,0,0,0,0,0,0,0,0,5,0,0,0,0,0,0,0,0,0,99,0,0,0,0,64,35,0,0,0,18,35,0,0,50,19,129,0,0,97,20,82,0,0,0,115,27,0,0,0,116,121,0,0,3,70,27,0,0,3,118,121,0,0,0,0,0,0,0,0,49,0,0,0,0,0,0,0,0,0,2,0,0,0,0,17,82,0,0,0,111,82,0,0,0,17,82,0,0,0,17,35,0,0,0,0,0,0,0,0,0,0,0,0,0,0,0,0,0,0,0,0,0,0,0,0,0,0,0,0,0,0,0,0,0,0,0,0,0,0,0,0,0,0,0,0,0,0,0,0,0,0,0,0,0,0,0,0,0,0,0,0,0,0,0,0,0,0,0,0,0,0,0,0,0,0,0,0,0,0,0,0,0,0,0,21,74,0,0,0,68,27,0,0,0,0,0,0,0,0,52,0,0,0,0,0,0,0,0,0,99,0,0,0,0,21,121,0,0,0,0,0,0,0,0,72,90,0,0,50,26,90,0,0,21,121,0,0,0,68,75,0,0,0,68,76,103,0,0,115,77,56,0,0,115,78,129,0,0,68,79,27,0,0,0,111,82,0,0,0,111,82,0,0,17,35,0,0,0,17,129,0,0,0,17,82,0,0,0,64,35,0,0,0,17,82,0,0,0,17,39,35,0,0,0,0,0,0,0,0,0,0,0,0,0,0,0,0,0,0,0,0,0,0,0,0,0,0,0,0,0,0,0,0,0,0,0,0,0,0,0,0,0,0,0,0,0,0,0,0,0,0,0,0,0,0,0,0,0,0,0,0,0,0,0,0,0,0,0,0,0,0,0,0,0,0,0,0,0,0,0,0,0,0,0,52,0,0,0,0,21,74,0,0,68,121,0,0,0,21,121,0,0,0,68,74,0,0,0,21,74,0,0,0,115,126,121,0,0,115,32,27,0,0,68,80,27,0,0,115,128,137,0,0,64,129,0,0,0,111,36,103,0,0,64,37,0,0,0,17,85,56,0,0,111,86,35,0,0,17,134,35,0,0,17,39,129,0,0,64,133,129,0,0,0,0,0,0,0,0,0,0,0,0,0,96,0,0,0,0,96,0,0,0,0,0,0,0,0,0,2,0,0,0,0,0,0,0,0,0,0,0,0,0,0,0,0,0,0,0,0,0,0,0,0,0,0,0,0,0,0,0,0,0,0,0,0,0,0,0,0,0,0,0,0,0,0,0,0,0,0,0,0,0,0,0,0,0,0,0,0,0,0,0,0,0,0,0,0,0,0,0,0,0,0,0,0,0,0,0,0,0,0,0,115,74,0,0,0,115,126,74,0,0,21,74,0,0,0,68,121,0,0,0,21,32,121,0,0,115,74,0,0,0,21,32,121,0,0,0,0,0,0,0,17,135,121,0,0,111,136,90,0,0,72,137,0,0,0,119,44,9,0,0,72,139,129,0,0,72,46,27,0,0,119,47,137,0,0,0,0,0,0,0,0,111,82,0,0,0,111,35,0,0,17,35,0,0,0,64,35,0,0,0,64,35,0,0,0,17,39,35,0,0,64,39,129,0,0,0,0,0,0,0,0,0,0,0,0,0,0,0,0,0,0,0,0,0,0,0,0,0,0,0,0,0,0,0,0,0,0,0,0,0,0,0,0,0,0,0,0,0,0],"visible":true,"opacity":1,"x":0,"y":0},{"id":3,"name":"props","type":"objectgroup","visible":true,"opacity":1,"objects":[]},{"id":4,"name":"collision","type":"objectgroup","visible":false,"opacity":1,"objects":[{"id":1,"x":0,"y":0,"width":32,"height":32,"visible":true,"rotation":0},{"id":2,"x":32,"y":0,"width":32,"height":32,"visible":true,"rotation":0},{"id":3,"x":64,"y":0,"width":32,"height":32,"visible":true,"rotation":0},{"id":4,"x":96,"y":0,"width":32,"height":32,"visible":true,"rotation":0},{"id":5,"x":128,"y":0,"width":32,"height":32,"visible":true,"rotation":0},{"id":6,"x":160,"y":0,"width":32,"height":32,"visible":true,"rotation":0},{"id":7,"x":192,"y":0,"width":32,"height":32,"visible":true,"rotation":0},{"id":8,"x":224,"y":0,"width":32,"height":32,"visible":true,"rotation":0},{"id":9,"x":256,"y":0,"width":32,"height":32,"visible":true,"rotation":0},{"id":10,"x":288,"y":0,"width":32,"height":32,"visible":true,"rotation":0},{"id":11,"x":320,"y":0,"width":32,"height":32,"visible":true,"rotation":0},{"id":12,"x":352,"y":0,"width":32,"height":32,"visible":true,"rotation":0},{"id":13,"x":384,"y":0,"width":32,"height":32,"visible":true,"rotation":0},{"id":14,"x":416,"y":0,"width":32,"height":32,"visible":true,"rotation":0},{"id":15,"x":448,"y":0,"width":32,"height":32,"visible":true,"rotation":0},{"id":16,"x":480,"y":0,"width":32,"height":32,"visible":true,"rotation":0},{"id":17,"x":512,"y":0,"width":32,"height":32,"visible":true,"rotation":0},{"id":18,"x":544,"y":0,"width":32,"height":32,"visible":true,"rotation":0},{"id":19,"x":576,"y":0,"width":32,"height":32,"visible":true,"rotation":0},{"id":20,"x":608,"y":0,"width":32,"height":32,"visible":true,"rotation":0},{"id":21,"x":640,"y":0,"width":32,"height":32,"visible":true,"rotation":0},{"id":22,"x":672,"y":0,"width":32,"height":32,"visible":true,"rotation":0},{"id":23,"x":704,"y":0,"width":32,"height":32,"visible":true,"rotation":0},{"id":24,"x":736,"y":0,"width":32,"height":32,"visible":true,"rotation":0},{"id":25,"x":768,"y":0,"width":32,"height":32,"visible":true,"rotation":0},{"id":26,"x":800,"y":0,"width":32,"height":32,"visible":true,"rotation":0},{"id":27,"x":832,"y":0,"width":32,"height":32,"visible":true,"rotation":0},{"id":28,"x":864,"y":0,"width":32,"height":32,"visible":true,"rotation":0},{"id":29,"x":896,"y":0,"width":32,"height":32,"visible":true,"rotation":0},{"id":30,"x":928,"y":0,"width":32,"height":32,"visible":true,"rotation":0},{"id":31,"x":960,"y":0,"width":32,"height":32,"visible":true,"rotation":0},{"id":32,"x":992,"y":0,"width":32,"height":32,"visible":true,"rotation":0},{"id":33,"x":1024,"y":0,"width":32,"height":32,"visible":true,"rotation":0},{"id":34,"x":1056,"y":0,"width":32,"height":32,"visible":true,"rotation":0},{"id":35,"x":1088,"y":0,"width":32,"height":32,"visible":true,"rotation":0},{"id":36,"x":1120,"y":0,"width":32,"height":32,"visible":true,"rotation":0},{"id":37,"x":1152,"y":0,"width":32,"height":32,"visible":true,"rotation":0},{"id":38,"x":1184,"y":0,"width":32,"height":32,"visible":true,"rotation":0},{"id":39,"x":1216,"y":0,"width":32,"height":32,"visible":true,"rotation":0},{"id":40,"x":1248,"y":0,"width":32,"height":32,"visible":true,"rotation":0},{"id":41,"x":0,"y":32,"width":32,"height":32,"visible":true,"rotation":0},{"id":42,"x":32,"y":32,"width":32,"height":32,"visible":true,"rotation":0},{"id":43,"x":64,"y":32,"width":32,"height":32,"visible":true,"rotation":0},{"id":44,"x":96,"y":32,"width":32,"height":32,"visible":true,"rotation":0},{"id":45,"x":128,"y":32,"width":32,"height":32,"visible":true,"rotation":0},{"id":46,"x":160,"y":32,"width":32,"height":32,"visible":true,"rotation":0},{"id":47,"x":192,"y":32,"width":32,"height":32,"visible":true,"rotation":0},{"id":49,"x":256,"y":32,"width":32,"height":32,"visible":true,"rotation":0},{"id":50,"x":288,"y":32,"width":32,"height":32,"visible":true,"rotation":0},{"id":51,"x":320,"y":32,"width":32,"height":32,"visible":true,"rotation":0},{"id":52,"x":352,"y":32,"width":32,"height":32,"visible":true,"rotation":0},{"id":53,"x":384,"y":32,"width":32,"height":32,"visible":true,"rotation":0},{"id":54,"x":416,"y":32,"width":32,"height":32,"visible":true,"rotation":0},{"id":55,"x":448,"y":32,"width":32,"height":32,"visible":true,"rotation":0},{"id":56,"x":480,"y":32,"width":32,"height":32,"visible":true,"rotation":0},{"id":57,"x":512,"y":32,"width":32,"height":32,"visible":true,"rotation":0},{"id":59,"x":576,"y":32,"width":32,"height":32,"visible":true,"rotation":0},{"id":60,"x":608,"y":32,"width":32,"height":32,"visible":true,"rotation":0},{"id":61,"x":640,"y":32,"width":32,"height":32,"visible":true,"rotation":0},{"id":62,"x":672,"y":32,"width":32,"height":32,"visible":true,"rotation":0},{"id":63,"x":704,"y":32,"width":32,"height":32,"visible":true,"rotation":0},{"id":64,"x":736,"y":32,"width":32,"height":32,"visible":true,"rotation":0},{"id":65,"x":768,"y":32,"width":32,"height":32,"visible":true,"rotation":0},{"id":66,"x":800,"y":32,"width":32,"height":32,"visible":true,"rotation":0},{"id":67,"x":832,"y":32,"width":32,"height":32,"visible":true,"rotation":0},{"id":69,"x":896,"y":32,"width":32,"height":32,"visible":true,"rotation":0},{"id":70,"x":928,"y":32,"width":32,"height":32,"visible":true,"rotation":0},{"id":71,"x":960,"y":32,"width":32,"height":32,"visible":true,"rotation":0},{"id":72,"x":992,"y":32,"width":32,"height":32,"visible":true,"rotation":0},{"id":73,"x":1024,"y":32,"width":32,"height":32,"visible":true,"rotation":0},{"id":74,"x":1056,"y":32,"width":32,"height":32,"visible":true,"rotation":0},{"id":75,"x":1088,"y":32,"width":32,"height":32,"visible":true,"rotation":0},{"id":76,"x":1120,"y":32,"width":32,"height":32,"visible":true,"rotation":0},{"id":77,"x":1152,"y":32,"width":32,"height":32,"visible":true,"rotation":0},{"id":79,"x":1216,"y":32,"width":32,"height":32,"visible":true,"rotation":0},{"id":80,"x":1248,"y":32,"width":32,"height":32,"visible":true,"rotation":0},{"id":81,"x":0,"y":64,"width":32,"height":32,"visible":true,"rotation":0},{"id":82,"x":32,"y":64,"width":32,"height":32,"visible":true,"rotation":0},{"id":84,"x":96,"y":64,"width":32,"height":32,"visible":true,"rotation":0},{"id":85,"x":128,"y":64,"width":32,"height":32,"visible":true,"rotation":0},{"id":86,"x":160,"y":64,"width":32,"height":32,"visible":true,"rotation":0},{"id":87,"x":192,"y":64,"width":32,"height":32,"visible":true,"rotation":0},{"id":89,"x":256,"y":64,"width":32,"height":32,"visible":true,"rotation":0},{"id":90,"x":288,"y":64,"width":32,"height":32,"visible":true,"rotation":0},{"id":91,"x":320,"y":64,"width":32,"height":32,"visible":true,"rotation":0},{"id":92,"x":352,"y":64,"width":32,"height":32,"visible":true,"rotation":0},{"id":95,"x":448,"y":64,"width":32,"height":32,"visible":true,"rotation":0},{"id":96,"x":480,"y":64,"width":32,"height":32,"visible":true,"rotation":0},{"id":97,"x":512,"y":64,"width":32,"height":32,"visible":true,"rotation":0},{"id":100,"x":608,"y":64,"width":32,"height":32,"visible":true,"rotation":0},{"id":101,"x":640,"y":64,"width":32,"height":32,"visible":true,"rotation":0},{"id":102,"x":672,"y":64,"width":32,"height":32,"visible":true,"rotation":0},{"id":104,"x":736,"y":64,"width":32,"height":32,"visible":true,"rotation":0},{"id":105,"x":768,"y":64,"width":32,"height":32,"visible":true,"rotation":0},{"id":106,"x":800,"y":64,"width":32,"height":32,"visible":true,"rotation":0},{"id":107,"x":832,"y":64,"width":32,"height":32,"visible":true,"rotation":0},{"id":109,"x":896,"y":64,"width":32,"height":32,"visible":true,"rotation":0},{"id":110,"x":928,"y":64,"width":32,"height":32,"visible":true,"rotation":0},{"id":111,"x":960,"y":64,"width":32,"height":32,"visible":true,"rotation":0},{"id":112,"x":992,"y":64,"width":32,"height":32,"visible":true,"rotation":0},{"id":115,"x":1088,"y":64,"width":32,"height":32,"visible":true,"rotation":0},{"id":116,"x":1120,"y":64,"width":32,"height":32,"visible":true,"rotation":0},{"id":117,"x":1152,"y":64,"width":32,"height":32,"visible":true,"rotation":0},{"id":120,"x":1248,"y":64,"width":32,"height":32,"visible":true,"rotation":0},{"id":121,"x":0,"y":96,"width":32,"height":32,"visible":true,"rotation":0},{"id":122,"x":32,"y":96,"width":32,"height":32,"visible":true,"rotation":0},{"id":123,"x":64,"y":96,"width":32,"height":32,"visible":true,"rotation":0},{"id":124,"x":96,"y":96,"width":32,"height":32,"visible":true,"rotation":0},{"id":125,"x":128,"y":96,"width":32,"height":32,"visible":true,"rotation":0},{"id":126,"x":160,"y":96,"width":32,"height":32,"visible":true,"rotation":0},{"id":127,"x":192,"y":96,"width":32,"height":32,"visible":true,"rotation":0},{"id":128,"x":224,"y":96,"width":32,"height":32,"visible":true,"rotation":0},{"id":129,"x":256,"y":96,"width":32,"height":32,"visible":true,"rotation":0},{"id":130,"x":288,"y":96,"width":32,"height":32,"visible":true,"rotation":0},{"id":131,"x":320,"y":96,"width":32,"height":32,"visible":true,"rotation":0},{"id":132,"x":352,"y":96,"width":32,"height":32,"visible":true,"rotation":0},{"id":133,"x":384,"y":96,"width":32,"height":32,"visible":true,"rotation":0},{"id":134,"x":416,"y":96,"width":32,"height":32,"visible":true,"rotation":0},{"id":135,"x":448,"y":96,"width":32,"height":32,"visible":true,"rotation":0},{"id":136,"x":480,"y":96,"width":32,"height":32,"visible":true,"rotation":0},{"id":137,"x":512,"y":96,"width":32,"height":32,"visible":true,"rotation":0},{"id":138,"x":544,"y":96,"width":32,"height":32,"visible":true,"rotation":0},{"id":139,"x":576,"y":96,"width":32,"height":32,"visible":true,"rotation":0},{"id":140,"x":608,"y":96,"width":32,"height":32,"visible":true,"rotation":0},{"id":141,"x":640,"y":96,"width":32,"height":32,"visible":true,"rotation":0},{"id":142,"x":672,"y":96,"width":32,"height":32,"visible":true,"rotation":0},{"id":144,"x":736,"y":96,"width":32,"height":32,"visible":true,"rotation":0},{"id":145,"x":768,"y":96,"width":32,"height":32,"visible":true,"rotation":0},{"id":146,"x":800,"y":96,"width":32,"height":32,"visible":true,"rotation":0},{"id":147,"x":832,"y":96,"width":32,"height":32,"visible":true,"rotation":0},{"id":149,"x":896,"y":96,"width":32,"height":32,"visible":true,"rotation":0},{"id":150,"x":928,"y":96,"width":32,"height":32,"visible":true,"rotation":0},{"id":151,"x":960,"y":96,"width":32,"height":32,"visible":true,"rotation":0},{"id":152,"x":992,"y":96,"width":32,"height":32,"visible":true,"rotation":0},{"id":154,"x":1056,"y":96,"width":32,"height":32,"visible":true,"rotation":0},{"id":155,"x":1088,"y":96,"width":32,"height":32,"visible":true,"rotation":0},{"id":156,"x":1120,"y":96,"width":32,"height":32,"visible":true,"rotation":0},{"id":157,"x":1152,"y":96,"width":32,"height":32,"visible":true,"rotation":0},{"id":159,"x":1216,"y":96,"width":32,"height":32,"visible":true,"rotation":0},{"id":160,"x":1248,"y":96,"width":32,"height":32,"visible":true,"rotation":0},{"id":161,"x":0,"y":128,"width":32,"height":32,"visible":true,"rotation":0},{"id":162,"x":32,"y":128,"width":32,"height":32,"visible":true,"rotation":0},{"id":163,"x":64,"y":128,"width":32,"height":32,"visible":true,"rotation":0},{"id":164,"x":96,"y":128,"width":32,"height":32,"visible":true,"rotation":0},{"id":165,"x":128,"y":128,"width":32,"height":32,"visible":true,"rotation":0},{"id":166,"x":160,"y":128,"width":32,"height":32,"visible":true,"rotation":0},{"id":167,"x":192,"y":128,"width":32,"height":32,"visible":true,"rotation":0},{"id":168,"x":224,"y":128,"width":32,"height":32,"visible":true,"rotation":0},{"id":169,"x":256,"y":128,"width":32,"height":32,"visible":true,"rotation":0},{"id":170,"x":288,"y":128,"width":32,"height":32,"visible":true,"rotation":0},{"id":171,"x":320,"y":128,"width":32,"height":32,"visible":true,"rotation":0},{"id":172,"x":352,"y":128,"width":32,"height":32,"visible":true,"rotation":0},{"id":173,"x":384,"y":128,"width":32,"height":32,"visible":true,"rotation":0},{"id":174,"x":416,"y":128,"width":32,"height":32,"visible":true,"rotation":0},{"id":175,"x":448,"y":128,"width":32,"height":32,"visible":true,"rotation":0},{"id":176,"x":480,"y":128,"width":32,"height":32,"visible":true,"rotation":0},{"id":177,"x":512,"y":128,"width":32,"height":32,"visible":true,"rotation":0},{"id":178,"x":544,"y":128,"width":32,"height":32,"visible":true,"rotation":0},{"id":179,"x":576,"y":128,"width":32,"height":32,"visible":true,"rotation":0},{"id":180,"x":608,"y":128,"width":32,"height":32,"visible":true,"rotation":0},{"id":181,"x":640,"y":128,"width":32,"height":32,"visible":true,"rotation":0},{"id":182,"x":672,"y":128,"width":32,"height":32,"visible":true,"rotation":0},{"id":183,"x":704,"y":128,"width":32,"height":32,"visible":true,"rotation":0},{"id":184,"x":736,"y":128,"width":32,"height":32,"visible":true,"rotation":0},{"id":185,"x":768,"y":128,"width":32,"height":32,"visible":true,"rotation":0},{"id":186,"x":800,"y":128,"width":32,"height":32,"visible":true,"rotation":0},{"id":187,"x":832,"y":128,"width":32,"height":32,"visible":true,"rotation":0},{"id":188,"x":864,"y":128,"width":32,"height":32,"visible":true,"rotation":0},{"id":189,"x":896,"y":128,"width":32,"height":32,"visible":true,"rotation":0},{"id":190,"x":928,"y":128,"width":32,"height":32,"visible":true,"rotation":0},{"id":191,"x":960,"y":128,"width":32,"height":32,"visible":true,"rotation":0},{"id":192,"x":992,"y":128,"width":32,"height":32,"visible":true,"rotation":0},{"id":193,"x":1024,"y":128,"width":32,"height":32,"visible":true,"rotation":0},{"id":194,"x":1056,"y":128,"width":32,"height":32,"visible":true,"rotation":0},{"id":195,"x":1088,"y":128,"width":32,"height":32,"visible":true,"rotation":0},{"id":196,"x":1120,"y":128,"width":32,"height":32,"visible":true,"rotation":0},{"id":197,"x":1152,"y":128,"width":32,"height":32,"visible":true,"rotation":0},{"id":198,"x":1184,"y":128,"width":32,"height":32,"visible":true,"rotation":0},{"id":199,"x":1216,"y":128,"width":32,"height":32,"visible":true,"rotation":0},{"id":200,"x":1248,"y":128,"width":32,"height":32,"visible":true,"rotation":0},{"id":201,"x":0,"y":160,"width":32,"height":32,"visible":true,"rotation":0},{"id":202,"x":32,"y":160,"width":32,"height":32,"visible":true,"rotation":0},{"id":203,"x":64,"y":160,"width":32,"height":32,"visible":true,"rotation":0},{"id":204,"x":96,"y":160,"width":32,"height":32,"visible":true,"rotation":0},{"id":205,"x":128,"y":160,"width":32,"height":32,"visible":true,"rotation":0},{"id":206,"x":160,"y":160,"width":32,"height":32,"visible":true,"rotation":0},{"id":207,"x":192,"y":160,"width":32,"height":32,"visible":true,"rotation":0},{"id":208,"x":224,"y":160,"width":32,"height":32,"visible":true,"rotation":0},{"id":209,"x":256,"y":160,"width":32,"height":32,"visible":true,"rotation":0},{"id":210,"x":288,"y":160,"width":32,"height":32,"visible":true,"rotation":0},{"id":211,"x":320,"y":160,"width":32,"height":32,"visible":true,"rotation":0},{"id":212,"x":352,"y":160,"width":32,"height":32,"visible":true,"rotation":0},{"id":213,"x":384,"y":160,"width":32,"height":32,"visible":true,"rotation":0},{"id":214,"x":416,"y":160,"width":32,"height":32,"visible":true,"rotation":0},{"id":215,"x":448,"y":160,"width":32,"height":32,"visible":true,"rotation":0},{"id":216,"x":480,"y":160,"width":32,"height":32,"visible":true,"rotation":0},{"id":217,"x":512,"y":160,"width":32,"height":32,"visible":true,"rotation":0},{"id":218,"x":544,"y":160,"width":32,"height":32,"visible":true,"rotation":0},{"id":219,"x":576,"y":160,"width":32,"height":32,"visible":true,"rotation":0},{"id":220,"x":608,"y":160,"width":32,"height":32,"visible":true,"rotation":0},{"id":221,"x":640,"y":160,"width":32,"height":32,"visible":true,"rotation":0},{"id":222,"x":672,"y":160,"width":32,"height":32,"visible":true,"rotation":0},{"id":223,"x":704,"y":160,"width":32,"height":32,"visible":true,"rotation":0},{"id":224,"x":736,"y":160,"width":32,"height":32,"visible":true,"rotation":0},{"id":225,"x":768,"y":160,"width":32,"height":32,"visible":true,"rotation":0},{"id":226,"x":800,"y":160,"width":32,"height":32,"visible":true,"rotation":0},{"id":227,"x":832,"y":160,"width":32,"height":32,"visible":true,"rotation":0},{"id":228,"x":864,"y":160,"width":32,"height":32,"visible":true,"rotation":0},{"id":229,"x":896,"y":160,"width":32,"height":32,"visible":true,"rotation":0},{"id":230,"x":928,"y":160,"width":32,"height":32,"visible":true,"rotation":0},{"id":231,"x":960,"y":160,"width":32,"height":32,"visible":true,"rotation":0},{"id":232,"x":992,"y":160,"width":32,"height":32,"visible":true,"rotation":0},{"id":233,"x":1024,"y":160,"width":32,"height":32,"visible":true,"rotation":0},{"id":234,"x":1056,"y":160,"width":32,"height":32,"visible":true,"rotation":0},{"id":235,"x":1088,"y":160,"width":32,"height":32,"visible":true,"rotation":0},{"id":236,"x":1120,"y":160,"width":32,"height":32,"visible":true,"rotation":0},{"id":237,"x":1152,"y":160,"width":32,"height":32,"visible":true,"rotation":0},{"id":238,"x":1184,"y":160,"width":32,"height":32,"visible":true,"rotation":0},{"id":239,"x":1216,"y":160,"width":32,"height":32,"visible":true,"rotation":0},{"id":240,"x":1248,"y":160,"width":32,"height":32,"visible":true,"rotation":0},{"id":241,"x":0,"y":192,"width":32,"height":32,"visible":true,"rotation":0},{"id":242,"x":32,"y":192,"width":32,"height":32,"visible":true,"rotation":0},{"id":243,"x":64,"y":192,"width":32,"height":32,"visible":true,"rotation":0},{"id":244,"x":96,"y":192,"width":32,"height":32,"visible":true,"rotation":0},{"id":245,"x":128,"y":192,"width":32,"height":32,"visible":true,"rotation":0},{"id":246,"x":160,"y":192,"width":32,"height":32,"visible":true,"rotation":0},{"id":247,"x":192,"y":192,"width":32,"height":32,"visible":true,"rotation":0},{"id":249,"x":256,"y":192,"width":32,"height":32,"visible":true,"rotation":0},{"id":250,"x":288,"y":192,"width":32,"height":32,"visible":true,"rotation":0},{"id":251,"x":320,"y":192,"width":32,"height":32,"visible":true,"rotation":0},{"id":252,"x":352,"y":192,"width":32,"height":32,"visible":true,"rotation":0},{"id":253,"x":384,"y":192,"width":32,"height":32,"visible":true,"rotation":0},{"id":254,"x":416,"y":192,"width":32,"height":32,"visible":true,"rotation":0},{"id":255,"x":448,"y":192,"width":32,"height":32,"visible":true,"rotation":0},{"id":256,"x":480,"y":192,"width":32,"height":32,"visible":true,"rotation":0},{"id":257,"x":512,"y":192,"width":32,"height":32,"visible":true,"rotation":0},{"id":259,"x":576,"y":192,"width":32,"height":32,"visible":true,"rotation":0},{"id":260,"x":608,"y":192,"width":32,"height":32,"visible":true,"rotation":0},{"id":261,"x":640,"y":192,"width":32,"height":32,"visible":true,"rotation":0},{"id":262,"x":672,"y":192,"width":32,"height":32,"visible":true,"rotation":0},{"id":263,"x":704,"y":192,"width":32,"height":32,"visible":true,"rotation":0},{"id":264,"x":736,"y":192,"width":32,"height":32,"visible":true,"rotation":0},{"id":265,"x":768,"y":192,"width":32,"height":32,"visible":true,"rotation":0},{"id":266,"x":800,"y":192,"width":32,"height":32,"visible":true,"rotation":0},{"id":267,"x":832,"y":192,"width":32,"height":32,"visible":true,"rotation":0},{"id":269,"x":896,"y":192,"width":32,"height":32,"visible":true,"rotation":0},{"id":270,"x":928,"y":192,"width":32,"height":32,"visible":true,"rotation":0},{"id":271,"x":960,"y":192,"width":32,"height":32,"visible":true,"rotation":0},{"id":272,"x":992,"y":192,"width":32,"height":32,"visible":true,"rotation":0},{"id":273,"x":1024,"y":192,"width":32,"height":32,"visible":true,"rotation":0},{"id":274,"x":1056,"y":192,"width":32,"height":32,"visible":true,"rotation":0},{"id":275,"x":1088,"y":192,"width":32,"height":32,"visible":true,"rotation":0},{"id":276,"x":1120,"y":192,"width":32,"height":32,"visible":true,"rotation":0},{"id":277,"x":1152,"y":192,"width":32,"height":32,"visible":true,"rotation":0},{"id":279,"x":1216,"y":192,"width":32,"height":32,"visible":true,"rotation":0},{"id":280,"x":1248,"y":192,"width":32,"height":32,"visible":true,"rotation":0},{"id":281,"x":0,"y":224,"width":32,"height":32,"visible":true,"rotation":0},{"id":284,"x":96,"y":224,"width":32,"height":32,"visible":true,"rotation":0},{"id":285,"x":128,"y":224,"width":32,"height":32,"visible":true,"rotation":0},{"id":286,"x":160,"y":224,"width":32,"height":32,"visible":true,"rotation":0},{"id":289,"x":256,"y":224,"width":32,"height":32,"visible":true,"rotation":0},{"id":290,"x":288,"y":224,"width":32,"height":32,"visible":true,"rotation":0},{"id":291,"x":320,"y":224,"width":32,"height":32,"visible":true,"rotation":0},{"id":295,"x":448,"y":224,"width":32,"height":32,"visible":true,"rotation":0},{"id":296,"x":480,"y":224,"width":32,"height":32,"visible":true,"rotation":0},{"id":300,"x":608,"y":224,"width":32,"height":32,"visible":true,"rotation":0},{"id":301,"x":640,"y":224,"width":32,"height":32,"visible":true,"rotation":0},{"id":304,"x":736,"y":224,"width":32,"height":32,"visible":true,"rotation":0},{"id":305,"x":768,"y":224,"width":32,"height":32,"visible":true,"rotation":0},{"id":306,"x":800,"y":224,"width":32,"height":32,"visible":true,"rotation":0},{"id":309,"x":896,"y":224,"width":32,"height":32,"visible":true,"rotation":0},{"id":310,"x":928,"y":224,"width":32,"height":32,"visible":true,"rotation":0},{"id":311,"x":960,"y":224,"width":32,"height":32,"visible":true,"rotation":0},{"id":315,"x":1088,"y":224,"width":32,"height":32,"visible":true,"rotation":0},{"id":316,"x":1120,"y":224,"width":32,"height":32,"visible":true,"rotation":0},{"id":320,"x":1248,"y":224,"width":32,"height":32,"visible":true,"rotation":0},{"id":321,"x":0,"y":256,"width":32,"height":32,"visible":true,"rotation":0},{"id":322,"x":32,"y":256,"width":32,"height":32,"visible":true,"rotation":0},{"id":323,"x":64,"y":256,"width":32,"height":32,"visible":true,"rotation":0},{"id":324,"x":96,"y":256,"width":32,"height":32,"visible":true,"rotation":0},{"id":325,"x":128,"y":256,"width":32,"height":32,"visible":true,"rotation":0},{"id":326,"x":160,"y":256,"width":32,"height":32,"visible":true,"rotation":0},{"id":327,"x":192,"y":256,"width":32,"height":32,"visible":true,"rotation":0},{"id":328,"x":224,"y":256,"width":32,"height":32,"visible":true,"rotation":0},{"id":329,"x":256,"y":256,"width":32,"height":32,"visible":true,"rotation":0},{"id":330,"x":288,"y":256,"width":32,"height":32,"visible":true,"rotation":0},{"id":331,"x":320,"y":256,"width":32,"height":32,"visible":true,"rotation":0},{"id":332,"x":352,"y":256,"width":32,"height":32,"visible":true,"rotation":0},{"id":333,"x":384,"y":256,"width":32,"height":32,"visible":true,"rotation":0},{"id":334,"x":416,"y":256,"width":32,"height":32,"visible":true,"rotation":0},{"id":335,"x":448,"y":256,"width":32,"height":32,"visible":true,"rotation":0},{"id":336,"x":480,"y":256,"width":32,"height":32,"visible":true,"rotation":0},{"id":337,"x":512,"y":256,"width":32,"height":32,"visible":true,"rotation":0},{"id":338,"x":544,"y":256,"width":32,"height":32,"visible":true,"rotation":0},{"id":339,"x":576,"y":256,"width":32,"height":32,"visible":true,"rotation":0},{"id":340,"x":608,"y":256,"width":32,"height":32,"visible":true,"rotation":0},{"id":341,"x":640,"y":256,"width":32,"height":32,"visible":true,"rotation":0},{"id":342,"x":672,"y":256,"width":32,"height":32,"visible":true,"rotation":0},{"id":344,"x":736,"y":256,"width":32,"height":32,"visible":true,"rotation":0},{"id":345,"x":768,"y":256,"width":32,"height":32,"visible":true,"rotation":0},{"id":346,"x":800,"y":256,"width":32,"height":32,"visible":true,"rotation":0},{"id":347,"x":832,"y":256,"width":32,"height":32,"visible":true,"rotation":0},{"id":349,"x":896,"y":256,"width":32,"height":32,"visible":true,"rotation":0},{"id":350,"x":928,"y":256,"width":32,"height":32,"visible":true,"rotation":0},{"id":351,"x":960,"y":256,"width":32,"height":32,"visible":true,"rotation":0},{"id":352,"x":992,"y":256,"width":32,"height":32,"visible":true,"rotation":0},{"id":354,"x":1056,"y":256,"width":32,"height":32,"visible":true,"rotation":0},{"id":355,"x":1088,"y":256,"width":32,"height":32,"visible":true,"rotation":0},{"id":356,"x":1120,"y":256,"width":32,"height":32,"visible":true,"rotation":0},{"id":357,"x":1152,"y":256,"width":32,"height":32,"visible":true,"rotation":0},{"id":359,"x":1216,"y":256,"width":32,"height":32,"visible":true,"rotation":0},{"id":360,"x":1248,"y":256,"width":32,"height":32,"visible":true,"rotation":0},{"id":361,"x":0,"y":288,"width":32,"height":32,"visible":true,"rotation":0},{"id":362,"x":32,"y":288,"width":32,"height":32,"visible":true,"rotation":0},{"id":363,"x":64,"y":288,"width":32,"height":32,"visible":true,"rotation":0},{"id":364,"x":96,"y":288,"width":32,"height":32,"visible":true,"rotation":0},{"id":365,"x":128,"y":288,"width":32,"height":32,"visible":true,"rotation":0},{"id":366,"x":160,"y":288,"width":32,"height":32,"visible":true,"rotation":0},{"id":367,"x":192,"y":288,"width":32,"height":32,"visible":true,"rotation":0},{"id":368,"x":224,"y":288,"width":32,"height":32,"visible":true,"rotation":0},{"id":369,"x":256,"y":288,"width":32,"height":32,"visible":true,"rotation":0},{"id":370,"x":288,"y":288,"width":32,"height":32,"visible":true,"rotation":0},{"id":371,"x":320,"y":288,"width":32,"height":32,"visible":true,"rotation":0},{"id":372,"x":352,"y":288,"width":32,"height":32,"visible":true,"rotation":0},{"id":373,"x":384,"y":288,"width":32,"height":32,"visible":true,"rotation":0},{"id":374,"x":416,"y":288,"width":32,"height":32,"visible":true,"rotation":0},{"id":375,"x":448,"y":288,"width":32,"height":32,"visible":true,"rotation":0},{"id":376,"x":480,"y":288,"width":32,"height":32,"visible":true,"rotation":0},{"id":377,"x":512,"y":288,"width":32,"height":32,"visible":true,"rotation":0},{"id":378,"x":544,"y":288,"width":32,"height":32,"visible":true,"rotation":0},{"id":379,"x":576,"y":288,"width":32,"height":32,"visible":true,"rotation":0},{"id":380,"x":608,"y":288,"width":32,"height":32,"visible":true,"rotation":0},{"id":381,"x":640,"y":288,"width":32,"height":32,"visible":true,"rotation":0},{"id":382,"x":672,"y":288,"width":32,"height":32,"visible":true,"rotation":0},{"id":383,"x":704,"y":288,"width":32,"height":32,"visible":true,"rotation":0},{"id":384,"x":736,"y":288,"width":32,"height":32,"visible":true,"rotation":0},{"id":385,"x":768,"y":288,"width":32,"height":32,"visible":true,"rotation":0},{"id":386,"x":800,"y":288,"width":32,"height":32,"visible":true,"rotation":0},{"id":387,"x":832,"y":288,"width":32,"height":32,"visible":true,"rotation":0},{"id":388,"x":864,"y":288,"width":32,"height":32,"visible":true,"rotation":0},{"id":389,"x":896,"y":288,"width":32,"height":32,"visible":true,"rotation":0},{"id":390,"x":928,"y":288,"width":32,"height":32,"visible":true,"rotation":0},{"id":391,"x":960,"y":288,"width":32,"height":32,"visible":true,"rotation":0},{"id":392,"x":992,"y":288,"width":32,"height":32,"visible":true,"rotation":0},{"id":393,"x":1024,"y":288,"width":32,"height":32,"visible":true,"rotation":0},{"id":394,"x":1056,"y":288,"width":32,"height":32,"visible":true,"rotation":0},{"id":395,"x":1088,"y":288,"width":32,"height":32,"visible":true,"rotation":0},{"id":396,"x":1120,"y":288,"width":32,"height":32,"visible":true,"rotation":0},{"id":397,"x":1152,"y":288,"width":32,"height":32,"visible":true,"rotation":0},{"id":398,"x":1184,"y":288,"width":32,"height":32,"visible":true,"rotation":0},{"id":399,"x":1216,"y":288,"width":32,"height":32,"visible":true,"rotation":0},{"id":400,"x":1248,"y":288,"width":32,"height":32,"visible":true,"rotation":0},{"id":401,"x":0,"y":320,"width":32,"height":32,"visible":true,"rotation":0},{"id":402,"x":32,"y":320,"width":32,"height":32,"visible":true,"rotation":0},{"id":403,"x":64,"y":320,"width":32,"height":32,"visible":true,"rotation":0},{"id":404,"x":96,"y":320,"width":32,"height":32,"visible":true,"rotation":0},{"id":405,"x":128,"y":320,"width":32,"height":32,"visible":true,"rotation":0},{"id":406,"x":160,"y":320,"width":32,"height":32,"visible":true,"rotation":0},{"id":407,"x":192,"y":320,"width":32,"height":32,"visible":true,"rotation":0},{"id":408,"x":224,"y":320,"width":32,"height":32,"visible":true,"rotation":0},{"id":409,"x":256,"y":320,"width":32,"height":32,"visible":true,"rotation":0},{"id":410,"x":288,"y":320,"width":32,"height":32,"visible":true,"rotation":0},{"id":411,"x":320,"y":320,"width":32,"height":32,"visible":true,"rotation":0},{"id":412,"x":352,"y":320,"width":32,"height":32,"visible":true,"rotation":0},{"id":413,"x":384,"y":320,"width":32,"height":32,"visible":true,"rotation":0},{"id":414,"x":416,"y":320,"width":32,"height":32,"visible":true,"rotation":0},{"id":415,"x":448,"y":320,"width":32,"height":32,"visible":true,"rotation":0},{"id":416,"x":480,"y":320,"width":32,"height":32,"visible":true,"rotation":0},{"id":417,"x":512,"y":320,"width":32,"height":32,"visible":true,"rotation":0},{"id":418,"x":544,"y":320,"width":32,"height":32,"visible":true,"rotation":0},{"id":419,"x":576,"y":320,"width":32,"height":32,"visible":true,"rotation":0},{"id":420,"x":608,"y":320,"width":32,"height":32,"visible":true,"rotation":0},{"id":421,"x":640,"y":320,"width":32,"height":32,"visible":true,"rotation":0},{"id":422,"x":672,"y":320,"width":32,"height":32,"visible":true,"rotation":0},{"id":423,"x":704,"y":320,"width":32,"height":32,"visible":true,"rotation":0},{"id":424,"x":736,"y":320,"width":32,"height":32,"visible":true,"rotation":0},{"id":425,"x":768,"y":320,"width":32,"height":32,"visible":true,"rotation":0},{"id":426,"x":800,"y":320,"width":32,"height":32,"visible":true,"rotation":0},{"id":427,"x":832,"y":320,"width":32,"height":32,"visible":true,"rotation":0},{"id":428,"x":864,"y":320,"width":32,"height":32,"visible":true,"rotation":0},{"id":429,"x":896,"y":320,"width":32,"height":32,"visible":true,"rotation":0},{"id":430,"x":928,"y":320,"width":32,"height":32,"visible":true,"rotation":0},{"id":431,"x":960,"y":320,"width":32,"height":32,"visible":true,"rotation":0},{"id":432,"x":992,"y":320,"width":32,"height":32,"visible":true,"rotation":0},{"id":433,"x":1024,"y":320,"width":32,"height":32,"visible":true,"rotation":0},{"id":434,"x":1056,"y":320,"width":32,"height":32,"visible":true,"rotation":0},{"id":435,"x":1088,"y":320,"width":32,"height":32,"visible":true,"rotation":0},{"id":436,"x":1120,"y":320,"width":32,"height":32,"visible":true,"rotation":0},{"id":437,"x":1152,"y":320,"width":32,"height":32,"visible":true,"rotation":0},{"id":438,"x":1184,"y":320,"width":32,"height":32,"visible":true,"rotation":0},{"id":439,"x":1216,"y":320,"width":32,"height":32,"visible":true,"rotation":0},{"id":440,"x":1248,"y":320,"width":32,"height":32,"visible":true,"rotation":0},{"id":441,"x":0,"y":352,"width":32,"height":32,"visible":true,"rotation":0},{"id":442,"x":32,"y":352,"width":32,"height":32,"visible":true,"rotation":0},{"id":445,"x":128,"y":352,"width":32,"height":32,"visible":true,"rotation":0},{"id":446,"x":160,"y":352,"width":32,"height":32,"visible":true,"rotation":0},{"id":447,"x":192,"y":352,"width":32,"height":32,"visible":true,"rotation":0},{"id":450,"x":288,"y":352,"width":32,"height":32,"visible":true,"rotation":0},{"id":451,"x":320,"y":352,"width":32,"height":32,"visible":true,"rotation":0},{"id":452,"x":352,"y":352,"width":32,"height":32,"visible":true,"rotation":0},{"id":455,"x":448,"y":352,"width":32,"height":32,"visible":true,"rotation":0},{"id":456,"x":480,"y":352,"width":32,"height":32,"visible":true,"rotation":0},{"id":457,"x":512,"y":352,"width":32,"height":32,"visible":true,"rotation":0},{"id":460,"x":608,"y":352,"width":32,"height":32,"visible":true,"rotation":0},{"id":461,"x":640,"y":352,"width":32,"height":32,"visible":true,"rotation":0},{"id":462,"x":672,"y":352,"width":32,"height":32,"visible":true,"rotation":0},{"id":463,"x":704,"y":352,"width":32,"height":32,"visible":true,"rotation":0},{"id":464,"x":736,"y":352,"width":32,"height":32,"visible":true,"rotation":0},{"id":465,"x":768,"y":352,"width":32,"height":32,"visible":true,"rotation":0},{"id":466,"x":800,"y":352,"width":32,"height":32,"visible":true,"rotation":0},{"id":467,"x":832,"y":352,"width":32,"height":32,"visible":true,"rotation":0},{"id":469,"x":896,"y":352,"width":32,"height":32,"visible":true,"rotation":0},{"id":470,"x":928,"y":352,"width":32,"height":32,"visible":true,"rotation":0},{"id":471,"x":960,"y":352,"width":32,"height":32,"visible":true,"rotation":0},{"id":472,"x":992,"y":352,"width":32,"height":32,"visible":true,"rotation":0},{"id":473,"x":1024,"y":352,"width":32,"height":32,"visible":true,"rotation":0},{"id":474,"x":1056,"y":352,"width":32,"height":32,"visible":true,"rotation":0},{"id":475,"x":1088,"y":352,"width":32,"height":32,"visible":true,"rotation":0},{"id":476,"x":1120,"y":352,"width":32,"height":32,"visible":true,"rotation":0},{"id":477,"x":1152,"y":352,"width":32,"height":32,"visible":true,"rotation":0},{"id":479,"x":1216,"y":352,"width":32,"height":32,"visible":true,"rotation":0},{"id":480,"x":1248,"y":352,"width":32,"height":32,"visible":true,"rotation":0},{"id":481,"x":0,"y":384,"width":32,"height":32,"visible":true,"rotation":0},{"id":482,"x":32,"y":384,"width":32,"height":32,"visible":true,"rotation":0},{"id":485,"x":128,"y":384,"width":32,"height":32,"visible":true,"rotation":0},{"id":486,"x":160,"y":384,"width":32,"height":32,"visible":true,"rotation":0},{"id":487,"x":192,"y":384,"width":32,"height":32,"visible":true,"rotation":0},{"id":490,"x":288,"y":384,"width":32,"height":32,"visible":true,"rotation":0},{"id":491,"x":320,"y":384,"width":32,"height":32,"visible":true,"rotation":0},{"id":495,"x":448,"y":384,"width":32,"height":32,"visible":true,"rotation":0},{"id":496,"x":480,"y":384,"width":32,"height":32,"visible":true,"rotation":0},{"id":500,"x":608,"y":384,"width":32,"height":32,"visible":true,"rotation":0},{"id":501,"x":640,"y":384,"width":32,"height":32,"visible":true,"rotation":0},{"id":502,"x":672,"y":384,"width":32,"height":32,"visible":true,"rotation":0},{"id":505,"x":768,"y":384,"width":32,"height":32,"visible":true,"rotation":0},{"id":506,"x":800,"y":384,"width":32,"height":32,"visible":true,"rotation":0},{"id":507,"x":832,"y":384,"width":32,"height":32,"visible":true,"rotation":0},{"id":510,"x":928,"y":384,"width":32,"height":32,"visible":true,"rotation":0},{"id":511,"x":960,"y":384,"width":32,"height":32,"visible":true,"rotation":0},{"id":515,"x":1088,"y":384,"width":32,"height":32,"visible":true,"rotation":0},{"id":516,"x":1120,"y":384,"width":32,"height":32,"visible":true,"rotation":0},{"id":520,"x":1248,"y":384,"width":32,"height":32,"visible":true,"rotation":0},{"id":521,"x":0,"y":416,"width":32,"height":32,"visible":true,"rotation":0},{"id":522,"x":32,"y":416,"width":32,"height":32,"visible":true,"rotation":0},{"id":523,"x":64,"y":416,"width":32,"height":32,"visible":true,"rotation":0},{"id":524,"x":96,"y":416,"width":32,"height":32,"visible":true,"rotation":0},{"id":525,"x":128,"y":416,"width":32,"height":32,"visible":true,"rotation":0},{"id":526,"x":160,"y":416,"width":32,"height":32,"visible":true,"rotation":0},{"id":527,"x":192,"y":416,"width":32,"height":32,"visible":true,"rotation":0},{"id":529,"x":256,"y":416,"width":32,"height":32,"visible":true,"rotation":0},{"id":530,"x":288,"y":416,"width":32,"height":32,"visible":true,"rotation":0},{"id":531,"x":320,"y":416,"width":32,"height":32,"visible":true,"rotation":0},{"id":532,"x":352,"y":416,"width":32,"height":32,"visible":true,"rotation":0},{"id":533,"x":384,"y":416,"width":32,"height":32,"visible":true,"rotation":0},{"id":534,"x":416,"y":416,"width":32,"height":32,"visible":true,"rotation":0},{"id":535,"x":448,"y":416,"width":32,"height":32,"visible":true,"rotation":0},{"id":536,"x":480,"y":416,"width":32,"height":32,"visible":true,"rotation":0},{"id":537,"x":512,"y":416,"width":32,"height":32,"visible":true,"rotation":0},{"id":539,"x":576,"y":416,"width":32,"height":32,"visible":true,"rotation":0},{"id":540,"x":608,"y":416,"width":32,"height":32,"visible":true,"rotation":0},{"id":541,"x":640,"y":416,"width":32,"height":32,"visible":true,"rotation":0},{"id":542,"x":672,"y":416,"width":32,"height":32,"visible":true,"rotation":0},{"id":545,"x":768,"y":416,"width":32,"height":32,"visible":true,"rotation":0},{"id":546,"x":800,"y":416,"width":32,"height":32,"visible":true,"rotation":0},{"id":547,"x":832,"y":416,"width":32,"height":32,"visible":true,"rotation":0},{"id":550,"x":928,"y":416,"width":32,"height":32,"visible":true,"rotation":0},{"id":551,"x":960,"y":416,"width":32,"height":32,"visible":true,"rotation":0},{"id":552,"x":992,"y":416,"width":32,"height":32,"visible":true,"rotation":0},{"id":555,"x":1088,"y":416,"width":32,"height":32,"visible":true,"rotation":0},{"id":556,"x":1120,"y":416,"width":32,"height":32,"visible":true,"rotation":0},{"id":557,"x":1152,"y":416,"width":32,"height":32,"visible":true,"rotation":0},{"id":560,"x":1248,"y":416,"width":32,"height":32,"visible":true,"rotation":0},{"id":561,"x":0,"y":448,"width":32,"height":32,"visible":true,"rotation":0},{"id":562,"x":32,"y":448,"width":32,"height":32,"visible":true,"rotation":0},{"id":563,"x":64,"y":448,"width":32,"height":32,"visible":true,"rotation":0},{"id":564,"x":96,"y":448,"width":32,"height":32,"visible":true,"rotation":0},{"id":565,"x":128,"y":448,"width":32,"height":32,"visible":true,"rotation":0},{"id":566,"x":160,"y":448,"width":32,"height":32,"visible":true,"rotation":0},{"id":567,"x":192,"y":448,"width":32,"height":32,"visible":true,"rotation":0},{"id":568,"x":224,"y":448,"width":32,"height":32,"visible":true,"rotation":0},{"id":569,"x":256,"y":448,"width":32,"height":32,"visible":true,"rotation":0},{"id":570,"x":288,"y":448,"width":32,"height":32,"visible":true,"rotation":0},{"id":571,"x":320,"y":448,"width":32,"height":32,"visible":true,"rotation":0},{"id":572,"x":352,"y":448,"width":32,"height":32,"visible":true,"rotation":0},{"id":573,"x":384,"y":448,"width":32,"height":32,"visible":true,"rotation":0},{"id":574,"x":416,"y":448,"width":32,"height":32,"visible":true,"rotation":0},{"id":575,"x":448,"y":448,"width":32,"height":32,"visible":true,"rotation":0},{"id":576,"x":480,"y":448,"width":32,"height":32,"visible":true,"rotation":0},{"id":577,"x":512,"y":448,"width":32,"height":32,"visible":true,"rotation":0},{"id":578,"x":544,"y":448,"width":32,"height":32,"visible":true,"rotation":0},{"id":579,"x":576,"y":448,"width":32,"height":32,"visible":true,"rotation":0},{"id":580,"x":608,"y":448,"width":32,"height":32,"visible":true,"rotation":0},{"id":581,"x":640,"y":448,"width":32,"height":32,"visible":true,"rotation":0},{"id":582,"x":672,"y":448,"width":32,"height":32,"visible":true,"rotation":0},{"id":583,"x":704,"y":448,"width":32,"height":32,"visible":true,"rotation":0},{"id":584,"x":736,"y":448,"width":32,"height":32,"visible":true,"rotation":0},{"id":585,"x":768,"y":448,"width":32,"height":32,"visible":true,"rotation":0},{"id":586,"x":800,"y":448,"width":32,"height":32,"visible":true,"rotation":0},{"id":587,"x":832,"y":448,"width":32,"height":32,"visible":true,"rotation":0},{"id":588,"x":864,"y":448,"width":32,"height":32,"visible":true,"rotation":0},{"id":589,"x":896,"y":448,"width":32,"height":32,"visible":true,"rotation":0},{"id":590,"x":928,"y":448,"width":32,"height":32,"visible":true,"rotation":0},{"id":591,"x":960,"y":448,"width":32,"height":32,"visible":true,"rotation":0},{"id":592,"x":992,"y":448,"width":32,"height":32,"visible":true,"rotation":0},{"id":593,"x":1024,"y":448,"width":32,"height":32,"visible":true,"rotation":0},{"id":594,"x":1056,"y":448,"width":32,"height":32,"visible":true,"rotation":0},{"id":595,"x":1088,"y":448,"width":32,"height":32,"visible":true,"rotation":0},{"id":596,"x":1120,"y":448,"width":32,"height":32,"visible":true,"rotation":0},{"id":597,"x":1152,"y":448,"width":32,"height":32,"visible":true,"rotation":0},{"id":598,"x":1184,"y":448,"width":32,"height":32,"visible":true,"rotation":0},{"id":599,"x":1216,"y":448,"width":32,"height":32,"visible":true,"rotation":0},{"id":600,"x":1248,"y":448,"width":32,"height":32,"visible":true,"rotation":0},{"id":601,"x":0,"y":480,"width":32,"height":32,"visible":true,"rotation":0},{"id":602,"x":32,"y":480,"width":32,"height":32,"visible":true,"rotation":0},{"id":603,"x":64,"y":480,"width":32,"height":32,"visible":true,"rotation":0},{"id":604,"x":96,"y":480,"width":32,"height":32,"visible":true,"rotation":0},{"id":605,"x":128,"y":480,"width":32,"height":32,"visible":true,"rotation":0},{"id":606,"x":160,"y":480,"width":32,"height":32,"visible":true,"rotation":0},{"id":607,"x":192,"y":480,"width":32,"height":32,"visible":true,"rotation":0},{"id":608,"x":224,"y":480,"width":32,"height":32,"visible":true,"rotation":0},{"id":609,"x":256,"y":480,"width":32,"height":32,"visible":true,"rotation":0},{"id":610,"x":288,"y":480,"width":32,"height":32,"visible":true,"rotation":0},{"id":611,"x":320,"y":480,"width":32,"height":32,"visible":true,"rotation":0},{"id":612,"x":352,"y":480,"width":32,"height":32,"visible":true,"rotation":0},{"id":613,"x":384,"y":480,"width":32,"height":32,"visible":true,"rotation":0},{"id":614,"x":416,"y":480,"width":32,"height":32,"visible":true,"rotation":0},{"id":615,"x":448,"y":480,"width":32,"height":32,"visible":true,"rotation":0},{"id":616,"x":480,"y":480,"width":32,"height":32,"visible":true,"rotation":0},{"id":617,"x":512,"y":480,"width":32,"height":32,"visible":true,"rotation":0},{"id":618,"x":544,"y":480,"width":32,"height":32,"visible":true,"rotation":0},{"id":619,"x":576,"y":480,"width":32,"height":32,"visible":true,"rotation":0},{"id":620,"x":608,"y":480,"width":32,"height":32,"visible":true,"rotation":0},{"id":621,"x":640,"y":480,"width":32,"height":32,"visible":true,"rotation":0},{"id":622,"x":672,"y":480,"width":32,"height":32,"visible":true,"rotation":0},{"id":623,"x":704,"y":480,"width":32,"height":32,"visible":true,"rotation":0},{"id":624,"x":736,"y":480,"width":32,"height":32,"visible":true,"rotation":0},{"id":625,"x":768,"y":480,"width":32,"height":32,"visible":true,"rotation":0},{"id":626,"x":800,"y":480,"width":32,"height":32,"visible":true,"rotation":0},{"id":627,"x":832,"y":480,"width":32,"height":32,"visible":true,"rotation":0},{"id":628,"x":864,"y":480,"width":32,"height":32,"visible":true,"rotation":0},{"id":629,"x":896,"y":480,"width":32,"height":32,"visible":true,"rotation":0},{"id":630,"x":928,"y":480,"width":32,"height":32,"visible":true,"rotation":0},{"id":631,"x":960,"y":480,"width":32,"height":32,"visible":true,"rotation":0},{"id":632,"x":992,"y":480,"width":32,"height":32,"visible":true,"rotation":0},{"id":633,"x":1024,"y":480,"width":32,"height":32,"visible":true,"rotation":0},{"id":634,"x":1056,"y":480,"width":32,"height":32,"visible":true,"rotation":0},{"id":635,"x":1088,"y":480,"width":32,"height":32,"visible":true,"rotation":0},{"id":636,"x":1120,"y":480,"width":32,"height":32,"visible":true,"rotation":0},{"id":637,"x":1152,"y":480,"width":32,"height":32,"visible":true,"rotation":0},{"id":638,"x":1184,"y":480,"width":32,"height":32,"visible":true,"rotation":0},{"id":639,"x":1216,"y":480,"width":32,"height":32,"visible":true,"rotation":0},{"id":640,"x":1248,"y":480,"width":32,"height":32,"visible":true,"rotation":0},{"id":641,"x":0,"y":512,"width":32,"height":32,"visible":true,"rotation":0},{"id":642,"x":32,"y":512,"width":32,"height":32,"visible":true,"rotation":0},{"id":645,"x":128,"y":512,"width":32,"height":32,"visible":true,"rotation":0},{"id":646,"x":160,"y":512,"width":32,"height":32,"visible":true,"rotation":0},{"id":647,"x":192,"y":512,"width":32,"height":32,"visible":true,"rotation":0},{"id":650,"x":288,"y":512,"width":32,"height":32,"visible":true,"rotation":0},{"id":651,"x":320,"y":512,"width":32,"height":32,"visible":true,"rotation":0},{"id":652,"x":352,"y":512,"width":32,"height":32,"visible":true,"rotation":0},{"id":653,"x":384,"y":512,"width":32,"height":32,"visible":true,"rotation":0},{"id":654,"x":416,"y":512,"width":32,"height":32,"visible":true,"rotation":0},{"id":655,"x":448,"y":512,"width":32,"height":32,"visible":true,"rotation":0},{"id":656,"x":480,"y":512,"width":32,"height":32,"visible":true,"rotation":0},{"id":657,"x":512,"y":512,"width":32,"height":32,"visible":true,"rotation":0},{"id":659,"x":576,"y":512,"width":32,"height":32,"visible":true,"rotation":0},{"id":660,"x":608,"y":512,"width":32,"height":32,"visible":true,"rotation":0},{"id":661,"x":640,"y":512,"width":32,"height":32,"visible":true,"rotation":0},{"id":662,"x":672,"y":512,"width":32,"height":32,"visible":true,"rotation":0},{"id":663,"x":704,"y":512,"width":32,"height":32,"visible":true,"rotation":0},{"id":664,"x":736,"y":512,"width":32,"height":32,"visible":true,"rotation":0},{"id":665,"x":768,"y":512,"width":32,"height":32,"visible":true,"rotation":0},{"id":666,"x":800,"y":512,"width":32,"height":32,"visible":true,"rotation":0},{"id":667,"x":832,"y":512,"width":32,"height":32,"visible":true,"rotation":0},{"id":669,"x":896,"y":512,"width":32,"height":32,"visible":true,"rotation":0},{"id":670,"x":928,"y":512,"width":32,"height":32,"visible":true,"rotation":0},{"id":671,"x":960,"y":512,"width":32,"height":32,"visible":true,"rotation":0},{"id":672,"x":992,"y":512,"width":32,"height":32,"visible":true,"rotation":0},{"id":675,"x":1088,"y":512,"width":32,"height":32,"visible":true,"rotation":0},{"id":676,"x":1120,"y":512,"width":32,"height":32,"visible":true,"rotation":0},{"id":677,"x":1152,"y":512,"width":32,"height":32,"visible":true,"rotation":0},{"id":678,"x":1184,"y":512,"width":32,"height":32,"visible":true,"rotation":0},{"id":679,"x":1216,"y":512,"width":32,"height":32,"visible":true,"rotation":0},{"id":680,"x":1248,"y":512,"width":32,"height":32,"visible":true,"rotation":0},{"id":681,"x":0,"y":544,"width":32,"height":32,"visible":true,"rotation":0},{"id":682,"x":32,"y":544,"width":32,"height":32,"visible":true,"rotation":0},{"id":685,"x":128,"y":544,"width":32,"height":32,"visible":true,"rotation":0},{"id":686,"x":160,"y":544,"width":32,"height":32,"visible":true,"rotation":0},{"id":690,"x":288,"y":544,"width":32,"height":32,"visible":true,"rotation":0},{"id":691,"x":320,"y":544,"width":32,"height":32,"visible":true,"rotation":0},{"id":694,"x":416,"y":544,"width":32,"height":32,"visible":true,"rotation":0},{"id":695,"x":448,"y":544,"width":32,"height":32,"visible":true,"rotation":0},{"id":696,"x":480,"y":544,"width":32,"height":32,"visible":true,"rotation":0},{"id":699,"x":576,"y":544,"width":32,"height":32,"visible":true,"rotation":0},{"id":700,"x":608,"y":544,"width":32,"height":32,"visible":true,"rotation":0},{"id":701,"x":640,"y":544,"width":32,"height":32,"visible":true,"rotation":0},{"id":705,"x":768,"y":544,"width":32,"height":32,"visible":true,"rotation":0},{"id":706,"x":800,"y":544,"width":32,"height":32,"visible":true,"rotation":0},{"id":710,"x":928,"y":544,"width":32,"height":32,"visible":true,"rotation":0},{"id":711,"x":960,"y":544,"width":32,"height":32,"visible":true,"rotation":0},{"id":715,"x":1088,"y":544,"width":32,"height":32,"visible":true,"rotation":0},{"id":716,"x":1120,"y":544,"width":32,"height":32,"visible":true,"rotation":0},{"id":720,"x":1248,"y":544,"width":32,"height":32,"visible":true,"rotation":0},{"id":721,"x":0,"y":576,"width":32,"height":32,"visible":true,"rotation":0},{"id":722,"x":32,"y":576,"width":32,"height":32,"visible":true,"rotation":0},{"id":725,"x":128,"y":576,"width":32,"height":32,"visible":true,"rotation":0},{"id":726,"x":160,"y":576,"width":32,"height":32,"visible":true,"rotation":0},{"id":727,"x":192,"y":576,"width":32,"height":32,"visible":true,"rotation":0},{"id":730,"x":288,"y":576,"width":32,"height":32,"visible":true,"rotation":0},{"id":731,"x":320,"y":576,"width":32,"height":32,"visible":true,"rotation":0},{"id":734,"x":416,"y":576,"width":32,"height":32,"visible":true,"rotation":0},{"id":735,"x":448,"y":576,"width":32,"height":32,"visible":true,"rotation":0},{"id":736,"x":480,"y":576,"width":32,"height":32,"visible":true,"rotation":0},{"id":739,"x":576,"y":576,"width":32,"height":32,"visible":true,"rotation":0},{"id":740,"x":608,"y":576,"width":32,"height":32,"visible":true,"rotation":0},{"id":741,"x":640,"y":576,"width":32,"height":32,"visible":true,"rotation":0},{"id":744,"x":736,"y":576,"width":32,"height":32,"visible":true,"rotation":0},{"id":745,"x":768,"y":576,"width":32,"height":32,"visible":true,"rotation":0},{"id":746,"x":800,"y":576,"width":32,"height":32,"visible":true,"rotation":0},{"id":749,"x":896,"y":576,"width":32,"height":32,"visible":true,"rotation":0},{"id":750,"x":928,"y":576,"width":32,"height":32,"visible":true,"rotation":0},{"id":751,"x":960,"y":576,"width":32,"height":32,"visible":true,"rotation":0},{"id":754,"x":1056,"y":576,"width":32,"height":32,"visible":true,"rotation":0},{"id":755,"x":1088,"y":576,"width":32,"height":32,"visible":true,"rotation":0},{"id":756,"x":1120,"y":576,"width":32,"height":32,"visible":true,"rotation":0},{"id":760,"x":1248,"y":576,"width":32,"height":32,"visible":true,"rotation":0},{"id":761,"x":0,"y":608,"width":32,"height":32,"visible":true,"rotation":0},{"id":762,"x":32,"y":608,"width":32,"height":32,"visible":true,"rotation":0},{"id":763,"x":64,"y":608,"width":32,"height":32,"visible":true,"rotation":0},{"id":764,"x":96,"y":608,"width":32,"height":32,"visible":true,"rotation":0},{"id":765,"x":128,"y":608,"width":32,"height":32,"visible":true,"rotation":0},{"id":766,"x":160,"y":608,"width":32,"height":32,"visible":true,"rotation":0},{"id":767,"x":192,"y":608,"width":32,"height":32,"visible":true,"rotation":0},{"id":768,"x":224,"y":608,"width":32,"height":32,"visible":true,"rotation":0},{"id":769,"x":256,"y":608,"width":32,"height":32,"visible":true,"rotation":0},{"id":770,"x":288,"y":608,"width":32,"height":32,"visible":true,"rotation":0},{"id":771,"x":320,"y":608,"width":32,"height":32,"visible":true,"rotation":0},{"id":772,"x":352,"y":608,"width":32,"height":32,"visible":true,"rotation":0},{"id":773,"x":384,"y":608,"width":32,"height":32,"visible":true,"rotation":0},{"id":774,"x":416,"y":608,"width":32,"height":32,"visible":true,"rotation":0},{"id":775,"x":448,"y":608,"width":32,"height":32,"visible":true,"rotation":0},{"id":776,"x":480,"y":608,"width":32,"height":32,"visible":true,"rotation":0},{"id":777,"x":512,"y":608,"width":32,"height":32,"visible":true,"rotation":0},{"id":778,"x":544,"y":608,"width":32,"height":32,"visible":true,"rotation":0},{"id":779,"x":576,"y":608,"width":32,"height":32,"visible":true,"rotation":0},{"id":780,"x":608,"y":608,"width":32,"height":32,"visible":true,"rotation":0},{"id":781,"x":640,"y":608,"width":32,"height":32,"visible":true,"rotation":0},{"id":782,"x":672,"y":608,"width":32,"height":32,"visible":true,"rotation":0},{"id":783,"x":704,"y":608,"width":32,"height":32,"visible":true,"rotation":0},{"id":784,"x":736,"y":608,"width":32,"height":32,"visible":true,"rotation":0},{"id":785,"x":768,"y":608,"width":32,"height":32,"visible":true,"rotation":0},{"id":786,"x":800,"y":608,"width":32,"height":32,"visible":true,"rotation":0},{"id":787,"x":832,"y":608,"width":32,"height":32,"visible":true,"rotation":0},{"id":788,"x":864,"y":608,"width":32,"height":32,"visible":true,"rotation":0},{"id":789,"x":896,"y":608,"width":32,"height":32,"visible":true,"rotation":0},{"id":790,"x":928,"y":608,"width":32,"height":32,"visible":true,"rotation":0},{"id":791,"x":960,"y":608,"width":32,"height":32,"visible":true,"rotation":0},{"id":792,"x":992,"y":608,"width":32,"height":32,"visible":true,"rotation":0},{"id":793,"x":1024,"y":608,"width":32,"height":32,"visible":true,"rotation":0},{"id":794,"x":1056,"y":608,"width":32,"height":32,"visible":true,"rotation":0},{"id":795,"x":1088,"y":608,"width":32,"height":32,"visible":true,"rotation":0},{"id":796,"x":1120,"y":608,"width":32,"height":32,"visible":true,"rotation":0},{"id":797,"x":1152,"y":608,"width":32,"height":32,"visible":true,"rotation":0},{"id":798,"x":1184,"y":608,"width":32,"height":32,"visible":true,"rotation":0},{"id":799,"x":1216,"y":608,"width":32,"height":32,"visible":true,"rotation":0},{"id":800,"x":1248,"y":608,"width":32,"height":32,"visible":true,"rotation":0},{"id":801,"x":0,"y":640,"width":32,"height":32,"visible":true,"rotation":0},{"id":802,"x":32,"y":640,"width":32,"height":32,"visible":true,"rotation":0},{"id":803,"x":64,"y":640,"width":32,"height":32,"visible":true,"rotation":0},{"id":804,"x":96,"y":640,"width":32,"height":32,"visible":true,"rotation":0},{"id":805,"x":128,"y":640,"width":32,"height":32,"visible":true,"rotation":0},{"id":806,"x":160,"y":640,"width":32,"height":32,"visible":true,"rotation":0},{"id":807,"x":192,"y":640,"width":32,"height":32,"visible":true,"rotation":0},{"id":808,"x":224,"y":640,"width":32,"height":32,"visible":true,"rotation":0},{"id":809,"x":256,"y":640,"width":32,"height":32,"visible":true,"rotation":0},{"id":810,"x":288,"y":640,"width":32,"height":32,"visible":true,"rotation":0},{"id":811,"x":320,"y":640,"width":32,"height":32,"visible":true,"rotation":0},{"id":812,"x":352,"y":640,"width":32,"height":32,"visible":true,"rotation":0},{"id":813,"x":384,"y":640,"width":32,"height":32,"visible":true,"rotation":0},{"id":814,"x":416,"y":640,"width":32,"height":32,"visible":true,"rotation":0},{"id":815,"x":448,"y":640,"width":32,"height":32,"visible":true,"rotation":0},{"id":816,"x":480,"y":640,"width":32,"height":32,"visible":true,"rotation":0},{"id":817,"x":512,"y":640,"width":32,"height":32,"visible":true,"rotation":0},{"id":818,"x":544,"y":640,"width":32,"height":32,"visible":true,"rotation":0},{"id":819,"x":576,"y":640,"width":32,"height":32,"visible":true,"rotation":0},{"id":820,"x":608,"y":640,"width":32,"height":32,"visible":true,"rotation":0},{"id":821,"x":640,"y":640,"width":32,"height":32,"visible":true,"rotation":0},{"id":822,"x":672,"y":640,"width":32,"height":32,"visible":true,"rotation":0},{"id":823,"x":704,"y":640,"width":32,"height":32,"visible":true,"rotation":0},{"id":824,"x":736,"y":640,"width":32,"height":32,"visible":true,"rotation":0},{"id":825,"x":768,"y":640,"width":32,"height":32,"visible":true,"rotation":0},{"id":826,"x":800,"y":640,"width":32,"height":32,"visible":true,"rotation":0},{"id":827,"x":832,"y":640,"width":32,"height":32,"visible":true,"rotation":0},{"id":828,"x":864,"y":640,"width":32,"height":32,"visible":true,"rotation":0},{"id":829,"x":896,"y":640,"width":32,"height":32,"visible":true,"rotation":0},{"id":830,"x":928,"y":640,"width":32,"height":32,"visible":true,"rotation":0},{"id":831,"x":960,"y":640,"width":32,"height":32,"visible":true,"rotation":0},{"id":832,"x":992,"y":640,"width":32,"height":32,"visible":true,"rotation":0},{"id":833,"x":1024,"y":640,"width":32,"height":32,"visible":true,"rotation":0},{"id":834,"x":1056,"y":640,"width":32,"height":32,"visible":true,"rotation":0},{"id":835,"x":1088,"y":640,"width":32,"height":32,"visible":true,"rotation":0},{"id":836,"x":1120,"y":640,"width":32,"height":32,"visible":true,"rotation":0},{"id":837,"x":1152,"y":640,"width":32,"height":32,"visible":true,"rotation":0},{"id":838,"x":1184,"y":640,"width":32,"height":32,"visible":true,"rotation":0},{"id":839,"x":1216,"y":640,"width":32,"height":32,"visible":true,"rotation":0},{"id":840,"x":1248,"y":640,"width":32,"height":32,"visible":true,"rotation":0},{"id":841,"x":0,"y":672,"width":32,"height":32,"visible":true,"rotation":0},{"id":842,"x":32,"y":672,"width":32,"height":32,"visible":true,"rotation":0},{"id":844,"x":96,"y":672,"width":32,"height":32,"visible":true,"rotation":0},{"id":845,"x":128,"y":672,"width":32,"height":32,"visible":true,"rotation":0},{"id":846,"x":160,"y":672,"width":32,"height":32,"visible":true,"rotation":0},{"id":847,"x":192,"y":672,"width":32,"height":32,"visible":true,"rotation":0},{"id":850,"x":288,"y":672,"width":32,"height":32,"visible":true,"rotation":0},{"id":851,"x":320,"y":672,"width":32,"height":32,"visible":true,"rotation":0},{"id":854,"x":416,"y":672,"width":32,"height":32,"visible":true,"rotation":0},{"id":855,"x":448,"y":672,"width":32,"height":32,"visible":true,"rotation":0},{"id":856,"x":480,"y":672,"width":32,"height":32,"visible":true,"rotation":0},{"id":859,"x":576,"y":672,"width":32,"height":32,"visible":true,"rotation":0},{"id":860,"x":608,"y":672,"width":32,"height":32,"visible":true,"rotation":0},{"id":861,"x":640,"y":672,"width":32,"height":32,"visible":true,"rotation":0},{"id":864,"x":736,"y":672,"width":32,"height":32,"visible":true,"rotation":0},{"id":865,"x":768,"y":672,"width":32,"height":32,"visible":true,"rotation":0},{"id":866,"x":800,"y":672,"width":32,"height":32,"visible":true,"rotation":0},{"id":869,"x":896,"y":672,"width":32,"height":32,"visible":true,"rotation":0},{"id":870,"x":928,"y":672,"width":32,"height":32,"visible":true,"rotation":0},{"id":871,"x":960,"y":672,"width":32,"height":32,"visible":true,"rotation":0},{"id":875,"x":1088,"y":672,"width":32,"height":32,"visible":true,"rotation":0},{"id":876,"x":1120,"y":672,"width":32,"height":32,"visible":true,"rotation":0},{"id":880,"x":1248,"y":672,"width":32,"height":32,"visible":true,"rotation":0},{"id":881,"x":0,"y":704,"width":32,"height":32,"visible":true,"rotation":0},{"id":885,"x":128,"y":704,"width":32,"height":32,"visible":true,"rotation":0},{"id":886,"x":160,"y":704,"width":32,"height":32,"visible":true,"rotation":0},{"id":890,"x":288,"y":704,"width":32,"height":32,"visible":true,"rotation":0},{"id":891,"x":320,"y":704,"width":32,"height":32,"visible":true,"rotation":0},{"id":894,"x":416,"y":704,"width":32,"height":32,"visible":true,"rotation":0},{"id":895,"x":448,"y":704,"width":32,"height":32,"visible":true,"rotation":0},{"id":896,"x":480,"y":704,"width":32,"height":32,"visible":true,"rotation":0},{"id":900,"x":608,"y":704,"width":32,"height":32,"visible":true,"rotation":0},{"id":901,"x":640,"y":704,"width":32,"height":32,"visible":true,"rotation":0},{"id":904,"x":736,"y":704,"width":32,"height":32,"visible":true,"rotation":0},{"id":905,"x":768,"y":704,"width":32,"height":32,"visible":true,"rotation":0},{"id":906,"x":800,"y":704,"width":32,"height":32,"visible":true,"rotation":0},{"id":910,"x":928,"y":704,"width":32,"height":32,"visible":true,"rotation":0},{"id":911,"x":960,"y":704,"width":32,"height":32,"visible":true,"rotation":0},{"id":915,"x":1088,"y":704,"width":32,"height":32,"visible":true,"rotation":0},{"id":916,"x":1120,"y":704,"width":32,"height":32,"visible":true,"rotation":0},{"id":920,"x":1248,"y":704,"width":32,"height":32,"visible":true,"rotation":0},{"id":921,"x":0,"y":736,"width":32,"height":32,"visible":true,"rotation":0},{"id":925,"x":128,"y":736,"width":32,"height":32,"visible":true,"rotation":0},{"id":926,"x":160,"y":736,"width":32,"height":32,"visible":true,"rotation":0},{"id":930,"x":288,"y":736,"width":32,"height":32,"visible":true,"rotation":0},{"id":931,"x":320,"y":736,"width":32,"height":32,"visible":true,"rotation":0},{"id":932,"x":352,"y":736,"width":32,"height":32,"visible":true,"rotation":0},{"id":933,"x":384,"y":736,"width":32,"height":32,"visible":true,"rotation":0},{"id":934,"x":416,"y":736,"width":32,"height":32,"visible":true,"rotation":0},{"id":935,"x":448,"y":736,"width":32,"height":32,"visible":true,"rotation":0},{"id":936,"x":480,"y":736,"width":32,"height":32,"visible":true,"rotation":0},{"id":937,"x":512,"y":736,"width":32,"height":32,"visible":true,"rotation":0},{"id":938,"x":544,"y":736,"width":32,"height":32,"visible":true,"rotation":0},{"id":939,"x":576,"y":736,"width":32,"height":32,"visible":true,"rotation":0},{"id":940,"x":608,"y":736,"width":32,"height":32,"visible":true,"rotation":0},{"id":941,"x":640,"y":736,"width":32,"height":32,"visible":true,"rotation":0},{"id":942,"x":672,"y":736,"width":32,"height":32,"visible":true,"rotation":0},{"id":944,"x":736,"y":736,"width":32,"height":32,"visible":true,"rotation":0},{"id":945,"x":768,"y":736,"width":32,"height":32,"visible":true,"rotation":0},{"id":946,"x":800,"y":736,"width":32,"height":32,"visible":true,"rotation":0},{"id":947,"x":832,"y":736,"width":32,"height":32,"visible":true,"rotation":0},{"id":949,"x":896,"y":736,"width":32,"height":32,"visible":true,"rotation":0},{"id":950,"x":928,"y":736,"width":32,"height":32,"visible":true,"rotation":0},{"id":951,"x":960,"y":736,"width":32,"height":32,"visible":true,"rotation":0},{"id":952,"x":992,"y":736,"width":32,"height":32,"visible":true,"rotation":0},{"id":953,"x":1024,"y":736,"width":32,"height":32,"visible":true,"rotation":0},{"id":954,"x":1056,"y":736,"width":32,"height":32,"visible":true,"rotation":0},{"id":955,"x":1088,"y":736,"width":32,"height":32,"visible":true,"rotation":0},{"id":956,"x":1120,"y":736,"width":32,"height":32,"visible":true,"rotation":0},{"id":957,"x":1152,"y":736,"width":32,"height":32,"visible":true,"rotation":0},{"id":959,"x":1216,"y":736,"width":32,"height":32,"visible":true,"rotation":0},{"id":960,"x":1248,"y":736,"width":32,"height":32,"visible":true,"rotation":0},{"id":961,"x":0,"y":768,"width":32,"height":32,"visible":true,"rotation":0},{"id":962,"x":32,"y":768,"width":32,"height":32,"visible":true,"rotation":0},{"id":963,"x":64,"y":768,"width":32,"height":32,"visible":true,"rotation":0},{"id":964,"x":96,"y":768,"width":32,"height":32,"visible":true,"rotation":0},{"id":965,"x":128,"y":768,"width":32,"height":32,"visible":true,"rotation":0},{"id":966,"x":160,"y":768,"width":32,"height":32,"visible":true,"rotation":0},{"id":967,"x":192,"y":768,"width":32,"height":32,"visible":true,"rotation":0},{"id":968,"x":224,"y":768,"width":32,"height":32,"visible":true,"rotation":0},{"id":969,"x":256,"y":768,"width":32,"height":32,"visible":true,"rotation":0},{"id":970,"x":288,"y":768,"width":32,"height":32,"visible":true,"rotation":0},{"id":971,"x":320,"y":768,"width":32,"height":32,"visible":true,"rotation":0},{"id":972,"x":352,"y":768,"width":32,"height":32,"visible":true,"rotation":0},{"id":973,"x":384,"y":768,"width":32,"height":32,"visible":true,"rotation":0},{"id":974,"x":416,"y":768,"width":32,"height":32,"visible":true,"rotation":0},{"id":975,"x":448,"y":768,"width":32,"height":32,"visible":true,"rotation":0},{"id":976,"x":480,"y":768,"width":32,"height":32,"visible":true,"rotation":0},{"id":977,"x":512,"y":768,"width":32,"height":32,"visible":true,"rotation":0},{"id":978,"x":544,"y":768,"width":32,"height":32,"visible":true,"rotation":0},{"id":979,"x":576,"y":768,"width":32,"height":32,"visible":true,"rotation":0},{"id":980,"x":608,"y":768,"width":32,"height":32,"visible":true,"rotation":0},{"id":981,"x":640,"y":768,"width":32,"height":32,"visible":true,"rotation":0},{"id":982,"x":672,"y":768,"width":32,"height":32,"visible":true,"rotation":0},{"id":983,"x":704,"y":768,"width":32,"height":32,"visible":true,"rotation":0},{"id":984,"x":736,"y":768,"width":32,"height":32,"visible":true,"rotation":0},{"id":985,"x":768,"y":768,"width":32,"height":32,"visible":true,"rotation":0},{"id":986,"x":800,"y":768,"width":32,"height":32,"visible":true,"rotation":0},{"id":987,"x":832,"y":768,"width":32,"height":32,"visible":true,"rotation":0},{"id":988,"x":864,"y":768,"width":32,"height":32,"visible":true,"rotation":0},{"id":989,"x":896,"y":768,"width":32,"height":32,"visible":true,"rotation":0},{"id":990,"x":928,"y":768,"width":32,"height":32,"visible":true,"rotation":0},{"id":991,"x":960,"y":768,"width":32,"height":32,"visible":true,"rotation":0},{"id":992,"x":992,"y":768,"width":32,"height":32,"visible":true,"rotation":0},{"id":993,"x":1024,"y":768,"width":32,"height":32,"visible":true,"rotation":0},{"id":994,"x":1056,"y":768,"width":32,"height":32,"visible":true,"rotation":0},{"id":995,"x":1088,"y":768,"width":32,"height":32,"visible":true,"rotation":0},{"id":996,"x":1120,"y":768,"width":32,"height":32,"visible":true,"rotation":0},{"id":997,"x":1152,"y":768,"width":32,"height":32,"visible":true,"rotation":0},{"id":998,"x":1184,"y":768,"width":32,"height":32,"visible":true,"rotation":0},{"id":999,"x":1216,"y":768,"width":32,"height":32,"visible":true,"rotation":0},{"id":1000,"x":1248,"y":768,"width":32,"height":32,"visible":true,"rotation":0},{"id":1001,"x":0,"y":800,"width":32,"height":32,"visible":true,"rotation":0},{"id":1002,"x":32,"y":800,"width":32,"height":32,"visible":true,"rotation":0},{"id":1003,"x":64,"y":800,"width":32,"height":32,"visible":true,"rotation":0},{"id":1004,"x":96,"y":800,"width":32,"height":32,"visible":true,"rotation":0},{"id":1005,"x":128,"y":800,"width":32,"height":32,"visible":true,"rotation":0},{"id":1006,"x":160,"y":800,"width":32,"height":32,"visible":true,"rotation":0},{"id":1007,"x":192,"y":800,"width":32,"height":32,"visible":true,"rotation":0},{"id":1008,"x":224,"y":800,"width":32,"height":32,"visible":true,"rotation":0},{"id":1009,"x":256,"y":800,"width":32,"height":32,"visible":true,"rotation":0},{"id":1010,"x":288,"y":800,"width":32,"height":32,"visible":true,"rotation":0},{"id":1011,"x":320,"y":800,"width":32,"height":32,"visible":true,"rotation":0},{"id":1012,"x":352,"y":800,"width":32,"height":32,"visible":true,"rotation":0},{"id":1013,"x":384,"y":800,"width":32,"height":32,"visible":true,"rotation":0},{"id":1014,"x":416,"y":800,"width":32,"height":32,"visible":true,"rotation":0},{"id":1015,"x":448,"y":800,"width":32,"height":32,"visible":true,"rotation":0},{"id":1016,"x":480,"y":800,"width":32,"height":32,"visible":true,"rotation":0},{"id":1017,"x":512,"y":800,"width":32,"height":32,"visible":true,"rotation":0},{"id":1018,"x":544,"y":800,"width":32,"height":32,"visible":true,"rotation":0},{"id":1019,"x":576,"y":800,"width":32,"height":32,"visible":true,"rotation":0},{"id":1020,"x":608,"y":800,"width":32,"height":32,"visible":true,"rotation":0},{"id":1021,"x":640,"y":800,"width":32,"height":32,"visible":true,"rotation":0},{"id":1022,"x":672,"y":800,"width":32,"height":32,"visible":true,"rotation":0},{"id":1023,"x":704,"y":800,"width":32,"height":32,"visible":true,"rotation":0},{"id":1024,"x":736,"y":800,"width":32,"height":32,"visible":true,"rotation":0},{"id":1025,"x":768,"y":800,"width":32,"height":32,"visible":true,"rotation":0},{"id":1026,"x":800,"y":800,"width":32,"height":32,"visible":true,"rotation":0},{"id":1027,"x":832,"y":800,"width":32,"height":32,"visible":true,"rotation":0},{"id":1028,"x":864,"y":800,"width":32,"height":32,"visible":true,"rotation":0},{"id":1029,"x":896,"y":800,"width":32,"height":32,"visible":true,"rotation":0},{"id":1030,"x":928,"y":800,"width":32,"height":32,"visible":true,"rotation":0},{"id":1031,"x":960,"y":800,"width":32,"height":32,"visible":true,"rotation":0},{"id":1032,"x":992,"y":800,"width":32,"height":32,"visible":true,"rotation":0},{"id":1033,"x":1024,"y":800,"width":32,"height":32,"visible":true,"rotation":0},{"id":1034,"x":1056,"y":800,"width":32,"height":32,"visible":true,"rotation":0},{"id":1035,"x":1088,"y":800,"width":32,"height":32,"visible":true,"rotation":0},{"id":1036,"x":1120,"y":800,"width":32,"height":32,"visible":true,"rotation":0},{"id":1037,"x":1152,"y":800,"width":32,"height":32,"visible":true,"rotation":0},{"id":1038,"x":1184,"y":800,"width":32,"height":32,"visible":true,"rotation":0},{"id":1039,"x":1216,"y":800,"width":32,"height":32,"visible":true,"rotation":0},{"id":1040,"x":1248,"y":800,"width":32,"height":32,"visible":true,"rotation":0},{"id":1041,"x":0,"y":832,"width":32,"height":32,"visible":true,"rotation":0},{"id":1044,"x":96,"y":832,"width":32,"height":32,"visible":true,"rotation":0},{"id":1045,"x":128,"y":832,"width":32,"height":32,"visible":true,"rotation":0},{"id":1046,"x":160,"y":832,"width":32,"height":32,"visible":true,"rotation":0},{"id":1050,"x":288,"y":832,"width":32,"height":32,"visible":true,"rotation":0},{"id":1051,"x":320,"y":832,"width":32,"height":32,"visible":true,"rotation":0},{"id":1054,"x":416,"y":832,"width":32,"height":32,"visible":true,"rotation":0},{"id":1055,"x":448,"y":832,"width":32,"height":32,"visible":true,"rotation":0},{"id":1056,"x":480,"y":832,"width":32,"height":32,"visible":true,"rotation":0},{"id":1059,"x":576,"y":832,"width":32,"height":32,"visible":true,"rotation":0},{"id":1060,"x":608,"y":832,"width":32,"height":32,"visible":true,"rotation":0},{"id":1061,"x":640,"y":832,"width":32,"height":32,"visible":true,"rotation":0},{"id":1065,"x":768,"y":832,"width":32,"height":32,"visible":true,"rotation":0},{"id":1066,"x":800,"y":832,"width":32,"height":32,"visible":true,"rotation":0},{"id":1069,"x":896,"y":832,"width":32,"height":32,"visible":true,"rotation":0},{"id":1070,"x":928,"y":832,"width":32,"height":32,"visible":true,"rotation":0},{"id":1071,"x":960,"y":832,"width":32,"height":32,"visible":true,"rotation":0},{"id":1075,"x":1088,"y":832,"width":32,"height":32,"visible":true,"rotation":0},{"id":1076,"x":1120,"y":832,"width":32,"height":32,"visible":true,"rotation":0},{"id":1077,"x":1152,"y":832,"width":32,"height":32,"visible":true,"rotation":0},{"id":1078,"x":1184,"y":832,"width":32,"height":32,"visible":true,"rotation":0},{"id":1079,"x":1216,"y":832,"width":32,"height":32,"visible":true,"rotation":0},{"id":1080,"x":1248,"y":832,"width":32,"height":32,"visible":true,"rotation":0},{"id":1081,"x":0,"y":864,"width":32,"height":32,"visible":true,"rotation":0},{"id":1085,"x":128,"y":864,"width":32,"height":32,"visible":true,"rotation":0},{"id":1086,"x":160,"y":864,"width":32,"height":32,"visible":true,"rotation":0},{"id":1090,"x":288,"y":864,"width":32,"height":32,"visible":true,"rotation":0},{"id":1091,"x":320,"y":864,"width":32,"height":32,"visible":true,"rotation":0},{"id":1094,"x":416,"y":864,"width":32,"height":32,"visible":true,"rotation":0},{"id":1095,"x":448,"y":864,"width":32,"height":32,"visible":true,"rotation":0},{"id":1096,"x":480,"y":864,"width":32,"height":32,"visible":true,"rotation":0},{"id":1100,"x":608,"y":864,"width":32,"height":32,"visible":true,"rotation":0},{"id":1101,"x":640,"y":864,"width":32,"height":32,"visible":true,"rotation":0},{"id":1105,"x":768,"y":864,"width":32,"height":32,"visible":true,"rotation":0},{"id":1106,"x":800,"y":864,"width":32,"height":32,"visible":true,"rotation":0},{"id":1110,"x":928,"y":864,"width":32,"height":32,"visible":true,"rotation":0},{"id":1111,"x":960,"y":864,"width":32,"height":32,"visible":true,"rotation":0},{"id":1115,"x":1088,"y":864,"width":32,"height":32,"visible":true,"rotation":0},{"id":1116,"x":1120,"y":864,"width":32,"height":32,"visible":true,"rotation":0},{"id":1117,"x":1152,"y":864,"width":32,"height":32,"visible":true,"rotation":0},{"id":1118,"x":1184,"y":864,"width":32,"height":32,"visible":true,"rotation":0},{"id":1119,"x":1216,"y":864,"width":32,"height":32,"visible":true,"rotation":0},{"id":1120,"x":1248,"y":864,"width":32,"height":32,"visible":true,"rotation":0},{"id":1121,"x":0,"y":896,"width":32,"height":32,"visible":true,"rotation":0},{"id":1122,"x":32,"y":896,"width":32,"height":32,"visible":true,"rotation":0},{"id":1125,"x":128,"y":896,"width":32,"height":32,"visible":true,"rotation":0},{"id":1126,"x":160,"y":896,"width":32,"height":32,"visible":true,"rotation":0},{"id":1127,"x":192,"y":896,"width":32,"height":32,"visible":true,"rotation":0},{"id":1130,"x":288,"y":896,"width":32,"height":32,"visible":true,"rotation":0},{"id":1131,"x":320,"y":896,"width":32,"height":32,"visible":true,"rotation":0},{"id":1134,"x":416,"y":896,"width":32,"height":32,"visible":true,"rotation":0},{"id":1135,"x":448,"y":896,"width":32,"height":32,"visible":true,"rotation":0},{"id":1136,"x":480,"y":896,"width":32,"height":32,"visible":true,"rotation":0},{"id":1139,"x":576,"y":896,"width":32,"height":32,"visible":true,"rotation":0},{"id":1140,"x":608,"y":896,"width":32,"height":32,"visible":true,"rotation":0},{"id":1141,"x":640,"y":896,"width":32,"height":32,"visible":true,"rotation":0},{"id":1144,"x":736,"y":896,"width":32,"height":32,"visible":true,"rotation":0},{"id":1145,"x":768,"y":896,"width":32,"height":32,"visible":true,"rotation":0},{"id":1146,"x":800,"y":896,"width":32,"height":32,"visible":true,"rotation":0},{"id":1150,"x":928,"y":896,"width":32,"height":32,"visible":true,"rotation":0},{"id":1151,"x":960,"y":896,"width":32,"height":32,"visible":true,"rotation":0},{"id":1155,"x":1088,"y":896,"width":32,"height":32,"visible":true,"rotation":0},{"id":1156,"x":1120,"y":896,"width":32,"height":32,"visible":true,"rotation":0},{"id":1157,"x":1152,"y":896,"width":32,"height":32,"visible":true,"rotation":0},{"id":1158,"x":1184,"y":896,"width":32,"height":32,"visible":true,"rotation":0},{"id":1159,"x":1216,"y":896,"width":32,"height":32,"visible":true,"rotation":0},{"id":1160,"x":1248,"y":896,"width":32,"height":32,"visible":true,"rotation":0},{"id":1161,"x":0,"y":928,"width":32,"height":32,"visible":true,"rotation":0},{"id":1162,"x":32,"y":928,"width":32,"height":32,"visible":true,"rotation":0},{"id":1163,"x":64,"y":928,"width":32,"height":32,"visible":true,"rotation":0},{"id":1164,"x":96,"y":928,"width":32,"height":32,"visible":true,"rotation":0},{"id":1165,"x":128,"y":928,"width":32,"height":32,"visible":true,"rotation":0},{"id":1166,"x":160,"y":928,"width":32,"height":32,"visible":true,"rotation":0},{"id":1167,"x":192,"y":928,"width":32,"height":32,"visible":true,"rotation":0},{"id":1168,"x":224,"y":928,"width":32,"height":32,"visible":true,"rotation":0},{"id":1169,"x":256,"y":928,"width":32,"height":32,"visible":true,"rotation":0},{"id":1170,"x":288,"y":928,"width":32,"height":32,"visible":true,"rotation":0},{"id":1171,"x":320,"y":928,"width":32,"height":32,"visible":true,"rotation":0},{"id":1172,"x":352,"y":928,"width":32,"height":32,"visible":true,"rotation":0},{"id":1173,"x":384,"y":928,"width":32,"height":32,"visible":true,"rotation":0},{"id":1174,"x":416,"y":928,"width":32,"height":32,"visible":true,"rotation":0},{"id":1175,"x":448,"y":928,"width":32,"height":32,"visible":true,"rotation":0},{"id":1176,"x":480,"y":928,"width":32,"height":32,"visible":true,"rotation":0},{"id":1177,"x":512,"y":928,"width":32,"height":32,"visible":true,"rotation":0},{"id":1178,"x":544,"y":928,"width":32,"height":32,"visible":true,"rotation":0},{"id":1179,"x":576,"y":928,"width":32,"height":32,"visible":true,"rotation":0},{"id":1180,"x":608,"y":928,"width":32,"height":32,"visible":true,"rotation":0},{"id":1181,"x":640,"y":928,"width":32,"height":32,"visible":true,"rotation":0},{"id":1182,"x":672,"y":928,"width":32,"height":32,"visible":true,"rotation":0},{"id":1183,"x":704,"y":928,"width":32,"height":32,"visible":true,"rotation":0},{"id":1184,"x":736,"y":928,"width":32,"height":32,"visible":true,"rotation":0},{"id":1185,"x":768,"y":928,"width":32,"height":32,"visible":true,"rotation":0},{"id":1186,"x":800,"y":928,"width":32,"height":32,"visible":true,"rotation":0},{"id":1187,"x":832,"y":928,"width":32,"height":32,"visible":true,"rotation":0},{"id":1188,"x":864,"y":928,"width":32,"height":32,"visible":true,"rotation":0},{"id":1189,"x":896,"y":928,"width":32,"height":32,"visible":true,"rotation":0},{"id":1190,"x":928,"y":928,"width":32,"height":32,"visible":true,"rotation":0},{"id":1191,"x":960,"y":928,"width":32,"height":32,"visible":true,"rotation":0},{"id":1192,"x":992,"y":928,"width":32,"height":32,"visible":true,"rotation":0},{"id":1193,"x":1024,"y":928,"width":32,"height":32,"visible":true,"rotation":0},{"id":1194,"x":1056,"y":928,"width":32,"height":32,"visible":true,"rotation":0},{"id":1195,"x":1088,"y":928,"width":32,"height":32,"visible":true,"rotation":0},{"id":1196,"x":1120,"y":928,"width":32,"height":32,"visible":true,"rotation":0},{"id":1197,"x":1152,"y":928,"width":32,"height":32,"visible":true,"rotation":0},{"id":1198,"x":1184,"y":928,"width":32,"height":32,"visible":true,"rotation":0},{"id":1199,"x":1216,"y":928,"width":32,"height":32,"visible":true,"rotation":0},{"id":1200,"x":1248,"y":928,"width":32,"height":32,"visible":true,"rotation":0}]}]}