{"type":"map","version":"1.10","orientation":"orthogonal","renderorder":"right-down","width":46,"height":42,"tilewidth":32,"tileheight":32,"infinite":false,"tilesets":[{"firstgid":1,"source":"stone.tsj"},{"firstgid":187,"source":"props.tsj"}],"layers":[{"type":"tilelayer","id":1,"name":"ground","width":46,"height":42,"opacity":1,"visible":true,"x":0,"y":0,"data":[0,0,0,0,0,0,0,0,0,0,0,0,0,0,0,0,0,0,0,0,0,0,0,0,0,0,0,0,0,0,0,0,0,0,0,0,0,0,0,0,0,0,0,0,0,0,0,0,0,0,0,0,0,0,0,0,0,0,0,0,0,0,0,0,0,0,0,0,0,0,0,0,0,0,0,0,0,0,0,0,0,0,0,0,0,0,0,0,0,0,0,0,0,0,0,0,0,0,0,0,0,0,0,0,0,0,0,0,0,18,19,20,21,22,0,0,0,0,0,0,0,0,0,0,0,0,0,0,0,0,0,0,0,0,0,0,0,0,0,0,0,0,0,0,0,0,0,0,0,0,0,0,0,0,0,26,27,28,29,30,0,0,0,0,0,0,0,0,0,0,0,26,27,28,29,30,31,32,25,26,27,0,0,0,0,0,3,4,5,6,7,8,0,0,0,0,0,0,0,0,0,2,3,4,5,6,0,0,0,0,0,0,0,0,0,0,0,2,3,4,5,6,7,8,1,2,3,0,0,0,0,0,11,12,13,14,15,16,9,10,11,12,13,14,15,16,9,10,11,12,13,14,0,0,0,0,0,0,0,0,0,0,0,10,11,12,13,14,15,16,9,10,11,0,0,0,0,0,19,20,21,22,23,24,17,18,19,20,21,22,23,24,17,18,19,20,21,22,0,0,0,0,0,0,0,0,0,0,0,18,19,20,21,22,23,24,17,18,19,0,0,0,0,0,27,28,29,30,31,32,0,0,0,0,0,0,31,32,0,26,27,28,29,30,31,32,25,26,27,28,29,30,31,32,25,26,27,28,29,30,31,32,25,26,27,0,0,0,0,0,3,4,5,6,7,8,0,0,0,0,0,0,7,8,0,0,0,0,5,6,7,8,1,2,3,4,5,6,7,8,1,2,3,4,5,6,7,8,1,2,3,0,0,0,0,0,11,12,13,14,15,16,0,0,0,0,0,0,15,16,0,0,0,0,13,14,0,0,0,0,0,0,0,0,0,0,0,10,11,12,13,14,15,16,9,10,11,0,0,0,0,0,19,20,21,22,23,24,0,0,0,0,0,0,23,24,0,0,0,0,21,22,0,0,0,0,0,0,0,0,0,0,0,18,19,20,21,22,23,24,17,18,19,0,0,0,0,0,27,28,29,30,31,32,0,0,0,0,0,0,31,32,0,0,0,0,29,30,0,0,0,0,0,0,0,0,0,0,0,0,27,28,0,0,0,0,0,0,0,0,0,0,0,0,3,4,5,6,7,8,0,0,0,0,0,0,7,8,0,0,0,0,5,6,0,0,0,0,0,0,0,0,0,0,0,0,3,4,0,0,0,0,0,0,0,0,0,0,0,0,0,0,13,14,0,0,0,0,0,0,0,0,15,16,0,0,0,0,13,14,0,0,0,0,0,0,0,0,0,0,0,0,11,12,0,0,0,0,0,0,0,0,0,0,0,0,0,0,21,22,0,0,0,0,0,0,0,0,23,24,0,0,0,0,21,22,0,0,0,0,0,0,0,0,0,0,0,0,19,20,0,0,0,0,0,0,0,0,0,0,0,0,0,0,29,30,0,0,0,0,0,0,0,0,31,32,0,0,0,0,29,30,0,0,0,0,0,28,29,30,31,32,25,26,27,28,29,30,31,32,25,26,0,0,0,0,0,2,3,4,5,6,7,0,0,0,0,0,5,6,7,8,1,0,0,0,5,6,0,0,0,0,0,4,5,6,7,8,1,2,3,4,5,6,7,8,1,2,0,0,0,0,0,10,11,12,13,14,15,0,0,0,0,0,13,14,15,16,9,0,0,0,13,14,0,0,0,0,0,12,13,14,15,16,9,10,11,12,13,14,15,16,9,10,0,0,0,0,0,18,19,20,21,22,23,0,0,0,0,0,21,22,23,24,17,0,0,0,21,22,0,0,0,0,0,20,21,22,23,24,17,18,19,20,21,22,23,24,17,18,0,0,0,0,0,26,27,28,29,30,31,32,25,26,27,28,29,30,31,32,25,26,27,28,29,30,31,32,25,26,27,28,29,30,31,32,25,26,27,28,29,30,31,32,25,26,0,0,0,0,0,2,3,4,5,6,7,8,1,2,3,4,5,6,7,8,1,2,3,4,5,6,7,8,1,2,3,4,5,6,7,8,1,2,3,4,5,6,7,8,1,2,0,0,0,0,0,0,0,0,13,14,0,0,0,0,0,0,13,14,15,16,9,0,0,0,13,14,0,0,0,0,0,12,13,14,15,16,9,10,11,12,13,14,15,16,9,10,0,0,0,0,0,0,0,0,21,22,0,0,0,0,0,0,21,22,23,24,17,0,0,0,21,22,0,0,0,0,0,20,21,22,23,24,17,18,19,20,21,22,23,24,17,18,0,0,0,0,0,0,0,0,29,30,0,0,0,0,0,0,0,0,0,0,0,0,0,0,29,30,0,0,0,0,0,0,0,0,0,0,0,0,0,0,0,0,0,0,0,0,0,0,0,0,0,0,0,0,5,6,0,0,0,0,0,0,0,0,0,0,0,0,0,0,5,6,0,0,0,0,0,0,0,0,0,0,0,0,0,0,0,0,0,0,0,0,0,0,0,0,0,0,0,0,13,14,0,0,0,0,0,0,0,0,0,0,0,0,0,0,13,14,0,0,0,0,0,0,0,0,0,0,0,0,0,0,0,0,0,0,0,0,0,0,0,0,0,0,0,0,21,22,23,24,17,18,19,20,21,0,0,0,0,18,19,20,21,22,23,24,0,0,0,0,0,0,0,0,0,0,0,0,0,0,0,0,0,0,0,0,0,0,0,0,0,0,29,30,31,32,25,26,27,28,29,0,0,0,0,26,27,28,29,30,31,32,0,0,0,0,0,0,0,0,0,0,0,0,0,0,0,0,0,0,0,0,0,0,0,0,0,0,5,6,7,8,1,2,3,4,5,0,0,0,0,2,3,4,5,6,7,8,0,0,0,0,0,0,0,0,0,0,0,0,0,0,0,0,0,0,0,0,0,0,0,0,0,0,13,14,15,16,9,10,11,12,13,14,15,16,9,10,11,12,13,14,15,16,9,10,11,12,13,14,15,16,9,10,11,12,0,0,0,0,0,0,0,0,0,0,0,0,0,0,21,22,23,24,17,18,19,20,21,22,23,24,17,18,19,20,21,22,23,24,17,18,19,20,21,22,23,24,17,18,19,20,21,22,23,24,17,0,0,0,0,0,0,0,0,0,29,30,31,32,25,26,27,28,29,0,0,0,0,26,27,28,29,30,31,32,0,0,0,0,29,30,31,32,25,26,27,28,29,30,31,32,25,0,0,0,0,0,0,0,0,0,5,6,7,8,1,2,3,4,5,0,0,0,0,2,3,4,5,6,7,8,0,0,0,0,5,6,7,8,1,2,3,4,5,6,7,8,1,0,0,0,0,0,0,0,0,0,13,14,0,0,0,0,0,0,0,0,0,0,0,0,0,0,0,0,0,0,0,0,0,0,13,14,15,16,9,10,11,12,13,14,15,16,9,0,0,0,0,0,0,0,0,0,21,22,23,24,17,18,19,20,21,22,23,24,17,18,19,20,21,22,23,24,17,18,19,20,21,22,23,24,17,18,186,20,21,22,23,24,17,0,0,0,0,0,0,0,0,0,29,30,31,32,25,26,27,28,29,30,31,32,25,26,27,28,29,30,31,32,25,26,27,28,29,30,31,32,25,26,27,28,29,30,31,32,25,0,0,0,0,0,0,0,0,0,0,0,0,0,0,0,0,0,0,0,0,0,0,0,0,0,0,0,0,0,0,0,0,0,5,6,7,8,1,2,3,4,5,6,7,8,1,0,0,0,0,0,0,0,0,0,0,0,0,0,0,0,0,0,0,0,0,0,0,0,0,0,0,0,0,0,0,0,0,0,13,14,15,16,9,10,11,12,13,14,15,16,9,0,0,0,0,0,0,0,0,0,0,0,0,0,0,0,0,0,0,0,0,0,0,0,0,0,0,0,0,0,0,0,0,0,21,22,23,24,17,18,19,20,21,22,23,24,17,0,0,0,0,0,0,0,0,0,0,0,0,0,0,0,0,0,0,0,0,0,0,0,0,0,0,0,0,0,0,0,0,0,0,0,0,0,0,0,0,0,0,0,0,0,0,0,0,0,0,0,0,0,0,0,0,0,0,0,0,0,0,0,0,0,0,0,0,0,0,0,0,0,0,0,0,0,0,0,0,0,0,0,0,0,0,0,0,0,0,0,0,0,0,0,0,0,0,0,0,0,0,0,0,0,0,0,0,0,0,0,0,0,0,0,0,0,0,0,0,0,0,0,0,0,0,0,0,0,0,0,0,0,0,0,0,0,0,0,0,0,0,0]},{"type":"tilelayer","id":2,"name":"walls","width":46,"height":42,"opacity":1,"visible":true,"x":0,"y":0,"data":[79,79,79,79,79,79,79,79,79,79,79,79,79,79,79,79,79,79,79,79,79,79,79,79,79,79,79,79,79,79,79,79,79,79,79,79,79,79,79,79,79,79,79,79,79,79,79,79,79,79,79,79,79,79,79,79,79,79,79,79,79,79,77,86,88,88,86,71,74,79,79,79,79,79,79,79,79,79,79,79,79,79,79,79,79,79,79,79,79,79,79,79,79,79,79,79,79,79,79,79,79,79,79,79,79,79,79,79,90,0,0,0,0,0,81,79,79,79,79,79,79,79,79,79,77,71,88,86,86,71,87,88,86,87,88,74,79,79,79,77,87,71,86,71,88,71,74,79,79,79,79,79,79,79,75,0,0,0,0,0,82,79,79,79,79,79,79,79,79,79,89,0,0,0,0,0,0,0,0,0,0,82,79,79,79,75,0,0,0,0,0,0,49,87,86,87,86,71,88,88,67,0,0,0,0,0,80,79,79,79,79,79,79,79,79,79,75,0,0,0,0,0,0,0,0,0,0,81,79,79,79,91,0,0,0,0,0,0,0,0,0,0,0,0,0,0,0,0,0,0,0,0,81,79,79,79,79,79,79,79,79,79,90,0,0,0,0,0,0,0,0,0,0,57,79,79,79,90,0,0,0,0,0,0,0,0,0,0,0,0,0,0,0,0,0,0,0,0,49,87,86,87,87,71,88,86,87,87,67,0,0,0,0,0,0,0,0,0,0,81,79,79,79,75,0,0,0,0,0,0,53,64,85,64,83,59,0,0,37,0,0,0,0,0,0,0,0,0,0,0,0,0,0,0,0,0,0,0,0,0,0,0,0,0,0,82,79,79,79,75,0,0,0,0,0,0,57,79,79,79,79,75,0,0,54,83,85,59,0,0,0,0,0,0,0,0,0,0,0,0,0,0,0,0,0,0,0,0,0,0,0,82,79,79,79,91,0,0,0,0,0,0,82,79,79,79,79,90,0,0,80,79,79,89,0,0,53,64,85,83,84,64,85,64,64,64,59,0,0,0,0,0,0,0,0,0,0,80,79,79,79,91,0,0,0,0,0,0,57,79,79,79,79,89,0,0,57,79,79,89,0,0,80,79,79,79,79,79,79,79,79,79,89,0,0,0,0,0,0,0,0,0,0,82,79,79,79,89,0,0,0,0,0,0,57,79,79,79,79,91,0,0,81,79,79,75,0,0,80,79,79,79,79,79,79,79,79,79,78,59,0,0,53,85,84,85,83,85,85,66,79,79,79,91,0,0,0,0,0,0,57,79,79,79,79,89,0,0,82,79,79,75,0,0,81,79,79,79,79,79,79,79,79,79,79,90,0,0,80,79,79,79,79,79,79,79,79,79,79,78,84,59,0,0,53,83,66,79,79,79,79,75,0,0,80,79,79,89,0,0,81,79,79,79,79,79,79,79,79,79,79,89,0,0,57,79,79,79,79,79,79,79,79,79,79,79,79,90,0,0,81,79,79,79,79,79,79,90,0,0,81,79,79,75,0,0,57,79,79,79,77,88,87,71,86,71,87,67,0,0,49,88,88,86,87,87,74,79,79,79,77,86,88,67,0,0,49,74,79,79,79,77,71,67,0,0,49,74,79,75,0,0,82,79,79,79,91,0,0,0,0,0,0,0,0,0,0,0,0,0,0,0,80,79,79,79,75,0,0,0,0,0,0,82,79,79,79,75,0,0,0,0,0,81,79,89,0,0,80,79,79,79,90,0,0,0,0,0,0,0,0,0,0,0,0,0,0,0,57,79,79,79,91,0,0,0,0,0,0,82,79,79,79,75,0,0,0,0,0,81,79,90,0,0,57,79,79,79,75,0,0,0,0,0,0,0,0,0,0,0,0,0,0,0,82,79,79,79,90,0,0,0,0,0,0,49,87,71,88,67,0,0,0,0,0,49,87,67,0,0,49,71,71,88,67,0,0,0,0,0,0,0,0,0,0,0,0,0,0,0,57,79,79,79,91,0,0,0,0,0,0,0,0,0,0,0,0,0,0,0,0,0,0,0,0,0,0,0,0,0,0,0,0,0,0,0,0,0,0,0,0,0,0,0,0,0,81,79,79,79,91,0,0,0,0,0,0,0,0,0,0,0,0,0,0,0,0,0,0,0,0,0,0,0,0,0,0,0,0,0,0,0,0,0,0,0,0,0,0,0,0,0,82,79,79,79,78,64,84,59,0,0,53,64,83,84,84,59,0,0,0,0,0,53,83,59,0,0,53,64,85,85,59,0,0,0,0,0,0,0,0,0,0,0,0,0,0,0,80,79,79,79,79,79,79,89,0,0,57,79,79,79,79,90,0,0,0,0,0,81,79,75,0,0,57,79,79,79,91,0,0,0,0,0,0,0,0,0,0,0,0,0,0,0,80,79,79,79,79,79,79,91,0,0,80,79,79,79,79,78,84,84,83,84,85,66,79,89,0,0,57,79,79,79,78,84,85,83,83,85,85,83,84,83,83,64,64,85,64,64,66,79,79,79,79,79,79,75,0,0,80,79,79,79,79,79,79,79,79,79,79,79,79,75,0,0,81,79,79,79,79,79,79,79,79,79,79,79,79,79,79,79,79,79,79,79,79,79,79,79,79,79,79,89,0,0,49,86,71,88,87,88,71,74,79,79,77,87,71,67,0,0,49,71,74,79,79,79,79,79,79,79,79,79,79,79,79,79,79,79,79,79,79,79,79,79,79,79,79,91,0,0,0,0,0,0,0,0,0,82,79,79,75,0,0,0,0,0,0,0,80,79,79,79,79,79,79,79,79,79,79,79,79,79,79,79,79,79,79,79,79,79,79,79,79,91,0,0,0,0,0,0,0,0,0,82,79,79,90,0,0,0,0,0,0,0,82,79,79,79,79,79,79,79,79,79,79,79,79,79,79,79,79,79,79,79,79,79,79,79,79,91,0,0,0,0,0,0,0,0,0,49,71,71,67,0,0,0,0,0,0,0,49,88,87,71,86,86,88,87,87,71,86,88,74,79,79,79,79,79,79,79,79,79,79,79,79,90,0,0,0,0,0,0,0,0,0,0,0,0,0,0,0,0,0,0,0,0,0,0,0,0,0,0,0,0,0,0,0,0,49,87,71,88,71,74,79,79,79,79,79,79,79,75,0,0,0,0,0,0,0,0,0,0,0,0,0,0,0,0,0,0,0,0,0,0,0,0,0,0,0,0,0,0,0,0,0,0,0,0,0,82,79,79,79,79,79,79,79,75,0,0,0,0,0,0,0,0,0,53,83,83,59,0,0,0,0,0,0,0,53,85,64,59,0,0,0,0,0,0,0,0,0,0,0,0,0,82,79,79,79,79,79,79,79,90,0,0,0,0,0,0,0,0,0,80,79,79,89,0,0,0,0,0,0,0,57,79,79,75,0,0,0,0,0,0,0,0,0,0,0,0,0,81,79,79,79,79,79,79,79,75,0,0,35,43,43,43,43,43,43,51,87,71,68,43,43,43,43,43,43,43,51,88,86,67,0,0,0,0,0,0,0,0,0,0,0,0,0,81,79,79,79,79,79,79,79,91,0,0,0,0,0,0,0,0,0,0,0,0,0,0,0,0,0,0,0,0,0,0,0,0,0,0,0,0,0,0,0,0,0,0,0,0,0,80,79,79,79,79,79,79,79,91,0,0,0,0,0,0,0,0,0,0,0,0,0,0,0,0,0,0,0,0,0,0,0,0,0,0,0,0,0,0,0,0,0,0,0,0,0,57,79,79,79,79,79,79,79,78,64,64,84,85,64,84,84,84,84,85,64,84,83,84,64,84,85,84,64,85,64,84,85,59,0,0,0,0,0,0,0,0,0,0,0,0,0,81,79,79,79,79,79,79,79,79,79,79,79,79,79,79,79,79,79,79,79,79,79,79,79,79,79,79,79,79,79,79,79,75,0,0,0,0,0,0,0,0,0,0,0,0,0,57,79,79,79,79,79,79,79,79,79,79,79,79,79,79,79,79,79,79,79,79,79,79,79,79,79,79,79,79,79,79,79,89,0,0,0,0,0,0,0,0,0,0,0,0,0,82,79,79,79,79,79,79,79,79,79,79,79,79,79,79,79,79,79,79,79,79,79,79,79,79,79,79,79,79,79,79,79,78,84,64,83,83,85,84,85,83,85,85,83,83,83,66,79,79,79,79,79,79,79,79,79,79,79,79,79,79,79,79,79,79,79,79,79,79,79,79,79,79,79,79,79,79,79,79,79,79,79,79,79,79,79,79,79,79,79,79,79,79,79,79,79,79,79,79,79,79,79,79,79,79,79,79,79,79,79,79,79,79,79,79,79,79,79,79,79,79,79,79,79,79,79,79,79,79,79,79,79,79,79,79,79,79,79,79,79,79,79,79]},{"type":"tilelayer","id":3,"name":"overlay","width":46,"height":42,"opacity":1,"visible":true,"x":0,"y":0,"data":[0,0,0,0,0,0,0,0,0,0,0,0,0,0,0,0,0,0,0,0,0,0,0,0,0,0,0,0,0,0,0,0,0,0,0,0,0,0,0,0,0,0,0,0,0,0,0,0,0,0,0,0,0,0,0,0,0,0,0,0,0,0,0,0,0,0,0,0,0,0,0,0,0,0,0,0,0,0,0,0,0,0,0,0,0,0,0,0,0,0,0,0,0,0,0,0,0,0,0,0,0,0,0,0,0,0,0,0,0,0,94,100,0,0,0,0,0,0,0,0,0,0,0,0,0,0,0,0,0,0,0,0,0,0,0,0,0,0,0,0,0,0,0,0,0,0,0,0,0,0,0,0,0,0,0,0,0,0,0,0,0,0,0,0,0,0,0,0,0,0,0,0,0,0,0,0,0,0,0,0,92,0,0,0,0,0,0,0,94,100,0,0,0,0,0,0,0,0,0,0,0,92,0,0,0,0,0,0,0,0,0,0,0,0,0,0,0,96,0,0,0,0,0,0,0,0,0,0,0,0,0,0,0,0,0,0,0,0,0,0,0,0,0,0,0,0,92,0,0,0,0,0,0,0,0,0,0,0,0,0,0,0,0,93,0,0,0,0,0,0,0,0,0,0,0,0,0,0,0,0,0,0,0,0,0,0,0,0,0,0,0,0,0,0,0,0,0,0,0,0,0,0,0,0,0,0,0,0,0,0,0,0,0,0,0,0,0,0,0,0,0,0,0,0,0,0,0,0,0,0,0,0,0,0,0,0,0,0,0,0,0,0,0,0,94,100,0,0,0,0,0,0,0,0,0,0,0,0,0,0,0,0,0,0,0,0,0,0,0,0,0,0,0,0,0,96,0,0,0,0,0,0,112,118,0,0,0,0,0,0,0,0,0,0,0,0,0,0,0,0,0,0,0,0,0,0,0,0,0,0,0,0,0,0,0,0,0,0,0,0,0,93,0,0,0,0,0,0,116,134,0,0,0,0,0,0,0,0,0,0,0,0,0,0,0,0,0,92,0,0,0,0,0,0,0,0,0,0,0,0,0,0,0,0,0,0,0,0,0,0,0,0,0,0,116,134,0,0,0,0,112,118,0,0,0,0,0,0,0,0,0,0,0,0,0,0,0,0,0,0,0,0,92,0,0,0,0,0,0,0,0,0,0,0,0,0,0,0,0,0,116,134,0,0,0,0,108,126,0,0,0,0,0,0,0,0,0,0,0,0,94,100,0,0,0,0,0,0,0,0,0,0,0,0,0,0,0,0,0,0,0,0,0,0,0,0,116,134,0,0,0,0,0,0,0,0,0,0,0,0,0,0,0,0,0,0,0,0,0,0,0,0,0,0,0,0,0,0,0,0,0,0,0,0,0,0,0,0,0,0,0,0,108,126,0,0,0,0,0,0,0,0,0,0,0,0,0,0,0,0,0,0,0,0,0,0,0,0,0,0,0,0,0,0,0,0,0,0,112,118,0,0,0,0,0,0,0,0,0,0,0,0,0,0,0,0,0,0,0,0,0,0,0,0,0,0,0,0,94,100,0,0,0,0,0,0,0,0,0,0,0,0,0,0,108,126,0,0,0,0,0,0,0,0,0,0,0,0,0,0,0,0,0,0,0,0,0,0,94,102,102,100,0,0,0,0,0,0,94,100,0,0,0,0,0,0,0,0,0,0,0,0,0,0,0,0,0,0,98,100,0,0,0,0,0,0,0,0,0,0,0,0,0,0,0,0,0,0,0,0,0,0,0,0,0,0,0,0,0,0,0,0,0,0,0,0,0,0,0,0,0,0,0,0,97,0,0,0,0,0,0,0,0,0,0,0,0,0,0,0,0,0,0,0,0,0,0,0,0,0,0,0,0,0,0,0,0,0,0,0,0,0,0,0,0,0,0,0,0,0,93,0,0,0,0,0,0,0,0,0,0,0,0,0,0,92,0,0,0,0,0,0,0,0,0,0,0,0,0,0,0,0,0,0,0,0,0,0,0,0,0,0,94,102,102,100,0,0,0,0,0,0,0,0,0,0,0,0,0,0,92,0,0,0,0,0,0,0,0,0,0,0,0,0,0,0,0,0,0,0,0,0,0,0,0,0,0,0,0,0,0,0,0,0,0,0,0,0,0,0,0,0,0,0,0,0,0,0,0,0,0,0,0,0,0,0,0,0,0,0,0,0,0,0,0,0,0,0,0,0,0,0,0,0,0,0,0,0,0,0,0,0,92,0,0,0,0,0,0,0,0,0,0,0,0,0,0,0,0,0,0,0,0,0,0,0,0,0,0,0,0,0,0,0,0,0,0,0,0,0,0,0,0,0,0,0,0,0,0,0,0,0,0,0,0,0,0,0,0,92,0,0,0,0,0,0,0,0,0,0,0,0,0,0,0,0,0,0,0,0,0,0,0,0,0,0,0,0,0,0,0,0,0,0,0,0,0,0,0,0,0,0,0,0,0,0,0,0,0,0,0,0,0,0,0,0,0,0,0,0,0,0,0,0,0,0,0,0,0,0,0,0,0,0,0,0,0,0,0,0,0,0,0,0,0,0,0,0,0,0,0,0,0,0,0,0,0,0,0,0,0,0,0,0,0,0,0,0,0,0,0,0,0,0,0,0,0,0,0,0,0,0,0,0,0,0,0,0,0,0,0,0,0,0,0,0,0,0,0,0,0,0,0,0,0,0,0,0,0,0,0,0,0,0,0,0,0,0,0,0,0,0,0,0,0,0,0,0,0,0,0,0,0,98,102,100,0,0,0,0,0,0,0,0,0,0,0,0,0,0,0,0,0,0,0,0,0,0,0,0,0,0,0,0,0,0,0,0,0,0,0,0,0,0,0,0,0,0,0,93,0,0,0,0,0,0,0,0,0,0,0,0,0,0,0,0,0,0,0,0,0,0,0,0,0,0,0,0,0,0,0,0,0,0,0,0,0,0,0,0,92,0,0,0,0,0,0,0,0,0,0,0,0,0,0,0,0,0,0,0,0,0,0,0,0,0,0,0,0,0,0,0,0,0,0,0,0,0,0,0,0,0,0,0,0,0,0,92,0,0,0,0,0,0,0,0,0,0,94,100,0,0,0,0,0,0,0,0,0,0,0,0,0,0,0,0,0,0,0,0,0,0,0,0,0,0,0,0,0,0,0,0,0,0,0,0,0,0,0,0,0,0,0,0,0,0,0,0,0,0,0,0,0,0,0,0,0,0,0,0,0,0,0,0,0,0,0,0,0,0,0,0,0,0,0,0,0,0,0,0,0,0,0,0,0,0,0,0,0,0,0,0,0,0,0,0,0,0,0,0,0,0,0,0,0,0,0,0,0,0,0,0,0,0,0,0,0,0,0,0,0,0,0,0,92,0,0,0,0,0,0,0,0,0,0,0,0,0,0,0,0,0,0,0,0,0,0,0,0,0,0,0,0,0,0,0,0,0,0,0,0,0,0,0,0,0,0,0,0,0,0,0,0,0,0,0,0,0,0,0,0,0,0,0,0,0,0,0,0,0,0,0,0,0,0,0,0,0,0,0,0,0,0,0,0,0,0,0,0,0,0,0,0,0,0,0,0,0,0,0,0,0,94,100,0,0,0,0,0,0,0,0,0,0,0,0,0,0,0,0,0,0,0,0,0,0,0,0,0,0,0,0,0,0,0,0,0,0,0,0,0,0,0,0,0,0,0,0,0,0,0,0,0,0,0,0,0,0,0,0,0,0,0,0,0,0,0,0,0,0,0,0,0,0,0,0,0,0,0,0,0,0,0,0,0,0,0,0,0,0,0,0,0,0,0,0,0,0,0,0,0,0,0,0,96,0,0,0,0,0,0,0,0,0,0,0,0,0,0,0,0,0,0,0,0,0,0,0,0,0,0,0,0,0,0,0,0,0,0,0,0,0,0,0,0,0,0,0,0,0,93,0,0,0,0,0,0,0,0,0,0,0,0,0,0,0,0,0,0,0,0,0,0,0,0,0,0,0,0,0,0,0,0,0,0,0,0,0,0,0,0,0,0,0,0,0,0,0,0,0,0,0,0,0,0,0,0,0,0,0,0,0,0,0,0,0,0,0,0,0,0,0,0,0,0,0,0,0,0,0,0,0,0,0,0,0,0,0,0,0,0,0,0,0,0,0,0,0,0,0,0,0,0,0,0,0,0,0,0,0,0,0,0,0,0,0,0,0,0,0,0,0,0,0,0,0,0,0,0,0,0,0,0,0,0,0,0,0,0,0,0,0,0,0,0,0,0,0,0,0,0,0,0,0,0,0,0,0,0,0,0,0,0,0,0,0,0,0,0,0,0,0,0,0,0,0,0,0,0,0,0,0,0,0,0,0,0,0,0,0,0,0,0,0,0,0,0,0,0,0,0,0]},{"type":"objectgroup","id":4,"name":"props","objects":[{"id":1,"gid":190,"x":608,"y":64,"width":64,"height":64,"rotation":0,"visible":true},{"id":2,"gid":188,"x":1024,"y":96,"width":64,"height":64,"rotation":0,"visible":true},{"id":3,"gid":188,"x":1152,"y":96,"width":64,"height":64,"rotation":0,"visible":true},{"id":4,"gid":189,"x":352,"y":160,"width":64,"height":64,"rotation":0,"visible":true},{"id":5,"gid":189,"x":480,"y":160,"width":64,"height":64,"rotation":0,"visible":true},{"id":6,"gid":187,"x":224,"y":608,"width":64,"height":64,"rotation":0,"visible":true},{"id":7,"gid":190,"x":224,"y":832,"width":64,"height":64,"rotation":0,"visible":true},{"id":8,"gid":187,"x":1152,"y":960,"width":64,"height":64,"rotation":0,"visible":true},{"id":9,"gid":189,"x":1216,"y":960,"width":64,"height":64,"rotation":0,"visible":true},{"id":10,"gid":188,"x":800,"y":1088,"width":64,"height":64,"rotation":0,"visible":true},{"id":11,"gid":189,"x":832,"y":1088,"width":64,"height":64,"rotation":0,"visible":true}]}]}