{"type":"map","version":"1.10","orientation":"orthogonal","renderorder":"right-down","width":34,"height":23,"tilewidth":32,"tileheight":32,"infinite":false,"tilesets":[{"firstgid":1,"source":"stone.tsj"},{"firstgid":187,"source":"props.tsj"}],"layers":[{"type":"tilelayer","id":1,"name":"ground","width":34,"height":23,"opacity":1,"visible":true,"x":0,"y":0,"data":[0,0,0,0,0,0,0,0,0,0,0,0,0,0,0,0,0,0,0,0,0,0,0,0,0,0,0,0,0,0,0,0,0,0,0,0,0,0,0,0,0,0,0,0,0,0,0,0,0,0,0,0,0,0,0,0,0,0,0,0,0,0,0,0,0,0,0,0,0,18,19,20,21,22,0,0,0,18,19,0,0,0,0,0,0,18,19,0,0,22,23,0,0,0,0,20,21,0,0,0,0,0,0,26,27,28,29,30,0,0,0,26,27,0,0,0,0,0,0,26,27,28,29,30,31,0,0,0,0,28,29,0,0,0,0,0,0,2,3,4,5,6,0,0,0,2,3,4,5,6,0,0,0,2,3,4,5,6,7,0,0,2,3,4,5,6,7,0,0,0,0,0,0,0,0,0,0,0,0,10,11,12,13,14,0,0,0,0,0,0,0,0,0,0,0,10,11,12,13,14,15,0,0,0,0,0,0,0,0,0,0,0,0,0,0,0,0,0,0,0,0,0,0,0,0,0,0,0,0,0,0,20,21,0,0,0,0,0,0,0,0,0,0,0,0,0,0,0,0,0,0,0,0,0,0,0,0,0,0,0,0,0,0,0,0,0,0,0,0,0,0,0,0,0,0,0,0,0,0,0,0,0,0,0,0,0,0,0,0,0,0,0,0,0,0,0,0,0,0,0,0,0,0,0,0,0,0,0,0,0,0,0,0,0,0,0,0,0,0,0,0,0,0,0,0,0,0,0,0,0,0,0,0,0,0,0,0,0,0,0,0,0,0,0,0,0,0,0,0,0,0,0,0,0,0,0,0,0,0,0,0,0,0,0,0,0,0,0,0,0,0,0,0,0,0,0,0,0,0,0,0,0,0,0,0,0,0,0,0,0,0,0,0,0,0,0,0,0,0,0,0,0,0,0,0,0,0,0,0,2,3,4,5,6,7,0,0,2,3,4,5,6,7,0,0,2,3,4,5,6,7,0,0,0,0,4,5,0,0,0,0,0,0,10,11,0,0,14,15,0,0,10,11,0,0,0,15,0,0,0,0,0,0,14,15,0,0,0,11,12,13,14,0,0,0,0,0,18,19,0,0,22,23,0,0,18,19,0,0,0,23,0,0,18,19,20,21,22,23,0,0,18,19,20,21,22,23,0,0,0,0,26,27,28,29,30,31,0,0,26,27,28,29,30,31,0,0,0,0,0,0,0,0,0,0,0,27,28,29,30,0,0,0,0,0,0,0,0,0,0,0,0,0,0,0,0,0,0,0,0,0,0,0,0,0,0,0,0,0,0,0,4,5,0,0,0,0,0,0,0,0,0,0,0,0,0,0,0,0,0,0,0,0,0,0,0,0,0,0,0,0,0,0,0,0,0,0,0,0,0,0,0,0,0,0,0,0,0,0,0,0,0,0,0,0,0,0,0,0,0,0,0,0,0,0,0,0,0,0,0,0,0,0,0,0,0,0,0,0,0,0,0,0,0,0,0,0,0,0,0,0,0,0,0,0,0,0,0,0,0,0,0,0,0,0,0,0,0,0,0,0,0,0,0,0,0,0,0,0,0,0,0,0,0,0,0,0,0,0,0,0,0,0,0,0,0,0,0,0,0,0,0,0,0,0,0,0,0,0,0,0,0,0,0,0,0,0,0,0,0,0,0,0,0,0,0,0,0,0,0,0,0,0,0,0,0,0,0,0,0,0,0,0,0,0,0,0,0,0,0,0,0,0,0,0,0,0,0,0,0,0,0,0,0,0,0,0,0,0,0,0,0]},{"type":"tilelayer","id":2,"name":"walls","width":34,"height":23,"opacity":1,"visible":true,"x":0,"y":0,"data":[79,79,79,79,79,79,79,79,79,79,79,79,79,79,79,79,79,79,79,79,79,79,79,79,79,79,79,79,79,79,79,79,79,79,77,88,86,88,87,88,74,79,77,71,88,74,79,79,79,79,77,86,88,74,77,71,87,74,79,79,77,88,88,74,79,79,79,79,89,0,0,0,0,0,80,79,90,0,0,81,79,79,79,79,90,0,0,49,67,0,0,57,79,79,75,0,0,82,79,79,79,79,75,0,0,0,0,0,82,79,89,0,0,49,86,88,74,79,75,0,0,0,0,0,0,82,77,88,67,0,0,49,86,74,79,79,75,0,0,0,0,0,81,79,75,0,0,0,0,0,82,79,90,0,0,0,0,0,0,80,90,0,0,0,0,0,0,81,79,79,78,85,83,85,84,85,66,79,90,0,0,0,0,0,80,79,78,64,64,83,64,64,84,66,75,0,0,0,0,0,0,82,79,79,79,79,79,79,79,79,79,79,78,83,83,85,84,64,66,79,79,79,79,79,79,79,79,79,78,84,59,0,0,53,84,66,79,79,79,79,79,79,79,79,79,79,79,79,79,79,79,79,79,79,79,79,79,79,79,79,79,79,79,79,78,84,85,66,79,79,79,79,79,79,79,79,79,79,79,79,79,79,79,79,79,79,79,79,79,79,79,79,79,79,79,79,79,79,79,79,79,79,79,79,79,79,79,79,79,79,79,79,79,79,79,79,79,79,79,79,79,79,79,79,79,79,79,79,79,79,79,79,79,79,79,79,79,79,79,79,79,79,79,79,79,79,79,79,79,79,79,79,79,79,79,79,79,79,79,79,79,79,79,79,79,79,79,79,79,79,79,79,79,79,77,86,86,86,88,71,86,74,77,86,71,88,88,88,88,74,77,86,71,71,71,88,86,74,79,79,77,71,71,74,79,79,79,79,91,0,0,0,0,0,0,82,75,0,0,0,0,0,0,81,91,0,0,0,0,0,0,81,79,77,67,0,0,49,74,79,79,79,90,0,0,53,59,0,0,80,91,0,0,53,85,59,0,82,76,43,43,43,41,0,0,82,77,67,0,0,0,0,49,74,79,79,89,0,0,49,67,0,0,81,91,0,0,49,88,67,0,80,90,0,0,0,0,0,0,82,89,0,0,0,0,0,0,57,79,79,75,0,0,0,0,0,0,80,75,0,0,0,0,0,0,82,78,84,84,64,83,83,85,66,78,59,0,0,0,0,53,66,79,79,78,84,83,83,83,84,84,66,78,85,64,64,84,84,83,66,79,79,79,79,79,79,79,79,79,78,59,0,0,53,66,79,79,79,79,79,79,79,79,79,79,79,79,79,79,79,79,79,79,79,79,79,79,79,79,79,79,79,79,79,78,83,84,66,79,79,79,79,79,79,79,79,79,79,79,79,79,79,79,79,79,79,79,79,79,79,79,79,79,79,79,79,79,79,79,79,79,79,79,79,79,79,79,79,79,79,79,79,79,79,79,79,79,79,79,79,79,79,79,79,79,79,79,79,79,79,79,79,79,79,79,79,79,79,79,79,79,79,79,79,79,79,79,79,79,79,79,79,79,79,79,79,79,79,79,79,79,79,79,79,79,79,79,79,79,79,79,79,79,79,79,79,79,79,79,79,79,79,79,79,79,79,79,79,79,79,79,79,79,79,79,79,79,79,79,79,79,79,79,79,79,79,79,79,79,79,79,79,79,79,79,79,79,79,79,79,79,79,79,79,79,79,79,79,79,79,79,79,79,79,79,79,79,79,79,79,79,79]},{"type":"tilelayer","id":3,"name":"overlay","width":34,"height":23,"opacity":1,"visible":true,"x":0,"y":0,"data":[0,0,0,0,0,0,0,0,0,0,0,0,0,0,0,0,0,0,0,0,0,0,0,0,0,0,0,0,0,0,0,0,0,0,0,0,0,0,0,0,0,0,0,0,0,0,0,0,0,0,0,0,0,0,0,0,0,0,0,0,0,0,0,0,0,0,0,0,0,0,0,0,0,0,0,0,0,0,0,0,0,0,0,0,0,0,0,0,0,0,0,0,0,0,0,0,0,0,0,0,0,0,0,0,0,0,0,0,0,0,0,0,0,0,0,0,0,0,0,0,0,0,0,0,0,0,0,0,0,0,0,0,0,0,0,0,0,0,0,0,0,0,0,0,0,0,0,0,0,0,0,0,0,0,0,0,0,0,0,0,0,0,0,0,0,0,0,0,0,0,0,0,0,0,0,0,0,0,0,0,0,0,0,0,0,0,0,0,0,0,0,0,0,0,0,0,0,0,0,0,0,0,0,0,0,0,0,0,0,0,0,0,0,0,0,0,0,0,0,0,0,0,0,0,0,0,0,0,0,0,0,0,0,0,0,0,0,0,0,0,0,0,0,0,0,0,0,0,0,0,0,0,0,0,0,0,0,0,0,0,0,0,0,0,0,0,0,0,0,0,0,0,0,0,0,0,0,0,0,0,0,0,0,0,0,0,0,0,0,0,0,0,0,0,0,0,0,0,0,0,0,0,0,0,0,0,0,0,0,0,0,0,0,0,0,0,0,0,0,0,0,0,0,0,0,0,0,0,0,0,0,0,0,0,0,0,0,0,0,0,0,0,0,0,0,0,0,0,0,0,0,0,0,0,0,0,0,0,0,0,0,0,0,0,0,0,0,0,0,0,0,0,0,0,0,0,0,0,0,0,0,0,0,0,0,0,0,0,0,0,0,0,0,0,0,0,0,0,0,0,0,0,0,0,0,0,0,0,0,0,0,0,0,0,0,0,0,0,0,0,0,0,0,0,0,0,0,0,0,0,0,0,0,0,0,0,0,0,0,0,0,0,0,0,0,0,0,0,0,0,0,0,0,0,0,0,0,0,0,0,0,0,0,0,0,0,0,0,0,0,0,0,0,0,0,0,0,0,0,0,0,0,0,0,0,0,0,0,0,0,0,0,0,0,0,0,0,0,0,0,0,0,0,0,0,0,0,0,0,0,0,0,0,0,0,0,0,0,0,0,0,0,0,0,0,0,0,0,0,0,0,0,0,0,0,0,0,0,0,0,0,0,0,0,0,0,0,0,0,0,0,0,0,0,0,0,0,0,0,0,0,0,0,0,0,0,0,0,0,0,0,0,0,0,0,0,0,0,0,0,0,0,0,0,0,0,0,0,0,0,0,0,0,0,0,0,0,0,0,0,0,0,0,0,0,0,0,0,0,0,0,0,0,0,0,0,0,0,0,0,0,0,0,0,0,0,0,0,0,0,0,0,0,0,0,0,0,0,0,0,0,0,0,0,0,0,0,0,0,0,0,0,0,0,0,0,0,0,0,0,0,0,0,0,0,0,0,0,0,0,0,0,0,0,0,0,0,0,0,0,0,0,0,0,0,0,0,0,0,0,0,0,0,0,0,0,0,0,0,0,0,0,0,0,0,0,0,0,0,0,0,0,0,0,0,0,0,0,0,0,0,0,0,0,0,0,0,0,0,0,0,0,0,0,0,0,0,0,0,0,0,0,0,0,0,0,0,0,0,0,0,0,0,0,0,0,0,0,0,0,0,0,0,0,0,0,0,0,0,0,0,0,0,0,0,0,0,0,0,0,0,0]},{"type":"objectgroup","id":4,"name":"props","objects":[]}]}