{"type":"map","version":"1.10","orientation":"orthogonal","renderorder":"right-down","width":28,"height":23,"tilewidth":32,"tileheight":32,"infinite":false,"tilesets":[{"firstgid":1,"source":"stone.tsj"},{"firstgid":187,"source":"props.tsj"}],"layers":[{"type":"tilelayer","id":1,"name":"ground","width":28,"height":23,"opacity":1,"visible":true,"x":0,"y":0,"data":[0,0,0,0,0,0,0,0,0,0,0,0,0,0,0,0,0,0,0,0,0,0,0,0,0,0,0,0,0,0,0,0,0,0,0,0,186,10,0,0,0,0,0,0,0,0,0,0,0,0,0,0,0,0,0,0,0,0,0,0,0,0,0,0,17,18,0,0,0,0,0,0,0,0,0,0,0,0,0,0,0,0,0,0,0,0,0,0,0,0,0,0,25,26,0,0,0,0,0,0,0,0,0,0,0,0,0,0,0,0,0,0,0,0,0,0,5,6,7,8,1,2,3,0,0,0,0,0,0,0,0,0,0,0,0,0,0,0,0,0,0,0,0,0,13,14,15,16,9,10,11,0,0,0,0,0,0,0,0,0,0,14,15,16,9,10,0,0,0,0,0,0,21,22,23,24,17,18,19,20,21,22,23,24,0,0,0,0,0,22,23,24,17,18,0,0,0,0,0,28,29,30,31,32,25,26,27,28,29,30,31,32,25,26,0,0,0,30,31,32,25,26,0,0,0,0,0,4,5,6,7,8,1,2,3,4,5,6,7,8,1,2,0,0,0,6,7,8,1,2,0,0,0,0,0,12,13,14,15,16,9,10,11,12,13,14,15,16,0,0,0,0,0,14,15,16,9,10,0,0,0,0,0,20,21,22,23,24,17,18,19,20,21,22,23,24,17,18,19,20,21,22,23,24,17,18,0,0,0,0,0,28,29,30,31,32,25,26,27,28,29,30,31,32,25,26,27,28,29,30,31,32,25,26,0,0,0,0,0,4,5,6,7,8,1,2,3,0,0,6,7,8,0,0,0,0,0,6,7,8,1,2,0,0,0,0,0,12,13,14,15,16,9,10,11,0,0,14,15,16,0,0,0,0,0,14,15,16,9,10,0,0,0,0,0,20,21,22,23,24,17,18,19,20,21,22,23,24,0,0,0,0,0,22,23,24,17,18,0,0,0,0,0,28,29,30,31,32,25,26,27,28,29,30,31,32,0,0,0,0,0,30,31,32,25,26,0,0,0,0,0,0,5,6,7,8,1,2,3,4,5,6,7,0,0,0,0,0,0,6,7,8,1,2,0,0,0,0,0,0,0,0,0,16,9,0,0,0,0,0,0,0,0,0,0,0,0,0,0,0,0,0,0,0,0,0,0,0,0,0,0,24,17,0,0,0,0,0,0,0,0,0,0,0,0,0,0,0,0,0,0,0,0,0,0,0,0,0,0,32,25,0,0,0,0,0,0,0,0,0,0,0,0,0,0,0,0,0,0,0,0,0,0,0,0,0,0,8,1,0,0,0,0,0,0,0,0,0,0,0,0,0,0,0,0,0,0,0,0,0,0,0,0,0,0,16,9,0,0,0,0,0,0,0,0,0,0,0,0,0,0,0,0,0,0,0,0,0,0,0,0,0,0,0,0,0,0,0,0,0,0,0,0,0,0,0,0,0,0,0,0,0,0,0]},{"type":"tilelayer","id":2,"name":"walls","width":28,"height":23,"opacity":1,"visible":true,"x":0,"y":0,"data":[79,79,79,79,79,79,79,77,86,88,74,79,79,79,79,79,79,79,79,79,79,79,79,79,79,79,79,79,79,79,79,79,79,79,79,89,0,0,82,79,79,79,79,79,79,79,79,79,79,79,79,79,79,79,79,79,79,79,79,79,79,79,79,91,0,0,82,79,79,79,79,79,79,79,79,79,79,79,79,79,79,79,79,79,79,79,79,77,86,71,88,67,0,0,49,74,79,79,79,79,79,79,79,79,79,79,79,79,79,79,79,79,79,79,79,91,0,0,0,0,0,0,0,81,79,79,79,79,79,79,79,79,77,71,86,86,87,88,74,79,79,79,79,91,0,0,0,0,0,0,0,49,87,86,86,88,74,79,79,79,75,0,0,0,0,0,81,79,79,79,77,67,0,0,0,0,0,0,0,0,0,0,0,0,49,71,74,79,91,0,0,0,0,0,81,79,79,79,90,0,0,0,0,0,0,0,0,0,0,0,0,0,0,0,82,79,75,0,0,0,0,0,82,79,79,79,91,0,0,0,0,0,0,0,0,0,0,0,0,0,0,0,82,79,75,0,0,0,0,0,80,79,79,79,75,0,0,0,0,0,0,0,0,0,0,0,0,0,35,43,51,86,67,0,0,0,0,0,81,79,79,79,91,0,0,0,0,0,0,0,0,0,0,0,0,0,0,0,0,0,0,0,0,0,0,0,57,79,79,79,89,0,0,0,0,0,0,0,0,0,0,0,0,0,0,0,0,0,0,0,0,0,0,0,81,79,79,79,90,0,0,0,0,0,0,0,0,53,59,0,0,0,53,64,83,64,59,0,0,0,0,0,80,79,79,79,90,0,0,0,0,0,0,0,0,49,67,0,0,0,80,79,79,79,90,0,0,0,0,0,80,79,79,79,89,0,0,0,0,0,0,0,0,0,0,0,0,0,81,79,79,79,90,0,0,0,0,0,57,79,79,79,91,0,0,0,0,0,0,0,0,0,0,0,0,0,81,79,79,79,89,0,0,0,0,0,82,79,79,79,78,59,0,0,0,0,0,0,0,0,0,0,0,53,66,79,79,79,89,0,0,0,0,0,81,79,79,79,79,78,84,84,59,0,0,53,64,64,83,85,85,66,79,79,79,79,78,85,64,85,84,83,66,79,79,79,79,79,79,79,89,0,0,57,79,79,79,79,79,79,79,79,79,79,79,79,79,79,79,79,79,79,79,79,79,79,79,79,90,0,0,57,79,79,79,79,79,79,79,79,79,79,79,79,79,79,79,79,79,79,79,79,79,79,79,79,90,0,0,82,79,79,79,79,79,79,79,79,79,79,79,79,79,79,79,79,79,79,79,79,79,79,79,79,89,0,0,81,79,79,79,79,79,79,79,79,79,79,79,79,79,79,79,79,79,79,79,79,79,79,79,79,78,64,83,66,79,79,79,79,79,79,79,79,79,79,79,79,79,79,79,79,79,79]},{"type":"tilelayer","id":3,"name":"overlay","width":28,"height":23,"opacity":1,"visible":true,"x":0,"y":0,"data":[0,0,0,0,0,0,0,0,0,0,0,0,0,0,0,0,0,0,0,0,0,0,0,0,0,0,0,0,0,0,0,0,0,0,0,0,0,0,0,0,0,0,0,0,0,0,0,0,0,0,0,0,0,0,0,0,0,0,0,0,0,0,0,0,0,0,0,0,0,0,0,0,0,0,0,0,0,0,0,0,0,0,0,0,0,0,0,0,0,0,0,0,0,0,0,0,0,0,0,0,0,0,0,0,0,0,0,0,0,0,0,0,0,0,0,0,0,0,0,0,0,0,0,0,0,0,0,0,0,0,0,0,0,0,0,0,0,0,0,0,0,0,0,0,0,0,0,0,0,0,0,0,0,0,0,0,0,0,0,0,0,0,0,0,0,0,0,0,0,0,0,0,0,0,0,0,0,0,0,0,0,0,96,0,0,0,0,0,0,0,0,0,0,0,0,0,0,0,0,0,0,0,0,0,0,0,0,0,0,0,95,100,0,0,0,0,0,0,0,0,0,0,0,0,0,0,0,0,0,159,165,0,0,0,0,0,0,0,0,0,0,0,0,0,0,0,0,0,0,0,0,0,0,0,0,0,0,155,174,147,0,0,0,0,0,0,0,0,0,0,0,0,0,0,0,0,0,0,0,0,0,0,0,0,0,0,0,0,0,0,0,0,0,0,0,0,0,0,0,0,0,0,0,0,0,0,0,0,0,0,0,0,0,0,0,0,0,0,0,0,0,0,0,0,0,0,0,0,0,0,0,0,0,0,0,0,0,0,0,0,0,0,0,0,0,0,0,0,0,0,0,0,0,0,0,0,0,0,0,0,0,0,0,0,0,0,0,96,0,0,0,0,0,0,0,0,0,0,0,0,0,0,0,0,0,0,0,0,0,0,0,0,0,0,0,95,100,0,0,0,0,0,0,0,0,0,0,0,0,0,0,0,0,0,0,0,0,0,0,0,0,0,0,0,0,0,0,0,0,0,0,0,0,0,0,0,0,0,0,0,0,0,0,0,0,0,0,0,0,0,0,0,0,0,0,0,0,0,0,0,0,0,0,0,0,0,0,0,0,0,0,0,0,0,0,0,0,0,0,0,0,0,0,0,0,0,0,0,0,0,0,0,0,0,0,0,0,0,0,0,0,0,0,0,0,0,0,0,0,0,0,0,0,0,0,0,0,0,0,0,0,0,0,0,0,0,0,0,0,0,0,0,0,0,0,0,0,0,0,0,0,0,0,0,0,0,0,0,0,0,0,0,0,0,0,0,0,0,0,0,0,0,0,0,0,0,0,0,0,0,0,0,0,0,0,0,0,0,0,0,0,0,0,0,0,0,0,0,0,0,0,0,0,0,0,0,0,0,0,0,0,0,0,0,0,0,0,0,0,0,0,0,0,0,0,0,0,0,0,0,0,0,0,0,0,0,0,0,0,0,0,0,0,0,0,0,0,0,0,0,0,0,0,0]},{"type":"objectgroup","id":4,"name":"props","objects":[{"id":1,"gid":187,"x":672,"y":160,"width":64,"height":64,"rotation":0,"visible":true},{"id":2,"gid":190,"x":352,"y":192,"width":64,"height":64,"rotation":0,"visible":true},{"id":3,"gid":189,"x":576,"y":320,"width":64,"height":64,"rotation":0,"visible":true},{"id":4,"gid":188,"x":352,"y":448,"width":64,"height":64,"rotation":0,"visible":true}]}]}