{"type":"map","orientation":"orthogonal","renderorder":"right-down","width":32,"height":27,"tilewidth":16,"tileheight":16,"backgroundcolor":"#080d1d","infinite":false,"tilesets":[{"firstgid":1,"source":"pieces.tsj"}],"layers":[{"id":1,"type":"objectgroup","name":"floor","opacity":1,"visible":true,"draworder":"topdown","objects":[{"id":1,"gid":1,"x":304,"y":48,"width":16,"height":16,"visible":true,"rotation":0},{"id":2,"gid":2,"x":320,"y":48,"width":16,"height":16,"visible":true,"rotation":0},{"id":3,"gid":3,"x":336,"y":48,"width":16,"height":16,"visible":true,"rotation":0},{"id":4,"gid":4,"x":352,"y":48,"width":16,"height":16,"visible":true,"rotation":0},{"id":5,"gid":1,"x":368,"y":48,"width":16,"height":16,"visible":true,"rotation":0},{"id":6,"gid":2,"x":384,"y":48,"width":16,"height":16,"visible":true,"rotation":0},{"id":7,"gid":3,"x":80,"y":64,"width":16,"height":16,"visible":true,"rotation":0},{"id":8,"gid":4,"x":96,"y":64,"width":16,"height":16,"visible":true,"rotation":0},{"id":9,"gid":1,"x":112,"y":64,"width":16,"height":16,"visible":true,"rotation":0},{"id":10,"gid":2,"x":128,"y":64,"width":16,"height":16,"visible":true,"rotation":0},{"id":11,"gid":3,"x":144,"y":64,"width":16,"height":16,"visible":true,"rotation":0},{"id":12,"gid":3,"x":272,"y":64,"width":16,"height":16,"visible":true,"rotation":0},{"id":13,"gid":4,"x":288,"y":64,"width":16,"height":16,"visible":true,"rotation":0},{"id":14,"gid":1,"x":304,"y":64,"width":16,"height":16,"visible":true,"rotation":0},{"id":15,"gid":2,"x":320,"y":64,"width":16,"height":16,"visible":true,"rotation":0},{"id":16,"gid":3,"x":336,"y":64,"width":16,"height":16,"visible":true,"rotation":0},{"id":17,"gid":4,"x":352,"y":64,"width":16,"height":16,"visible":true,"rotation":0},{"id":18,"gid":1,"x":368,"y":64,"width":16,"height":16,"visible":true,"rotation":0},{"id":19,"gid":2,"x":384,"y":64,"width":16,"height":16,"visible":true,"rotation":0},{"id":20,"gid":3,"x":400,"y":64,"width":16,"height":16,"visible":true,"rotation":0},{"id":21,"gid":4,"x":416,"y":64,"width":16,"height":16,"visible":true,"rotation":0},{"id":22,"gid":1,"x":432,"y":64,"width":16,"height":16,"visible":true,"rotation":0},{"id":23,"gid":1,"x":48,"y":80,"width":16,"height":16,"visible":true,"rotation":0},{"id":24,"gid":2,"x":64,"y":80,"width":16,"height":16,"visible":true,"rotation":0},{"id":25,"gid":3,"x":80,"y":80,"width":16,"height":16,"visible":true,"rotation":0},{"id":26,"gid":4,"x":96,"y":80,"width":16,"height":16,"visible":true,"rotation":0},{"id":27,"gid":1,"x":112,"y":80,"width":16,"height":16,"visible":true,"rotation":0},{"id":28,"gid":2,"x":128,"y":80,"width":16,"height":16,"visible":true,"rotation":0},{"id":29,"gid":3,"x":144,"y":80,"width":16,"height":16,"visible":true,"rotation":0},{"id":30,"gid":4,"x":160,"y":80,"width":16,"height":16,"visible":true,"rotation":0},{"id":31,"gid":1,"x":176,"y":80,"width":16,"height":16,"visible":true,"rotation":0},{"id":32,"gid":3,"x":272,"y":80,"width":16,"height":16,"visible":true,"rotation":0},{"id":33,"gid":4,"x":288,"y":80,"width":16,"height":16,"visible":true,"rotation":0},{"id":34,"gid":1,"x":304,"y":80,"width":16,"height":16,"visible":true,"rotation":0},{"id":35,"gid":2,"x":320,"y":80,"width":16,"height":16,"visible":true,"rotation":0},{"id":36,"gid":3,"x":336,"y":80,"width":16,"height":16,"visible":true,"rotation":0},{"id":37,"gid":4,"x":352,"y":80,"width":16,"height":16,"visible":true,"rotation":0},{"id":38,"gid":1,"x":368,"y":80,"width":16,"height":16,"visible":true,"rotation":0},{"id":39,"gid":2,"x":384,"y":80,"width":16,"height":16,"visible":true,"rotation":0},{"id":40,"gid":3,"x":400,"y":80,"width":16,"height":16,"visible":true,"rotation":0},{"id":41,"gid":4,"x":416,"y":80,"width":16,"height":16,"visible":true,"rotation":0},{"id":42,"gid":1,"x":432,"y":80,"width":16,"height":16,"visible":true,"rotation":0},{"id":43,"gid":1,"x":48,"y":96,"width":16,"height":16,"visible":true,"rotation":0},{"id":44,"gid":2,"x":64,"y":96,"width":16,"height":16,"visible":true,"rotation":0},{"id":45,"gid":3,"x":80,"y":96,"width":16,"height":16,"visible":true,"rotation":0},{"id":46,"gid":4,"x":96,"y":96,"width":16,"height":16,"visible":true,"rotation":0},{"id":47,"gid":1,"x":112,"y":96,"width":16,"height":16,"visible":true,"rotation":0},{"id":48,"gid":2,"x":128,"y":96,"width":16,"height":16,"visible":true,"rotation":0},{"id":49,"gid":3,"x":144,"y":96,"width":16,"height":16,"visible":true,"rotation":0},{"id":50,"gid":4,"x":160,"y":96,"width":16,"height":16,"visible":true,"rotation":0},{"id":51,"gid":1,"x":176,"y":96,"width":16,"height":16,"visible":true,"rotation":0},{"id":52,"gid":3,"x":272,"y":96,"width":16,"height":16,"visible":true,"rotation":0},{"id":53,"gid":4,"x":288,"y":96,"width":16,"height":16,"visible":true,"rotation":0},{"id":54,"gid":1,"x":304,"y":96,"width":16,"height":16,"visible":true,"rotation":0},{"id":55,"gid":2,"x":320,"y":96,"width":16,"height":16,"visible":true,"rotation":0},{"id":56,"gid":3,"x":336,"y":96,"width":16,"height":16,"visible":true,"rotation":0},{"id":57,"gid":4,"x":352,"y":96,"width":16,"height":16,"visible":true,"rotation":0},{"id":58,"gid":3,"x":400,"y":96,"width":16,"height":16,"visible":true,"rotation":0},{"id":59,"gid":4,"x":416,"y":96,"width":16,"height":16,"visible":true,"rotation":0},{"id":60,"gid":1,"x":432,"y":96,"width":16,"height":16,"visible":true,"rotation":0},{"id":61,"gid":2,"x":448,"y":96,"width":16,"height":16,"visible":true,"rotation":0},{"id":62,"gid":4,"x":32,"y":112,"width":16,"height":16,"visible":true,"rotation":0},{"id":63,"gid":1,"x":48,"y":112,"width":16,"height":16,"visible":true,"rotation":0},{"id":64,"gid":2,"x":64,"y":112,"width":16,"height":16,"visible":true,"rotation":0},{"id":65,"gid":3,"x":80,"y":112,"width":16,"height":16,"visible":true,"rotation":0},{"id":66,"gid":4,"x":96,"y":112,"width":16,"height":16,"visible":true,"rotation":0},{"id":67,"gid":3,"x":144,"y":112,"width":16,"height":16,"visible":true,"rotation":0},{"id":68,"gid":4,"x":160,"y":112,"width":16,"height":16,"visible":true,"rotation":0},{"id":69,"gid":1,"x":176,"y":112,"width":16,"height":16,"visible":true,"rotation":0},{"id":70,"gid":3,"x":272,"y":112,"width":16,"height":16,"visible":true,"rotation":0},{"id":71,"gid":4,"x":288,"y":112,"width":16,"height":16,"visible":true,"rotation":0},{"id":72,"gid":1,"x":304,"y":112,"width":16,"height":16,"visible":true,"rotation":0},{"id":73,"gid":2,"x":320,"y":112,"width":16,"height":16,"visible":true,"rotation":0},{"id":74,"gid":3,"x":336,"y":112,"width":16,"height":16,"visible":true,"rotation":0},{"id":75,"gid":4,"x":352,"y":112,"width":16,"height":16,"visible":true,"rotation":0},{"id":76,"gid":3,"x":400,"y":112,"width":16,"height":16,"visible":true,"rotation":0},{"id":77,"gid":4,"x":416,"y":112,"width":16,"height":16,"visible":true,"rotation":0},{"id":78,"gid":1,"x":432,"y":112,"width":16,"height":16,"visible":true,"rotation":0},{"id":79,"gid":2,"x":448,"y":112,"width":16,"height":16,"visible":true,"rotation":0},{"id":80,"gid":4,"x":32,"y":128,"width":16,"height":16,"visible":true,"rotation":0},{"id":81,"gid":1,"x":48,"y":128,"width":16,"height":16,"visible":true,"rotation":0},{"id":82,"gid":2,"x":64,"y":128,"width":16,"height":16,"visible":true,"rotation":0},{"id":83,"gid":3,"x":80,"y":128,"width":16,"height":16,"visible":true,"rotation":0},{"id":84,"gid":4,"x":96,"y":128,"width":16,"height":16,"visible":true,"rotation":0},{"id":85,"gid":3,"x":144,"y":128,"width":16,"height":16,"visible":true,"rotation":0},{"id":86,"gid":4,"x":160,"y":128,"width":16,"height":16,"visible":true,"rotation":0},{"id":87,"gid":1,"x":176,"y":128,"width":16,"height":16,"visible":true,"rotation":0},{"id":88,"gid":2,"x":192,"y":128,"width":16,"height":16,"visible":true,"rotation":0},{"id":89,"gid":3,"x":208,"y":128,"width":16,"height":16,"visible":true,"rotation":0},{"id":90,"gid":4,"x":224,"y":128,"width":16,"height":16,"visible":true,"rotation":0},{"id":91,"gid":1,"x":240,"y":128,"width":16,"height":16,"visible":true,"rotation":0},{"id":92,"gid":2,"x":256,"y":128,"width":16,"height":16,"visible":true,"rotation":0},{"id":93,"gid":3,"x":272,"y":128,"width":16,"height":16,"visible":true,"rotation":0},{"id":94,"gid":4,"x":288,"y":128,"width":16,"height":16,"visible":true,"rotation":0},{"id":95,"gid":1,"x":304,"y":128,"width":16,"height":16,"visible":true,"rotation":0},{"id":96,"gid":2,"x":320,"y":128,"width":16,"height":16,"visible":true,"rotation":0},{"id":97,"gid":3,"x":336,"y":128,"width":16,"height":16,"visible":true,"rotation":0},{"id":98,"gid":4,"x":352,"y":128,"width":16,"height":16,"visible":true,"rotation":0},{"id":99,"gid":3,"x":400,"y":128,"width":16,"height":16,"visible":true,"rotation":0},{"id":100,"gid":4,"x":416,"y":128,"width":16,"height":16,"visible":true,"rotation":0},{"id":101,"gid":1,"x":432,"y":128,"width":16,"height":16,"visible":true,"rotation":0},{"id":102,"gid":2,"x":448,"y":128,"width":16,"height":16,"visible":true,"rotation":0},{"id":103,"gid":4,"x":32,"y":144,"width":16,"height":16,"visible":true,"rotation":0},{"id":104,"gid":1,"x":48,"y":144,"width":16,"height":16,"visible":true,"rotation":0},{"id":105,"gid":2,"x":64,"y":144,"width":16,"height":16,"visible":true,"rotation":0},{"id":106,"gid":3,"x":80,"y":144,"width":16,"height":16,"visible":true,"rotation":0},{"id":107,"gid":4,"x":96,"y":144,"width":16,"height":16,"visible":true,"rotation":0},{"id":108,"gid":3,"x":144,"y":144,"width":16,"height":16,"visible":true,"rotation":0},{"id":109,"gid":4,"x":160,"y":144,"width":16,"height":16,"visible":true,"rotation":0},{"id":110,"gid":1,"x":176,"y":144,"width":16,"height":16,"visible":true,"rotation":0},{"id":111,"gid":2,"x":192,"y":144,"width":16,"height":16,"visible":true,"rotation":0},{"id":112,"gid":3,"x":208,"y":144,"width":16,"height":16,"visible":true,"rotation":0},{"id":113,"gid":4,"x":224,"y":144,"width":16,"height":16,"visible":true,"rotation":0},{"id":114,"gid":1,"x":240,"y":144,"width":16,"height":16,"visible":true,"rotation":0},{"id":115,"gid":2,"x":256,"y":144,"width":16,"height":16,"visible":true,"rotation":0},{"id":116,"gid":3,"x":272,"y":144,"width":16,"height":16,"visible":true,"rotation":0},{"id":117,"gid":4,"x":288,"y":144,"width":16,"height":16,"visible":true,"rotation":0},{"id":118,"gid":1,"x":304,"y":144,"width":16,"height":16,"visible":true,"rotation":0},{"id":119,"gid":2,"x":320,"y":144,"width":16,"height":16,"visible":true,"rotation":0},{"id":120,"gid":3,"x":336,"y":144,"width":16,"height":16,"visible":true,"rotation":0},{"id":121,"gid":4,"x":352,"y":144,"width":16,"height":16,"visible":true,"rotation":0},{"id":122,"gid":1,"x":368,"y":144,"width":16,"height":16,"visible":true,"rotation":0},{"id":123,"gid":2,"x":384,"y":144,"width":16,"height":16,"visible":true,"rotation":0},{"id":124,"gid":3,"x":400,"y":144,"width":16,"height":16,"visible":true,"rotation":0},{"id":125,"gid":4,"x":416,"y":144,"width":16,"height":16,"visible":true,"rotation":0},{"id":126,"gid":1,"x":432,"y":144,"width":16,"height":16,"visible":true,"rotation":0},{"id":127,"gid":2,"x":448,"y":144,"width":16,"height":16,"visible":true,"rotation":0},{"id":128,"gid":4,"x":32,"y":160,"width":16,"height":16,"visible":true,"rotation":0},{"id":129,"gid":1,"x":48,"y":160,"width":16,"height":16,"visible":true,"rotation":0},{"id":130,"gid":2,"x":64,"y":160,"width":16,"height":16,"visible":true,"rotation":0},{"id":131,"gid":3,"x":80,"y":160,"width":16,"height":16,"visible":true,"rotation":0},{"id":132,"gid":4,"x":96,"y":160,"width":16,"height":16,"visible":true,"rotation":0},{"id":133,"gid":1,"x":112,"y":160,"width":16,"height":16,"visible":true,"rotation":0},{"id":134,"gid":2,"x":128,"y":160,"width":16,"height":16,"visible":true,"rotation":0},{"id":135,"gid":3,"x":144,"y":160,"width":16,"height":16,"visible":true,"rotation":0},{"id":136,"gid":4,"x":160,"y":160,"width":16,"height":16,"visible":true,"rotation":0},{"id":137,"gid":1,"x":176,"y":160,"width":16,"height":16,"visible":true,"rotation":0},{"id":138,"gid":2,"x":192,"y":160,"width":16,"height":16,"visible":true,"rotation":0},{"id":139,"gid":3,"x":208,"y":160,"width":16,"height":16,"visible":true,"rotation":0},{"id":140,"gid":4,"x":224,"y":160,"width":16,"height":16,"visible":true,"rotation":0},{"id":141,"gid":1,"x":240,"y":160,"width":16,"height":16,"visible":true,"rotation":0},{"id":142,"gid":2,"x":256,"y":160,"width":16,"height":16,"visible":true,"rotation":0},{"id":143,"gid":3,"x":272,"y":160,"width":16,"height":16,"visible":true,"rotation":0},{"id":144,"gid":4,"x":288,"y":160,"width":16,"height":16,"visible":true,"rotation":0},{"id":145,"gid":1,"x":304,"y":160,"width":16,"height":16,"visible":true,"rotation":0},{"id":146,"gid":2,"x":320,"y":160,"width":16,"height":16,"visible":true,"rotation":0},{"id":147,"gid":3,"x":336,"y":160,"width":16,"height":16,"visible":true,"rotation":0},{"id":148,"gid":4,"x":352,"y":160,"width":16,"height":16,"visible":true,"rotation":0},{"id":149,"gid":1,"x":368,"y":160,"width":16,"height":16,"visible":true,"rotation":0},{"id":150,"gid":2,"x":384,"y":160,"width":16,"height":16,"visible":true,"rotation":0},{"id":151,"gid":3,"x":400,"y":160,"width":16,"height":16,"visible":true,"rotation":0},{"id":152,"gid":4,"x":416,"y":160,"width":16,"height":16,"visible":true,"rotation":0},{"id":153,"gid":1,"x":432,"y":160,"width":16,"height":16,"visible":true,"rotation":0},{"id":154,"gid":2,"x":448,"y":160,"width":16,"height":16,"visible":true,"rotation":0},{"id":155,"gid":1,"x":48,"y":176,"width":16,"height":16,"visible":true,"rotation":0},{"id":156,"gid":2,"x":64,"y":176,"width":16,"height":16,"visible":true,"rotation":0},{"id":157,"gid":3,"x":80,"y":176,"width":16,"height":16,"visible":true,"rotation":0},{"id":158,"gid":4,"x":96,"y":176,"width":16,"height":16,"visible":true,"rotation":0},{"id":159,"gid":1,"x":112,"y":176,"width":16,"height":16,"visible":true,"rotation":0},{"id":160,"gid":2,"x":128,"y":176,"width":16,"height":16,"visible":true,"rotation":0},{"id":161,"gid":3,"x":144,"y":176,"width":16,"height":16,"visible":true,"rotation":0},{"id":162,"gid":4,"x":160,"y":176,"width":16,"height":16,"visible":true,"rotation":0},{"id":163,"gid":1,"x":176,"y":176,"width":16,"height":16,"visible":true,"rotation":0},{"id":164,"gid":2,"x":192,"y":176,"width":16,"height":16,"visible":true,"rotation":0},{"id":165,"gid":3,"x":272,"y":176,"width":16,"height":16,"visible":true,"rotation":0},{"id":166,"gid":4,"x":288,"y":176,"width":16,"height":16,"visible":true,"rotation":0},{"id":167,"gid":1,"x":304,"y":176,"width":16,"height":16,"visible":true,"rotation":0},{"id":168,"gid":2,"x":320,"y":176,"width":16,"height":16,"visible":true,"rotation":0},{"id":169,"gid":3,"x":336,"y":176,"width":16,"height":16,"visible":true,"rotation":0},{"id":170,"gid":4,"x":352,"y":176,"width":16,"height":16,"visible":true,"rotation":0},{"id":171,"gid":1,"x":368,"y":176,"width":16,"height":16,"visible":true,"rotation":0},{"id":172,"gid":2,"x":384,"y":176,"width":16,"height":16,"visible":true,"rotation":0},{"id":173,"gid":3,"x":400,"y":176,"width":16,"height":16,"visible":true,"rotation":0},{"id":174,"gid":4,"x":416,"y":176,"width":16,"height":16,"visible":true,"rotation":0},{"id":175,"gid":1,"x":432,"y":176,"width":16,"height":16,"visible":true,"rotation":0},{"id":176,"gid":1,"x":48,"y":192,"width":16,"height":16,"visible":true,"rotation":0},{"id":177,"gid":2,"x":64,"y":192,"width":16,"height":16,"visible":true,"rotation":0},{"id":178,"gid":3,"x":80,"y":192,"width":16,"height":16,"visible":true,"rotation":0},{"id":179,"gid":4,"x":96,"y":192,"width":16,"height":16,"visible":true,"rotation":0},{"id":180,"gid":1,"x":112,"y":192,"width":16,"height":16,"visible":true,"rotation":0},{"id":181,"gid":2,"x":128,"y":192,"width":16,"height":16,"visible":true,"rotation":0},{"id":182,"gid":3,"x":144,"y":192,"width":16,"height":16,"visible":true,"rotation":0},{"id":183,"gid":4,"x":160,"y":192,"width":16,"height":16,"visible":true,"rotation":0},{"id":184,"gid":1,"x":176,"y":192,"width":16,"height":16,"visible":true,"rotation":0},{"id":185,"gid":2,"x":192,"y":192,"width":16,"height":16,"visible":true,"rotation":0},{"id":186,"gid":3,"x":272,"y":192,"width":16,"height":16,"visible":true,"rotation":0},{"id":187,"gid":4,"x":288,"y":192,"width":16,"height":16,"visible":true,"rotation":0},{"id":188,"gid":1,"x":304,"y":192,"width":16,"height":16,"visible":true,"rotation":0},{"id":189,"gid":2,"x":320,"y":192,"width":16,"height":16,"visible":true,"rotation":0},{"id":190,"gid":3,"x":336,"y":192,"width":16,"height":16,"visible":true,"rotation":0},{"id":191,"gid":4,"x":352,"y":192,"width":16,"height":16,"visible":true,"rotation":0},{"id":192,"gid":1,"x":368,"y":192,"width":16,"height":16,"visible":true,"rotation":0},{"id":193,"gid":2,"x":384,"y":192,"width":16,"height":16,"visible":true,"rotation":0},{"id":194,"gid":3,"x":400,"y":192,"width":16,"height":16,"visible":true,"rotation":0},{"id":195,"gid":4,"x":416,"y":192,"width":16,"height":16,"visible":true,"rotation":0},{"id":196,"gid":1,"x":432,"y":192,"width":16,"height":16,"visible":true,"rotation":0},{"id":197,"gid":3,"x":144,"y":208,"width":16,"height":16,"visible":true,"rotation":0},{"id":198,"gid":4,"x":160,"y":208,"width":16,"height":16,"visible":true,"rotation":0},{"id":199,"gid":1,"x":176,"y":208,"width":16,"height":16,"visible":true,"rotation":0},{"id":200,"gid":2,"x":192,"y":208,"width":16,"height":16,"visible":true,"rotation":0},{"id":201,"gid":3,"x":272,"y":208,"width":16,"height":16,"visible":true,"rotation":0},{"id":202,"gid":4,"x":288,"y":208,"width":16,"height":16,"visible":true,"rotation":0},{"id":203,"gid":1,"x":304,"y":208,"width":16,"height":16,"visible":true,"rotation":0},{"id":204,"gid":2,"x":320,"y":208,"width":16,"height":16,"visible":true,"rotation":0},{"id":205,"gid":3,"x":336,"y":208,"width":16,"height":16,"visible":true,"rotation":0},{"id":206,"gid":4,"x":352,"y":208,"width":16,"height":16,"visible":true,"rotation":0},{"id":207,"gid":1,"x":368,"y":208,"width":16,"height":16,"visible":true,"rotation":0},{"id":208,"gid":2,"x":384,"y":208,"width":16,"height":16,"visible":true,"rotation":0},{"id":209,"gid":3,"x":400,"y":208,"width":16,"height":16,"visible":true,"rotation":0},{"id":210,"gid":4,"x":416,"y":208,"width":16,"height":16,"visible":true,"rotation":0},{"id":211,"gid":1,"x":432,"y":208,"width":16,"height":16,"visible":true,"rotation":0},{"id":212,"gid":3,"x":144,"y":224,"width":16,"height":16,"visible":true,"rotation":0},{"id":213,"gid":4,"x":160,"y":224,"width":16,"height":16,"visible":true,"rotation":0},{"id":214,"gid":1,"x":176,"y":224,"width":16,"height":16,"visible":true,"rotation":0},{"id":215,"gid":2,"x":192,"y":224,"width":16,"height":16,"visible":true,"rotation":0},{"id":216,"gid":1,"x":368,"y":224,"width":16,"height":16,"visible":true,"rotation":0},{"id":217,"gid":2,"x":384,"y":224,"width":16,"height":16,"visible":true,"rotation":0},{"id":218,"gid":3,"x":400,"y":224,"width":16,"height":16,"visible":true,"rotation":0},{"id":219,"gid":4,"x":416,"y":224,"width":16,"height":16,"visible":true,"rotation":0},{"id":220,"gid":3,"x":144,"y":240,"width":16,"height":16,"visible":true,"rotation":0},{"id":221,"gid":4,"x":160,"y":240,"width":16,"height":16,"visible":true,"rotation":0},{"id":222,"gid":1,"x":176,"y":240,"width":16,"height":16,"visible":true,"rotation":0},{"id":223,"gid":2,"x":192,"y":240,"width":16,"height":16,"visible":true,"rotation":0},{"id":224,"gid":1,"x":368,"y":240,"width":16,"height":16,"visible":true,"rotation":0},{"id":225,"gid":2,"x":384,"y":240,"width":16,"height":16,"visible":true,"rotation":0},{"id":226,"gid":3,"x":400,"y":240,"width":16,"height":16,"visible":true,"rotation":0},{"id":227,"gid":4,"x":416,"y":240,"width":16,"height":16,"visible":true,"rotation":0},{"id":228,"gid":3,"x":144,"y":256,"width":16,"height":16,"visible":true,"rotation":0},{"id":229,"gid":4,"x":160,"y":256,"width":16,"height":16,"visible":true,"rotation":0},{"id":230,"gid":1,"x":176,"y":256,"width":16,"height":16,"visible":true,"rotation":0},{"id":231,"gid":2,"x":192,"y":256,"width":16,"height":16,"visible":true,"rotation":0},{"id":232,"gid":1,"x":368,"y":256,"width":16,"height":16,"visible":true,"rotation":0},{"id":233,"gid":2,"x":384,"y":256,"width":16,"height":16,"visible":true,"rotation":0},{"id":234,"gid":3,"x":400,"y":256,"width":16,"height":16,"visible":true,"rotation":0},{"id":235,"gid":4,"x":416,"y":256,"width":16,"height":16,"visible":true,"rotation":0},{"id":236,"gid":1,"x":112,"y":272,"width":16,"height":16,"visible":true,"rotation":0},{"id":237,"gid":2,"x":128,"y":272,"width":16,"height":16,"visible":true,"rotation":0},{"id":238,"gid":3,"x":144,"y":272,"width":16,"height":16,"visible":true,"rotation":0},{"id":239,"gid":4,"x":160,"y":272,"width":16,"height":16,"visible":true,"rotation":0},{"id":240,"gid":1,"x":176,"y":272,"width":16,"height":16,"visible":true,"rotation":0},{"id":241,"gid":2,"x":192,"y":272,"width":16,"height":16,"visible":true,"rotation":0},{"id":242,"gid":3,"x":208,"y":272,"width":16,"height":16,"visible":true,"rotation":0},{"id":243,"gid":4,"x":224,"y":272,"width":16,"height":16,"visible":true,"rotation":0},{"id":244,"gid":1,"x":240,"y":272,"width":16,"height":16,"visible":true,"rotation":0},{"id":245,"gid":2,"x":256,"y":272,"width":16,"height":16,"visible":true,"rotation":0},{"id":246,"gid":3,"x":272,"y":272,"width":16,"height":16,"visible":true,"rotation":0},{"id":247,"gid":3,"x":336,"y":272,"width":16,"height":16,"visible":true,"rotation":0},{"id":248,"gid":4,"x":352,"y":272,"width":16,"height":16,"visible":true,"rotation":0},{"id":249,"gid":1,"x":368,"y":272,"width":16,"height":16,"visible":true,"rotation":0},{"id":250,"gid":2,"x":384,"y":272,"width":16,"height":16,"visible":true,"rotation":0},{"id":251,"gid":3,"x":400,"y":272,"width":16,"height":16,"visible":true,"rotation":0},{"id":252,"gid":4,"x":416,"y":272,"width":16,"height":16,"visible":true,"rotation":0},{"id":253,"gid":1,"x":112,"y":288,"width":16,"height":16,"visible":true,"rotation":0},{"id":254,"gid":2,"x":128,"y":288,"width":16,"height":16,"visible":true,"rotation":0},{"id":255,"gid":3,"x":144,"y":288,"width":16,"height":16,"visible":true,"rotation":0},{"id":256,"gid":4,"x":160,"y":288,"width":16,"height":16,"visible":true,"rotation":0},{"id":257,"gid":1,"x":176,"y":288,"width":16,"height":16,"visible":true,"rotation":0},{"id":258,"gid":2,"x":192,"y":288,"width":16,"height":16,"visible":true,"rotation":0},{"id":259,"gid":3,"x":208,"y":288,"width":16,"height":16,"visible":true,"rotation":0},{"id":260,"gid":4,"x":224,"y":288,"width":16,"height":16,"visible":true,"rotation":0},{"id":261,"gid":1,"x":240,"y":288,"width":16,"height":16,"visible":true,"rotation":0},{"id":262,"gid":2,"x":256,"y":288,"width":16,"height":16,"visible":true,"rotation":0},{"id":263,"gid":3,"x":272,"y":288,"width":16,"height":16,"visible":true,"rotation":0},{"id":264,"gid":3,"x":336,"y":288,"width":16,"height":16,"visible":true,"rotation":0},{"id":265,"gid":4,"x":352,"y":288,"width":16,"height":16,"visible":true,"rotation":0},{"id":266,"gid":1,"x":368,"y":288,"width":16,"height":16,"visible":true,"rotation":0},{"id":267,"gid":2,"x":384,"y":288,"width":16,"height":16,"visible":true,"rotation":0},{"id":268,"gid":3,"x":400,"y":288,"width":16,"height":16,"visible":true,"rotation":0},{"id":269,"gid":4,"x":416,"y":288,"width":16,"height":16,"visible":true,"rotation":0},{"id":270,"gid":3,"x":80,"y":304,"width":16,"height":16,"visible":true,"rotation":0},{"id":271,"gid":4,"x":96,"y":304,"width":16,"height":16,"visible":true,"rotation":0},{"id":272,"gid":1,"x":112,"y":304,"width":16,"height":16,"visible":true,"rotation":0},{"id":273,"gid":2,"x":128,"y":304,"width":16,"height":16,"visible":true,"rotation":0},{"id":274,"gid":3,"x":144,"y":304,"width":16,"height":16,"visible":true,"rotation":0},{"id":275,"gid":4,"x":160,"y":304,"width":16,"height":16,"visible":true,"rotation":0},{"id":276,"gid":1,"x":176,"y":304,"width":16,"height":16,"visible":true,"rotation":0},{"id":277,"gid":2,"x":192,"y":304,"width":16,"height":16,"visible":true,"rotation":0},{"id":278,"gid":3,"x":208,"y":304,"width":16,"height":16,"visible":true,"rotation":0},{"id":279,"gid":4,"x":224,"y":304,"width":16,"height":16,"visible":true,"rotation":0},{"id":280,"gid":1,"x":240,"y":304,"width":16,"height":16,"visible":true,"rotation":0},{"id":281,"gid":2,"x":256,"y":304,"width":16,"height":16,"visible":true,"rotation":0},{"id":282,"gid":3,"x":272,"y":304,"width":16,"height":16,"visible":true,"rotation":0},{"id":283,"gid":3,"x":336,"y":304,"width":16,"height":16,"visible":true,"rotation":0},{"id":284,"gid":4,"x":352,"y":304,"width":16,"height":16,"visible":true,"rotation":0},{"id":285,"gid":1,"x":368,"y":304,"width":16,"height":16,"visible":true,"rotation":0},{"id":286,"gid":2,"x":384,"y":304,"width":16,"height":16,"visible":true,"rotation":0},{"id":287,"gid":3,"x":400,"y":304,"width":16,"height":16,"visible":true,"rotation":0},{"id":288,"gid":4,"x":416,"y":304,"width":16,"height":16,"visible":true,"rotation":0},{"id":289,"gid":3,"x":80,"y":320,"width":16,"height":16,"visible":true,"rotation":0},{"id":290,"gid":4,"x":96,"y":320,"width":16,"height":16,"visible":true,"rotation":0},{"id":291,"gid":1,"x":112,"y":320,"width":16,"height":16,"visible":true,"rotation":0},{"id":292,"gid":2,"x":128,"y":320,"width":16,"height":16,"visible":true,"rotation":0},{"id":293,"gid":3,"x":144,"y":320,"width":16,"height":16,"visible":true,"rotation":0},{"id":294,"gid":4,"x":160,"y":320,"width":16,"height":16,"visible":true,"rotation":0},{"id":295,"gid":1,"x":176,"y":320,"width":16,"height":16,"visible":true,"rotation":0},{"id":296,"gid":2,"x":192,"y":320,"width":16,"height":16,"visible":true,"rotation":0},{"id":297,"gid":3,"x":208,"y":320,"width":16,"height":16,"visible":true,"rotation":0},{"id":298,"gid":4,"x":224,"y":320,"width":16,"height":16,"visible":true,"rotation":0},{"id":299,"gid":1,"x":240,"y":320,"width":16,"height":16,"visible":true,"rotation":0},{"id":300,"gid":2,"x":256,"y":320,"width":16,"height":16,"visible":true,"rotation":0},{"id":301,"gid":3,"x":272,"y":320,"width":16,"height":16,"visible":true,"rotation":0},{"id":302,"gid":4,"x":288,"y":320,"width":16,"height":16,"visible":true,"rotation":0},{"id":303,"gid":1,"x":304,"y":320,"width":16,"height":16,"visible":true,"rotation":0},{"id":304,"gid":2,"x":320,"y":320,"width":16,"height":16,"visible":true,"rotation":0},{"id":305,"gid":3,"x":336,"y":320,"width":16,"height":16,"visible":true,"rotation":0},{"id":306,"gid":4,"x":352,"y":320,"width":16,"height":16,"visible":true,"rotation":0},{"id":307,"gid":1,"x":368,"y":320,"width":16,"height":16,"visible":true,"rotation":0},{"id":308,"gid":2,"x":384,"y":320,"width":16,"height":16,"visible":true,"rotation":0},{"id":309,"gid":3,"x":400,"y":320,"width":16,"height":16,"visible":true,"rotation":0},{"id":310,"gid":4,"x":416,"y":320,"width":16,"height":16,"visible":true,"rotation":0},{"id":311,"gid":3,"x":80,"y":336,"width":16,"height":16,"visible":true,"rotation":0},{"id":312,"gid":4,"x":96,"y":336,"width":16,"height":16,"visible":true,"rotation":0},{"id":313,"gid":1,"x":112,"y":336,"width":16,"height":16,"visible":true,"rotation":0},{"id":314,"gid":2,"x":128,"y":336,"width":16,"height":16,"visible":true,"rotation":0},{"id":315,"gid":3,"x":144,"y":336,"width":16,"height":16,"visible":true,"rotation":0},{"id":316,"gid":4,"x":160,"y":336,"width":16,"height":16,"visible":true,"rotation":0},{"id":317,"gid":1,"x":176,"y":336,"width":16,"height":16,"visible":true,"rotation":0},{"id":318,"gid":2,"x":192,"y":336,"width":16,"height":16,"visible":true,"rotation":0},{"id":319,"gid":3,"x":208,"y":336,"width":16,"height":16,"visible":true,"rotation":0},{"id":320,"gid":4,"x":224,"y":336,"width":16,"height":16,"visible":true,"rotation":0},{"id":321,"gid":1,"x":240,"y":336,"width":16,"height":16,"visible":true,"rotation":0},{"id":322,"gid":2,"x":256,"y":336,"width":16,"height":16,"visible":true,"rotation":0},{"id":323,"gid":3,"x":272,"y":336,"width":16,"height":16,"visible":true,"rotation":0},{"id":324,"gid":4,"x":288,"y":336,"width":16,"height":16,"visible":true,"rotation":0},{"id":325,"gid":1,"x":304,"y":336,"width":16,"height":16,"visible":true,"rotation":0},{"id":326,"gid":2,"x":320,"y":336,"width":16,"height":16,"visible":true,"rotation":0},{"id":327,"gid":3,"x":336,"y":336,"width":16,"height":16,"visible":true,"rotation":0},{"id":328,"gid":4,"x":352,"y":336,"width":16,"height":16,"visible":true,"rotation":0},{"id":329,"gid":1,"x":368,"y":336,"width":16,"height":16,"visible":true,"rotation":0},{"id":330,"gid":2,"x":384,"y":336,"width":16,"height":16,"visible":true,"rotation":0},{"id":331,"gid":3,"x":400,"y":336,"width":16,"height":16,"visible":true,"rotation":0},{"id":332,"gid":4,"x":416,"y":336,"width":16,"height":16,"visible":true,"rotation":0},{"id":333,"gid":3,"x":80,"y":352,"width":16,"height":16,"visible":true,"rotation":0},{"id":334,"gid":4,"x":96,"y":352,"width":16,"height":16,"visible":true,"rotation":0},{"id":335,"gid":1,"x":112,"y":352,"width":16,"height":16,"visible":true,"rotation":0},{"id":336,"gid":2,"x":128,"y":352,"width":16,"height":16,"visible":true,"rotation":0},{"id":337,"gid":3,"x":144,"y":352,"width":16,"height":16,"visible":true,"rotation":0},{"id":338,"gid":4,"x":160,"y":352,"width":16,"height":16,"visible":true,"rotation":0},{"id":339,"gid":1,"x":176,"y":352,"width":16,"height":16,"visible":true,"rotation":0},{"id":340,"gid":2,"x":192,"y":352,"width":16,"height":16,"visible":true,"rotation":0},{"id":341,"gid":3,"x":208,"y":352,"width":16,"height":16,"visible":true,"rotation":0},{"id":342,"gid":3,"x":272,"y":352,"width":16,"height":16,"visible":true,"rotation":0},{"id":343,"gid":4,"x":288,"y":352,"width":16,"height":16,"visible":true,"rotation":0},{"id":344,"gid":1,"x":304,"y":352,"width":16,"height":16,"visible":true,"rotation":0},{"id":345,"gid":2,"x":320,"y":352,"width":16,"height":16,"visible":true,"rotation":0},{"id":346,"gid":3,"x":336,"y":352,"width":16,"height":16,"visible":true,"rotation":0},{"id":347,"gid":4,"x":352,"y":352,"width":16,"height":16,"visible":true,"rotation":0},{"id":348,"gid":1,"x":368,"y":352,"width":16,"height":16,"visible":true,"rotation":0},{"id":349,"gid":2,"x":384,"y":352,"width":16,"height":16,"visible":true,"rotation":0},{"id":350,"gid":3,"x":400,"y":352,"width":16,"height":16,"visible":true,"rotation":0},{"id":351,"gid":4,"x":416,"y":352,"width":16,"height":16,"visible":true,"rotation":0},{"id":352,"gid":3,"x":80,"y":368,"width":16,"height":16,"visible":true,"rotation":0},{"id":353,"gid":4,"x":96,"y":368,"width":16,"height":16,"visible":true,"rotation":0},{"id":354,"gid":1,"x":112,"y":368,"width":16,"height":16,"visible":true,"rotation":0},{"id":355,"gid":2,"x":128,"y":368,"width":16,"height":16,"visible":true,"rotation":0},{"id":356,"gid":3,"x":144,"y":368,"width":16,"height":16,"visible":true,"rotation":0},{"id":357,"gid":4,"x":160,"y":368,"width":16,"height":16,"visible":true,"rotation":0},{"id":358,"gid":1,"x":176,"y":368,"width":16,"height":16,"visible":true,"rotation":0},{"id":359,"gid":2,"x":192,"y":368,"width":16,"height":16,"visible":true,"rotation":0},{"id":360,"gid":3,"x":208,"y":368,"width":16,"height":16,"visible":true,"rotation":0},{"id":361,"gid":3,"x":272,"y":368,"width":16,"height":16,"visible":true,"rotation":0},{"id":362,"gid":4,"x":288,"y":368,"width":16,"height":16,"visible":true,"rotation":0},{"id":363,"gid":1,"x":304,"y":368,"width":16,"height":16,"visible":true,"rotation":0},{"id":364,"gid":2,"x":320,"y":368,"width":16,"height":16,"visible":true,"rotation":0},{"id":365,"gid":3,"x":336,"y":368,"width":16,"height":16,"visible":true,"rotation":0},{"id":366,"gid":4,"x":352,"y":368,"width":16,"height":16,"visible":true,"rotation":0},{"id":367,"gid":1,"x":368,"y":368,"width":16,"height":16,"visible":true,"rotation":0},{"id":368,"gid":2,"x":384,"y":368,"width":16,"height":16,"visible":true,"rotation":0},{"id":369,"gid":3,"x":400,"y":368,"width":16,"height":16,"visible":true,"rotation":0},{"id":370,"gid":4,"x":416,"y":368,"width":16,"height":16,"visible":true,"rotation":0},{"id":371,"gid":1,"x":112,"y":384,"width":16,"height":16,"visible":true,"rotation":0},{"id":372,"gid":2,"x":128,"y":384,"width":16,"height":16,"visible":true,"rotation":0},{"id":373,"gid":3,"x":144,"y":384,"width":16,"height":16,"visible":true,"rotation":0},{"id":374,"gid":4,"x":160,"y":384,"width":16,"height":16,"visible":true,"rotation":0},{"id":375,"gid":1,"x":176,"y":384,"width":16,"height":16,"visible":true,"rotation":0},{"id":376,"gid":2,"x":192,"y":384,"width":16,"height":16,"visible":true,"rotation":0},{"id":377,"gid":3,"x":208,"y":384,"width":16,"height":16,"visible":true,"rotation":0},{"id":378,"gid":4,"x":224,"y":384,"width":16,"height":16,"visible":true,"rotation":0},{"id":379,"gid":1,"x":240,"y":384,"width":16,"height":16,"visible":true,"rotation":0},{"id":380,"gid":2,"x":256,"y":384,"width":16,"height":16,"visible":true,"rotation":0},{"id":381,"gid":3,"x":272,"y":384,"width":16,"height":16,"visible":true,"rotation":0},{"id":382,"gid":4,"x":288,"y":384,"width":16,"height":16,"visible":true,"rotation":0},{"id":383,"gid":1,"x":304,"y":384,"width":16,"height":16,"visible":true,"rotation":0},{"id":384,"gid":2,"x":320,"y":384,"width":16,"height":16,"visible":true,"rotation":0},{"id":385,"gid":3,"x":336,"y":384,"width":16,"height":16,"visible":true,"rotation":0}]},{"id":2,"type":"objectgroup","name":"moss","opacity":1,"visible":true,"draworder":"topdown","objects":[{"id":386,"gid":23,"x":272,"y":80,"width":32,"height":32,"visible":true,"rotation":0},{"id":387,"gid":21,"x":304,"y":80,"width":32,"height":32,"visible":true,"rotation":0},{"id":388,"gid":23,"x":48,"y":112,"width":32,"height":32,"visible":true,"rotation":0},{"id":389,"gid":21,"x":80,"y":112,"width":32,"height":32,"visible":true,"rotation":0},{"id":390,"gid":21,"x":144,"y":112,"width":32,"height":32,"visible":true,"rotation":0},{"id":391,"gid":23,"x":304,"y":112,"width":32,"height":32,"visible":true,"rotation":0},{"id":392,"gid":23,"x":432,"y":112,"width":32,"height":32,"visible":true,"rotation":0},{"id":393,"gid":23,"x":80,"y":144,"width":32,"height":32,"visible":true,"rotation":0},{"id":394,"gid":23,"x":144,"y":144,"width":32,"height":32,"visible":true,"rotation":0},{"id":395,"gid":21,"x":176,"y":144,"width":32,"height":32,"visible":true,"rotation":0},{"id":396,"gid":23,"x":336,"y":144,"width":32,"height":32,"visible":true,"rotation":0},{"id":397,"gid":23,"x":400,"y":144,"width":32,"height":32,"visible":true,"rotation":0},{"id":398,"gid":21,"x":432,"y":144,"width":32,"height":32,"visible":true,"rotation":0},{"id":399,"gid":23,"x":48,"y":176,"width":32,"height":32,"visible":true,"rotation":0},{"id":400,"gid":21,"x":80,"y":176,"width":32,"height":32,"visible":true,"rotation":0},{"id":401,"gid":23,"x":368,"y":176,"width":32,"height":32,"visible":true,"rotation":0},{"id":402,"gid":23,"x":272,"y":208,"width":32,"height":32,"visible":true,"rotation":0},{"id":403,"gid":21,"x":304,"y":208,"width":32,"height":32,"visible":true,"rotation":0},{"id":404,"gid":23,"x":336,"y":208,"width":32,"height":32,"visible":true,"rotation":0},{"id":405,"gid":23,"x":400,"y":208,"width":32,"height":32,"visible":true,"rotation":0},{"id":406,"gid":21,"x":144,"y":240,"width":32,"height":32,"visible":true,"rotation":0},{"id":407,"gid":21,"x":400,"y":240,"width":32,"height":32,"visible":true,"rotation":0},{"id":408,"gid":23,"x":112,"y":304,"width":32,"height":32,"visible":true,"rotation":0},{"id":409,"gid":21,"x":208,"y":304,"width":32,"height":32,"visible":true,"rotation":0},{"id":410,"gid":21,"x":336,"y":304,"width":32,"height":32,"visible":true,"rotation":0},{"id":411,"gid":23,"x":80,"y":336,"width":32,"height":32,"visible":true,"rotation":0},{"id":412,"gid":21,"x":112,"y":336,"width":32,"height":32,"visible":true,"rotation":0},{"id":413,"gid":23,"x":144,"y":336,"width":32,"height":32,"visible":true,"rotation":0},{"id":414,"gid":23,"x":208,"y":336,"width":32,"height":32,"visible":true,"rotation":0},{"id":415,"gid":21,"x":240,"y":336,"width":32,"height":32,"visible":true,"rotation":0},{"id":416,"gid":21,"x":368,"y":336,"width":32,"height":32,"visible":true,"rotation":0},{"id":417,"gid":23,"x":400,"y":336,"width":32,"height":32,"visible":true,"rotation":0},{"id":418,"gid":21,"x":144,"y":368,"width":32,"height":32,"visible":true,"rotation":0},{"id":419,"gid":23,"x":176,"y":368,"width":32,"height":32,"visible":true,"rotation":0},{"id":420,"gid":21,"x":272,"y":368,"width":32,"height":32,"visible":true,"rotation":0},{"id":421,"gid":23,"x":304,"y":368,"width":32,"height":32,"visible":true,"rotation":0},{"id":422,"gid":21,"x":336,"y":368,"width":32,"height":32,"visible":true,"rotation":0},{"id":423,"gid":23,"x":368,"y":368,"width":32,"height":32,"visible":true,"rotation":0},{"id":424,"gid":21,"x":400,"y":368,"width":32,"height":32,"visible":true,"rotation":0}]},{"id":3,"type":"objectgroup","name":"walls-and-props","opacity":1,"visible":true,"draworder":"topdown","objects":[{"id":425,"gid":17,"x":288,"y":32,"width":16,"height":16,"visible":true,"rotation":0},{"id":426,"gid":7,"x":304,"y":32,"width":16,"height":32,"visible":true,"rotation":0},{"id":427,"gid":5,"x":320,"y":32,"width":16,"height":32,"visible":true,"rotation":0},{"id":428,"gid":6,"x":336,"y":32,"width":16,"height":32,"visible":true,"rotation":0},{"id":429,"gid":5,"x":352,"y":32,"width":16,"height":32,"visible":true,"rotation":0},{"id":430,"gid":6,"x":368,"y":32,"width":16,"height":32,"visible":true,"rotation":0},{"id":431,"gid":10,"x":384,"y":32,"width":16,"height":32,"visible":true,"rotation":0},{"id":432,"gid":18,"x":400,"y":32,"width":16,"height":16,"visible":true,"rotation":0},{"id":433,"gid":17,"x":64,"y":48,"width":16,"height":16,"visible":true,"rotation":0},{"id":434,"gid":7,"x":80,"y":48,"width":16,"height":32,"visible":true,"rotation":0},{"id":435,"gid":5,"x":96,"y":48,"width":16,"height":32,"visible":true,"rotation":0},{"id":436,"gid":6,"x":112,"y":48,"width":16,"height":32,"visible":true,"rotation":0},{"id":437,"gid":5,"x":128,"y":48,"width":16,"height":32,"visible":true,"rotation":0},{"id":438,"gid":10,"x":144,"y":48,"width":16,"height":32,"visible":true,"rotation":0},{"id":439,"gid":18,"x":160,"y":48,"width":16,"height":16,"visible":true,"rotation":0},{"id":440,"gid":17,"x":256,"y":48,"width":16,"height":16,"visible":true,"rotation":0},{"id":441,"gid":7,"x":272,"y":48,"width":16,"height":32,"visible":true,"rotation":0},{"id":442,"gid":11,"x":288,"y":48,"width":16,"height":32,"visible":true,"rotation":0},{"id":443,"gid":6,"x":400,"y":48,"width":16,"height":32,"visible":true,"rotation":0},{"id":444,"gid":5,"x":416,"y":48,"width":16,"height":32,"visible":true,"rotation":0},{"id":445,"gid":10,"x":432,"y":48,"width":16,"height":32,"visible":true,"rotation":0},{"id":446,"gid":18,"x":448,"y":48,"width":16,"height":16,"visible":true,"rotation":0},{"id":447,"gid":17,"x":32,"y":64,"width":16,"height":16,"visible":true,"rotation":0},{"id":448,"gid":7,"x":48,"y":64,"width":16,"height":32,"visible":true,"rotation":0},{"id":449,"gid":11,"x":64,"y":64,"width":16,"height":32,"visible":true,"rotation":0},{"id":450,"gid":5,"x":160,"y":64,"width":16,"height":32,"visible":true,"rotation":0},{"id":451,"gid":10,"x":176,"y":64,"width":16,"height":32,"visible":true,"rotation":0},{"id":452,"gid":18,"x":192,"y":64,"width":16,"height":16,"visible":true,"rotation":0},{"id":453,"gid":13,"x":260,"y":64,"width":12,"height":32,"visible":true,"rotation":0},{"id":454,"gid":14,"x":448,"y":64,"width":12,"height":32,"visible":true,"rotation":0},{"id":455,"gid":13,"x":36,"y":80,"width":12,"height":32,"visible":true,"rotation":0},{"id":456,"gid":14,"x":192,"y":80,"width":12,"height":32,"visible":true,"rotation":0},{"id":457,"gid":13,"x":260,"y":80,"width":12,"height":32,"visible":true,"rotation":0},{"id":458,"gid":10,"x":448,"y":80,"width":16,"height":32,"visible":true,"rotation":0},{"id":459,"gid":18,"x":464,"y":80,"width":16,"height":16,"visible":true,"rotation":0},{"id":460,"gid":17,"x":16,"y":96,"width":16,"height":16,"visible":true,"rotation":0},{"id":461,"gid":11,"x":32,"y":96,"width":16,"height":32,"visible":true,"rotation":0},{"id":462,"gid":14,"x":192,"y":96,"width":12,"height":32,"visible":true,"rotation":0},{"id":463,"gid":13,"x":260,"y":96,"width":12,"height":32,"visible":true,"rotation":0},{"id":464,"gid":12,"x":368,"y":96,"width":16,"height":32,"visible":true,"rotation":0},{"id":465,"gid":5,"x":384,"y":96,"width":16,"height":32,"visible":true,"rotation":0},{"id":466,"gid":14,"x":464,"y":96,"width":12,"height":32,"visible":true,"rotation":0},{"id":467,"gid":13,"x":20,"y":112,"width":12,"height":32,"visible":true,"rotation":0},{"id":468,"gid":12,"x":112,"y":112,"width":16,"height":32,"visible":true,"rotation":0},{"id":469,"gid":5,"x":128,"y":112,"width":16,"height":32,"visible":true,"rotation":0},{"id":470,"gid":5,"x":192,"y":112,"width":16,"height":32,"visible":true,"rotation":0},{"id":471,"gid":6,"x":208,"y":112,"width":16,"height":32,"visible":true,"rotation":0},{"id":472,"gid":5,"x":224,"y":112,"width":16,"height":32,"visible":true,"rotation":0},{"id":473,"gid":6,"x":240,"y":112,"width":16,"height":32,"visible":true,"rotation":0},{"id":474,"gid":11,"x":256,"y":112,"width":16,"height":32,"visible":true,"rotation":0},{"id":475,"gid":14,"x":368,"y":112,"width":12,"height":32,"visible":true,"rotation":0},{"id":476,"gid":13,"x":388,"y":112,"width":12,"height":32,"visible":true,"rotation":0},{"id":477,"gid":14,"x":464,"y":112,"width":12,"height":32,"visible":true,"rotation":0},{"id":478,"gid":13,"x":20,"y":128,"width":12,"height":32,"visible":true,"rotation":0},{"id":479,"gid":14,"x":112,"y":128,"width":12,"height":32,"visible":true,"rotation":0},{"id":480,"gid":13,"x":132,"y":128,"width":12,"height":32,"visible":true,"rotation":0},{"id":481,"gid":6,"x":368,"y":128,"width":16,"height":32,"visible":true,"rotation":0},{"id":482,"gid":11,"x":384,"y":128,"width":16,"height":32,"visible":true,"rotation":0},{"id":483,"gid":14,"x":464,"y":128,"width":12,"height":32,"visible":true,"rotation":0},{"id":484,"gid":13,"x":20,"y":144,"width":12,"height":32,"visible":true,"rotation":0},{"id":485,"gid":6,"x":112,"y":144,"width":16,"height":32,"visible":true,"rotation":0},{"id":486,"gid":11,"x":128,"y":144,"width":16,"height":32,"visible":true,"rotation":0},{"id":487,"gid":14,"x":464,"y":144,"width":12,"height":32,"visible":true,"rotation":0},{"id":488,"gid":13,"x":20,"y":160,"width":12,"height":32,"visible":true,"rotation":0},{"id":489,"gid":14,"x":464,"y":160,"width":12,"height":32,"visible":true,"rotation":0},{"id":490,"gid":19,"x":16,"y":176,"width":16,"height":16,"visible":true,"rotation":0},{"id":491,"gid":7,"x":32,"y":176,"width":16,"height":32,"visible":true,"rotation":0},{"id":492,"gid":12,"x":208,"y":176,"width":16,"height":32,"visible":true,"rotation":0},{"id":493,"gid":5,"x":224,"y":176,"width":16,"height":32,"visible":true,"rotation":0},{"id":494,"gid":6,"x":240,"y":176,"width":16,"height":32,"visible":true,"rotation":0},{"id":495,"gid":5,"x":256,"y":176,"width":16,"height":32,"visible":true,"rotation":0},{"id":496,"gid":11,"x":448,"y":176,"width":16,"height":32,"visible":true,"rotation":0},{"id":497,"gid":20,"x":464,"y":176,"width":16,"height":16,"visible":true,"rotation":0},{"id":498,"gid":13,"x":36,"y":192,"width":12,"height":32,"visible":true,"rotation":0},{"id":499,"gid":14,"x":208,"y":192,"width":12,"height":32,"visible":true,"rotation":0},{"id":500,"gid":13,"x":260,"y":192,"width":12,"height":32,"visible":true,"rotation":0},{"id":501,"gid":14,"x":448,"y":192,"width":12,"height":32,"visible":true,"rotation":0},{"id":502,"gid":19,"x":32,"y":208,"width":16,"height":16,"visible":true,"rotation":0},{"id":503,"gid":7,"x":48,"y":208,"width":16,"height":32,"visible":true,"rotation":0},{"id":504,"gid":5,"x":64,"y":208,"width":16,"height":32,"visible":true,"rotation":0},{"id":505,"gid":6,"x":80,"y":208,"width":16,"height":32,"visible":true,"rotation":0},{"id":506,"gid":5,"x":96,"y":208,"width":16,"height":32,"visible":true,"rotation":0},{"id":507,"gid":6,"x":112,"y":208,"width":16,"height":32,"visible":true,"rotation":0},{"id":508,"gid":5,"x":128,"y":208,"width":16,"height":32,"visible":true,"rotation":0},{"id":509,"gid":14,"x":208,"y":208,"width":12,"height":32,"visible":true,"rotation":0},{"id":510,"gid":13,"x":260,"y":208,"width":12,"height":32,"visible":true,"rotation":0},{"id":511,"gid":14,"x":448,"y":208,"width":12,"height":32,"visible":true,"rotation":0},{"id":512,"gid":13,"x":132,"y":224,"width":12,"height":32,"visible":true,"rotation":0},{"id":513,"gid":14,"x":208,"y":224,"width":12,"height":32,"visible":true,"rotation":0},{"id":514,"gid":19,"x":256,"y":224,"width":16,"height":16,"visible":true,"rotation":0},{"id":515,"gid":7,"x":272,"y":224,"width":16,"height":32,"visible":true,"rotation":0},{"id":516,"gid":5,"x":288,"y":224,"width":16,"height":32,"visible":true,"rotation":0},{"id":517,"gid":6,"x":304,"y":224,"width":16,"height":32,"visible":true,"rotation":0},{"id":518,"gid":5,"x":320,"y":224,"width":16,"height":32,"visible":true,"rotation":0},{"id":519,"gid":6,"x":336,"y":224,"width":16,"height":32,"visible":true,"rotation":0},{"id":520,"gid":5,"x":352,"y":224,"width":16,"height":32,"visible":true,"rotation":0},{"id":521,"gid":12,"x":432,"y":224,"width":16,"height":32,"visible":true,"rotation":0},{"id":522,"gid":20,"x":448,"y":224,"width":16,"height":16,"visible":true,"rotation":0},{"id":523,"gid":13,"x":132,"y":240,"width":12,"height":32,"visible":true,"rotation":0},{"id":524,"gid":14,"x":208,"y":240,"width":12,"height":32,"visible":true,"rotation":0},{"id":525,"gid":13,"x":356,"y":240,"width":12,"height":32,"visible":true,"rotation":0},{"id":526,"gid":14,"x":432,"y":240,"width":12,"height":32,"visible":true,"rotation":0},{"id":527,"gid":17,"x":96,"y":256,"width":16,"height":16,"visible":true,"rotation":0},{"id":528,"gid":7,"x":112,"y":256,"width":16,"height":32,"visible":true,"rotation":0},{"id":529,"gid":11,"x":128,"y":256,"width":16,"height":32,"visible":true,"rotation":0},{"id":530,"gid":6,"x":208,"y":256,"width":16,"height":32,"visible":true,"rotation":0},{"id":531,"gid":5,"x":224,"y":256,"width":16,"height":32,"visible":true,"rotation":0},{"id":532,"gid":6,"x":240,"y":256,"width":16,"height":32,"visible":true,"rotation":0},{"id":533,"gid":5,"x":256,"y":256,"width":16,"height":32,"visible":true,"rotation":0},{"id":534,"gid":10,"x":272,"y":256,"width":16,"height":32,"visible":true,"rotation":0},{"id":535,"gid":18,"x":288,"y":256,"width":16,"height":16,"visible":true,"rotation":0},{"id":536,"gid":17,"x":320,"y":256,"width":16,"height":16,"visible":true,"rotation":0},{"id":537,"gid":7,"x":336,"y":256,"width":16,"height":32,"visible":true,"rotation":0},{"id":538,"gid":11,"x":352,"y":256,"width":16,"height":32,"visible":true,"rotation":0},{"id":539,"gid":14,"x":432,"y":256,"width":12,"height":32,"visible":true,"rotation":0},{"id":540,"gid":13,"x":100,"y":272,"width":12,"height":32,"visible":true,"rotation":0},{"id":541,"gid":14,"x":288,"y":272,"width":12,"height":32,"visible":true,"rotation":0},{"id":542,"gid":13,"x":324,"y":272,"width":12,"height":32,"visible":true,"rotation":0},{"id":543,"gid":14,"x":432,"y":272,"width":12,"height":32,"visible":true,"rotation":0},{"id":544,"gid":17,"x":64,"y":288,"width":16,"height":16,"visible":true,"rotation":0},{"id":545,"gid":7,"x":80,"y":288,"width":16,"height":32,"visible":true,"rotation":0},{"id":546,"gid":11,"x":96,"y":288,"width":16,"height":32,"visible":true,"rotation":0},{"id":547,"gid":14,"x":288,"y":288,"width":12,"height":32,"visible":true,"rotation":0},{"id":548,"gid":13,"x":324,"y":288,"width":12,"height":32,"visible":true,"rotation":0},{"id":549,"gid":14,"x":432,"y":288,"width":12,"height":32,"visible":true,"rotation":0},{"id":550,"gid":13,"x":68,"y":304,"width":12,"height":32,"visible":true,"rotation":0},{"id":551,"gid":5,"x":288,"y":304,"width":16,"height":32,"visible":true,"rotation":0},{"id":552,"gid":6,"x":304,"y":304,"width":16,"height":32,"visible":true,"rotation":0},{"id":553,"gid":11,"x":320,"y":304,"width":16,"height":32,"visible":true,"rotation":0},{"id":554,"gid":14,"x":432,"y":304,"width":12,"height":32,"visible":true,"rotation":0},{"id":555,"gid":13,"x":68,"y":320,"width":12,"height":32,"visible":true,"rotation":0},{"id":556,"gid":14,"x":432,"y":320,"width":12,"height":32,"visible":true,"rotation":0},{"id":557,"gid":13,"x":68,"y":336,"width":12,"height":32,"visible":true,"rotation":0},{"id":558,"gid":14,"x":432,"y":336,"width":12,"height":32,"visible":true,"rotation":0},{"id":559,"gid":13,"x":68,"y":352,"width":12,"height":32,"visible":true,"rotation":0},{"id":560,"gid":11,"x":224,"y":352,"width":16,"height":32,"visible":true,"rotation":0},{"id":561,"gid":6,"x":240,"y":352,"width":16,"height":32,"visible":true,"rotation":0},{"id":562,"gid":5,"x":256,"y":352,"width":16,"height":32,"visible":true,"rotation":0},{"id":563,"gid":14,"x":432,"y":352,"width":12,"height":32,"visible":true,"rotation":0},{"id":564,"gid":13,"x":68,"y":368,"width":12,"height":32,"visible":true,"rotation":0},{"id":565,"gid":5,"x":224,"y":368,"width":16,"height":32,"visible":true,"rotation":0},{"id":566,"gid":6,"x":240,"y":368,"width":16,"height":32,"visible":true,"rotation":0},{"id":567,"gid":11,"x":256,"y":368,"width":16,"height":32,"visible":true,"rotation":0},{"id":568,"gid":14,"x":432,"y":368,"width":12,"height":32,"visible":true,"rotation":0},{"id":569,"gid":19,"x":64,"y":384,"width":16,"height":16,"visible":true,"rotation":0},{"id":570,"gid":7,"x":80,"y":384,"width":16,"height":32,"visible":true,"rotation":0},{"id":571,"gid":5,"x":96,"y":384,"width":16,"height":32,"visible":true,"rotation":0},{"id":572,"gid":11,"x":352,"y":384,"width":16,"height":32,"visible":true,"rotation":0},{"id":573,"gid":6,"x":368,"y":384,"width":16,"height":32,"visible":true,"rotation":0},{"id":574,"gid":5,"x":384,"y":384,"width":16,"height":32,"visible":true,"rotation":0},{"id":575,"gid":6,"x":400,"y":384,"width":16,"height":32,"visible":true,"rotation":0},{"id":576,"gid":10,"x":416,"y":384,"width":16,"height":32,"visible":true,"rotation":0},{"id":577,"gid":20,"x":432,"y":384,"width":16,"height":16,"visible":true,"rotation":0},{"id":578,"gid":19,"x":96,"y":400,"width":16,"height":16,"visible":true,"rotation":0},{"id":579,"gid":7,"x":112,"y":400,"width":16,"height":32,"visible":true,"rotation":0},{"id":580,"gid":5,"x":128,"y":400,"width":16,"height":32,"visible":true,"rotation":0},{"id":581,"gid":6,"x":144,"y":400,"width":16,"height":32,"visible":true,"rotation":0},{"id":582,"gid":5,"x":160,"y":400,"width":16,"height":32,"visible":true,"rotation":0},{"id":583,"gid":6,"x":176,"y":400,"width":16,"height":32,"visible":true,"rotation":0},{"id":584,"gid":5,"x":192,"y":400,"width":16,"height":32,"visible":true,"rotation":0},{"id":585,"gid":6,"x":208,"y":400,"width":16,"height":32,"visible":true,"rotation":0},{"id":586,"gid":5,"x":224,"y":400,"width":16,"height":32,"visible":true,"rotation":0},{"id":587,"gid":6,"x":240,"y":400,"width":16,"height":32,"visible":true,"rotation":0},{"id":588,"gid":5,"x":256,"y":400,"width":16,"height":32,"visible":true,"rotation":0},{"id":589,"gid":6,"x":272,"y":400,"width":16,"height":32,"visible":true,"rotation":0},{"id":590,"gid":5,"x":288,"y":400,"width":16,"height":32,"visible":true,"rotation":0},{"id":591,"gid":6,"x":304,"y":400,"width":16,"height":32,"visible":true,"rotation":0},{"id":592,"gid":5,"x":320,"y":400,"width":16,"height":32,"visible":true,"rotation":0},{"id":593,"gid":10,"x":336,"y":400,"width":16,"height":32,"visible":true,"rotation":0},{"id":594,"gid":20,"x":352,"y":400,"width":16,"height":16,"visible":true,"rotation":0},{"id":595,"gid":16,"x":304,"y":8,"width":16,"height":8,"visible":true,"rotation":0},{"id":596,"gid":15,"x":320,"y":8,"width":16,"height":8,"visible":true,"rotation":0},{"id":597,"gid":16,"x":336,"y":8,"width":16,"height":8,"visible":true,"rotation":0},{"id":598,"gid":15,"x":352,"y":8,"width":16,"height":8,"visible":true,"rotation":0},{"id":599,"gid":16,"x":368,"y":8,"width":16,"height":8,"visible":true,"rotation":0},{"id":600,"gid":15,"x":384,"y":8,"width":16,"height":8,"visible":true,"rotation":0},{"id":601,"gid":16,"x":80,"y":24,"width":16,"height":8,"visible":true,"rotation":0},{"id":602,"gid":15,"x":96,"y":24,"width":16,"height":8,"visible":true,"rotation":0},{"id":603,"gid":16,"x":112,"y":24,"width":16,"height":8,"visible":true,"rotation":0},{"id":604,"gid":15,"x":128,"y":24,"width":16,"height":8,"visible":true,"rotation":0},{"id":605,"gid":16,"x":144,"y":24,"width":16,"height":8,"visible":true,"rotation":0},{"id":606,"gid":16,"x":272,"y":24,"width":16,"height":8,"visible":true,"rotation":0},{"id":607,"gid":15,"x":288,"y":24,"width":16,"height":8,"visible":true,"rotation":0},{"id":608,"gid":16,"x":400,"y":24,"width":16,"height":8,"visible":true,"rotation":0},{"id":609,"gid":15,"x":416,"y":24,"width":16,"height":8,"visible":true,"rotation":0},{"id":610,"gid":16,"x":432,"y":24,"width":16,"height":8,"visible":true,"rotation":0},{"id":611,"gid":16,"x":48,"y":40,"width":16,"height":8,"visible":true,"rotation":0},{"id":612,"gid":15,"x":64,"y":40,"width":16,"height":8,"visible":true,"rotation":0},{"id":613,"gid":15,"x":160,"y":40,"width":16,"height":8,"visible":true,"rotation":0},{"id":614,"gid":16,"x":176,"y":40,"width":16,"height":8,"visible":true,"rotation":0},{"id":615,"gid":15,"x":448,"y":56,"width":16,"height":8,"visible":true,"rotation":0},{"id":616,"gid":15,"x":32,"y":72,"width":16,"height":8,"visible":true,"rotation":0},{"id":617,"gid":16,"x":368,"y":72,"width":16,"height":8,"visible":true,"rotation":0},{"id":618,"gid":15,"x":384,"y":72,"width":16,"height":8,"visible":true,"rotation":0},{"id":619,"gid":16,"x":112,"y":88,"width":16,"height":8,"visible":true,"rotation":0},{"id":620,"gid":15,"x":128,"y":88,"width":16,"height":8,"visible":true,"rotation":0},{"id":621,"gid":15,"x":192,"y":88,"width":16,"height":8,"visible":true,"rotation":0},{"id":622,"gid":16,"x":208,"y":88,"width":16,"height":8,"visible":true,"rotation":0},{"id":623,"gid":15,"x":224,"y":88,"width":16,"height":8,"visible":true,"rotation":0},{"id":624,"gid":16,"x":240,"y":88,"width":16,"height":8,"visible":true,"rotation":0},{"id":625,"gid":15,"x":256,"y":88,"width":16,"height":8,"visible":true,"rotation":0},{"id":626,"gid":16,"x":368,"y":104,"width":16,"height":8,"visible":true,"rotation":0},{"id":627,"gid":15,"x":384,"y":104,"width":16,"height":8,"visible":true,"rotation":0},{"id":628,"gid":16,"x":112,"y":120,"width":16,"height":8,"visible":true,"rotation":0},{"id":629,"gid":15,"x":128,"y":120,"width":16,"height":8,"visible":true,"rotation":0},{"id":630,"gid":15,"x":32,"y":152,"width":16,"height":8,"visible":true,"rotation":0},{"id":631,"gid":16,"x":208,"y":152,"width":16,"height":8,"visible":true,"rotation":0},{"id":632,"gid":15,"x":224,"y":152,"width":16,"height":8,"visible":true,"rotation":0},{"id":633,"gid":16,"x":240,"y":152,"width":16,"height":8,"visible":true,"rotation":0},{"id":634,"gid":15,"x":256,"y":152,"width":16,"height":8,"visible":true,"rotation":0},{"id":635,"gid":15,"x":448,"y":152,"width":16,"height":8,"visible":true,"rotation":0},{"id":636,"gid":16,"x":48,"y":184,"width":16,"height":8,"visible":true,"rotation":0},{"id":637,"gid":15,"x":64,"y":184,"width":16,"height":8,"visible":true,"rotation":0},{"id":638,"gid":16,"x":80,"y":184,"width":16,"height":8,"visible":true,"rotation":0},{"id":639,"gid":15,"x":96,"y":184,"width":16,"height":8,"visible":true,"rotation":0},{"id":640,"gid":16,"x":112,"y":184,"width":16,"height":8,"visible":true,"rotation":0},{"id":641,"gid":15,"x":128,"y":184,"width":16,"height":8,"visible":true,"rotation":0},{"id":642,"gid":16,"x":272,"y":200,"width":16,"height":8,"visible":true,"rotation":0},{"id":643,"gid":15,"x":288,"y":200,"width":16,"height":8,"visible":true,"rotation":0},{"id":644,"gid":16,"x":304,"y":200,"width":16,"height":8,"visible":true,"rotation":0},{"id":645,"gid":15,"x":320,"y":200,"width":16,"height":8,"visible":true,"rotation":0},{"id":646,"gid":16,"x":336,"y":200,"width":16,"height":8,"visible":true,"rotation":0},{"id":647,"gid":15,"x":352,"y":200,"width":16,"height":8,"visible":true,"rotation":0},{"id":648,"gid":16,"x":432,"y":200,"width":16,"height":8,"visible":true,"rotation":0},{"id":649,"gid":16,"x":112,"y":232,"width":16,"height":8,"visible":true,"rotation":0},{"id":650,"gid":15,"x":128,"y":232,"width":16,"height":8,"visible":true,"rotation":0},{"id":651,"gid":16,"x":208,"y":232,"width":16,"height":8,"visible":true,"rotation":0},{"id":652,"gid":15,"x":224,"y":232,"width":16,"height":8,"visible":true,"rotation":0},{"id":653,"gid":16,"x":240,"y":232,"width":16,"height":8,"visible":true,"rotation":0},{"id":654,"gid":15,"x":256,"y":232,"width":16,"height":8,"visible":true,"rotation":0},{"id":655,"gid":16,"x":272,"y":232,"width":16,"height":8,"visible":true,"rotation":0},{"id":656,"gid":16,"x":336,"y":232,"width":16,"height":8,"visible":true,"rotation":0},{"id":657,"gid":15,"x":352,"y":232,"width":16,"height":8,"visible":true,"rotation":0},{"id":658,"gid":16,"x":80,"y":264,"width":16,"height":8,"visible":true,"rotation":0},{"id":659,"gid":15,"x":96,"y":264,"width":16,"height":8,"visible":true,"rotation":0},{"id":660,"gid":15,"x":288,"y":280,"width":16,"height":8,"visible":true,"rotation":0},{"id":661,"gid":16,"x":304,"y":280,"width":16,"height":8,"visible":true,"rotation":0},{"id":662,"gid":15,"x":320,"y":280,"width":16,"height":8,"visible":true,"rotation":0},{"id":663,"gid":15,"x":224,"y":328,"width":16,"height":8,"visible":true,"rotation":0},{"id":664,"gid":16,"x":240,"y":328,"width":16,"height":8,"visible":true,"rotation":0},{"id":665,"gid":15,"x":256,"y":328,"width":16,"height":8,"visible":true,"rotation":0},{"id":666,"gid":15,"x":224,"y":344,"width":16,"height":8,"visible":true,"rotation":0},{"id":667,"gid":16,"x":240,"y":344,"width":16,"height":8,"visible":true,"rotation":0},{"id":668,"gid":15,"x":256,"y":344,"width":16,"height":8,"visible":true,"rotation":0},{"id":669,"gid":16,"x":80,"y":360,"width":16,"height":8,"visible":true,"rotation":0},{"id":670,"gid":15,"x":96,"y":360,"width":16,"height":8,"visible":true,"rotation":0},{"id":671,"gid":15,"x":352,"y":360,"width":16,"height":8,"visible":true,"rotation":0},{"id":672,"gid":16,"x":368,"y":360,"width":16,"height":8,"visible":true,"rotation":0},{"id":673,"gid":15,"x":384,"y":360,"width":16,"height":8,"visible":true,"rotation":0},{"id":674,"gid":16,"x":400,"y":360,"width":16,"height":8,"visible":true,"rotation":0},{"id":675,"gid":15,"x":416,"y":360,"width":16,"height":8,"visible":true,"rotation":0},{"id":676,"gid":16,"x":112,"y":376,"width":16,"height":8,"visible":true,"rotation":0},{"id":677,"gid":15,"x":128,"y":376,"width":16,"height":8,"visible":true,"rotation":0},{"id":678,"gid":16,"x":144,"y":376,"width":16,"height":8,"visible":true,"rotation":0},{"id":679,"gid":15,"x":160,"y":376,"width":16,"height":8,"visible":true,"rotation":0},{"id":680,"gid":16,"x":176,"y":376,"width":16,"height":8,"visible":true,"rotation":0},{"id":681,"gid":15,"x":192,"y":376,"width":16,"height":8,"visible":true,"rotation":0},{"id":682,"gid":16,"x":208,"y":376,"width":16,"height":8,"visible":true,"rotation":0},{"id":683,"gid":15,"x":224,"y":376,"width":16,"height":8,"visible":true,"rotation":0},{"id":684,"gid":16,"x":240,"y":376,"width":16,"height":8,"visible":true,"rotation":0},{"id":685,"gid":15,"x":256,"y":376,"width":16,"height":8,"visible":true,"rotation":0},{"id":686,"gid":16,"x":272,"y":376,"width":16,"height":8,"visible":true,"rotation":0},{"id":687,"gid":15,"x":288,"y":376,"width":16,"height":8,"visible":true,"rotation":0},{"id":688,"gid":16,"x":304,"y":376,"width":16,"height":8,"visible":true,"rotation":0},{"id":689,"gid":15,"x":320,"y":376,"width":16,"height":8,"visible":true,"rotation":0},{"id":690,"gid":16,"x":336,"y":376,"width":16,"height":8,"visible":true,"rotation":0},{"id":691,"gid":25,"x":56,"y":96,"width":20,"height":24,"visible":true,"rotation":0},{"id":692,"gid":26,"x":152,"y":176,"width":24,"height":24,"visible":true,"rotation":0},{"id":693,"gid":25,"x":280,"y":80,"width":20,"height":24,"visible":true,"rotation":0},{"id":694,"gid":25,"x":408,"y":176,"width":20,"height":24,"visible":true,"rotation":0},{"id":695,"gid":26,"x":312,"y":192,"width":24,"height":24,"visible":true,"rotation":0},{"id":696,"gid":26,"x":120,"y":304,"width":24,"height":24,"visible":true,"rotation":0},{"id":697,"gid":25,"x":88,"y":336,"width":20,"height":24,"visible":true,"rotation":0},{"id":698,"gid":25,"x":376,"y":336,"width":20,"height":24,"visible":true,"rotation":0},{"id":699,"gid":26,"x":280,"y":336,"width":24,"height":24,"visible":true,"rotation":0},{"id":700,"gid":25,"x":168,"y":272,"width":20,"height":24,"visible":true,"rotation":0},{"id":701,"gid":26,"x":328,"y":80,"width":24,"height":24,"visible":true,"rotation":0},{"id":702,"gid":26,"x":408,"y":288,"width":24,"height":24,"visible":true,"rotation":0},{"id":703,"gid":27,"x":104,"y":128,"width":32,"height":32,"visible":true,"rotation":0},{"id":704,"gid":27,"x":360,"y":112,"width":32,"height":32,"visible":true,"rotation":0},{"id":705,"gid":28,"x":192,"y":144,"width":32,"height":32,"visible":true,"rotation":0},{"id":706,"gid":28,"x":368,"y":272,"width":32,"height":32,"visible":true,"rotation":0}]},{"id":4,"name":"collision","type":"objectgroup","visible":false,"opacity":1,"objects":[{"id":707,"x":0,"y":0,"width":16,"height":16,"visible":true},{"id":708,"x":16,"y":0,"width":16,"height":16,"visible":true},{"id":709,"x":32,"y":0,"width":16,"height":16,"visible":true},{"id":710,"x":48,"y":0,"width":16,"height":16,"visible":true},{"id":711,"x":64,"y":0,"width":16,"height":16,"visible":true},{"id":712,"x":80,"y":0,"width":16,"height":16,"visible":true},{"id":713,"x":96,"y":0,"width":16,"height":16,"visible":true},{"id":714,"x":112,"y":0,"width":16,"height":16,"visible":true},{"id":715,"x":128,"y":0,"width":16,"height":16,"visible":true},{"id":716,"x":144,"y":0,"width":16,"height":16,"visible":true},{"id":717,"x":160,"y":0,"width":16,"height":16,"visible":true},{"id":718,"x":176,"y":0,"width":16,"height":16,"visible":true},{"id":719,"x":192,"y":0,"width":16,"height":16,"visible":true},{"id":720,"x":208,"y":0,"width":16,"height":16,"visible":true},{"id":721,"x":224,"y":0,"width":16,"height":16,"visible":true},{"id":722,"x":240,"y":0,"width":16,"height":16,"visible":true},{"id":723,"x":256,"y":0,"width":16,"height":16,"visible":true},{"id":724,"x":272,"y":0,"width":16,"height":16,"visible":true},{"id":725,"x":288,"y":0,"width":16,"height":16,"visible":true},{"id":726,"x":304,"y":0,"width":16,"height":16,"visible":true},{"id":727,"x":320,"y":0,"width":16,"height":16,"visible":true},{"id":728,"x":336,"y":0,"width":16,"height":16,"visible":true},{"id":729,"x":352,"y":0,"width":16,"height":16,"visible":true},{"id":730,"x":368,"y":0,"width":16,"height":16,"visible":true},{"id":731,"x":384,"y":0,"width":16,"height":16,"visible":true},{"id":732,"x":400,"y":0,"width":16,"height":16,"visible":true},{"id":733,"x":416,"y":0,"width":16,"height":16,"visible":true},{"id":734,"x":432,"y":0,"width":16,"height":16,"visible":true},{"id":735,"x":448,"y":0,"width":16,"height":16,"visible":true},{"id":736,"x":464,"y":0,"width":16,"height":16,"visible":true},{"id":737,"x":480,"y":0,"width":16,"height":16,"visible":true},{"id":738,"x":496,"y":0,"width":16,"height":16,"visible":true},{"id":739,"x":0,"y":16,"width":16,"height":16,"visible":true},{"id":740,"x":16,"y":16,"width":16,"height":16,"visible":true},{"id":741,"x":32,"y":16,"width":16,"height":16,"visible":true},{"id":742,"x":48,"y":16,"width":16,"height":16,"visible":true},{"id":743,"x":64,"y":16,"width":16,"height":16,"visible":true},{"id":744,"x":80,"y":16,"width":16,"height":16,"visible":true},{"id":745,"x":96,"y":16,"width":16,"height":16,"visible":true},{"id":746,"x":112,"y":16,"width":16,"height":16,"visible":true},{"id":747,"x":128,"y":16,"width":16,"height":16,"visible":true},{"id":748,"x":144,"y":16,"width":16,"height":16,"visible":true},{"id":749,"x":160,"y":16,"width":16,"height":16,"visible":true},{"id":750,"x":176,"y":16,"width":16,"height":16,"visible":true},{"id":751,"x":192,"y":16,"width":16,"height":16,"visible":true},{"id":752,"x":208,"y":16,"width":16,"height":16,"visible":true},{"id":753,"x":224,"y":16,"width":16,"height":16,"visible":true},{"id":754,"x":240,"y":16,"width":16,"height":16,"visible":true},{"id":755,"x":256,"y":16,"width":16,"height":16,"visible":true},{"id":756,"x":272,"y":16,"width":16,"height":16,"visible":true},{"id":757,"x":288,"y":16,"width":16,"height":16,"visible":true},{"id":758,"x":304,"y":16,"width":16,"height":16,"visible":true},{"id":759,"x":320,"y":16,"width":16,"height":16,"visible":true},{"id":760,"x":336,"y":16,"width":16,"height":16,"visible":true},{"id":761,"x":352,"y":16,"width":16,"height":16,"visible":true},{"id":762,"x":368,"y":16,"width":16,"height":16,"visible":true},{"id":763,"x":384,"y":16,"width":16,"height":16,"visible":true},{"id":764,"x":400,"y":16,"width":16,"height":16,"visible":true},{"id":765,"x":416,"y":16,"width":16,"height":16,"visible":true},{"id":766,"x":432,"y":16,"width":16,"height":16,"visible":true},{"id":767,"x":448,"y":16,"width":16,"height":16,"visible":true},{"id":768,"x":464,"y":16,"width":16,"height":16,"visible":true},{"id":769,"x":480,"y":16,"width":16,"height":16,"visible":true},{"id":770,"x":496,"y":16,"width":16,"height":16,"visible":true},{"id":771,"x":0,"y":32,"width":16,"height":16,"visible":true},{"id":772,"x":16,"y":32,"width":16,"height":16,"visible":true},{"id":773,"x":32,"y":32,"width":16,"height":16,"visible":true},{"id":774,"x":48,"y":32,"width":16,"height":16,"visible":true},{"id":775,"x":64,"y":32,"width":16,"height":16,"visible":true},{"id":776,"x":80,"y":32,"width":16,"height":16,"visible":true},{"id":777,"x":96,"y":32,"width":16,"height":16,"visible":true},{"id":778,"x":112,"y":32,"width":16,"height":16,"visible":true},{"id":779,"x":128,"y":32,"width":16,"height":16,"visible":true},{"id":780,"x":144,"y":32,"width":16,"height":16,"visible":true},{"id":781,"x":160,"y":32,"width":16,"height":16,"visible":true},{"id":782,"x":176,"y":32,"width":16,"height":16,"visible":true},{"id":783,"x":192,"y":32,"width":16,"height":16,"visible":true},{"id":784,"x":208,"y":32,"width":16,"height":16,"visible":true},{"id":785,"x":224,"y":32,"width":16,"height":16,"visible":true},{"id":786,"x":240,"y":32,"width":16,"height":16,"visible":true},{"id":787,"x":256,"y":32,"width":16,"height":16,"visible":true},{"id":788,"x":272,"y":32,"width":16,"height":16,"visible":true},{"id":789,"x":288,"y":32,"width":16,"height":16,"visible":true},{"id":790,"x":400,"y":32,"width":16,"height":16,"visible":true},{"id":791,"x":416,"y":32,"width":16,"height":16,"visible":true},{"id":792,"x":432,"y":32,"width":16,"height":16,"visible":true},{"id":793,"x":448,"y":32,"width":16,"height":16,"visible":true},{"id":794,"x":464,"y":32,"width":16,"height":16,"visible":true},{"id":795,"x":480,"y":32,"width":16,"height":16,"visible":true},{"id":796,"x":496,"y":32,"width":16,"height":16,"visible":true},{"id":797,"x":0,"y":48,"width":16,"height":16,"visible":true},{"id":798,"x":16,"y":48,"width":16,"height":16,"visible":true},{"id":799,"x":32,"y":48,"width":16,"height":16,"visible":true},{"id":800,"x":48,"y":48,"width":16,"height":16,"visible":true},{"id":801,"x":64,"y":48,"width":16,"height":16,"visible":true},{"id":802,"x":160,"y":48,"width":16,"height":16,"visible":true},{"id":803,"x":176,"y":48,"width":16,"height":16,"visible":true},{"id":804,"x":192,"y":48,"width":16,"height":16,"visible":true},{"id":805,"x":208,"y":48,"width":16,"height":16,"visible":true},{"id":806,"x":224,"y":48,"width":16,"height":16,"visible":true},{"id":807,"x":240,"y":48,"width":16,"height":16,"visible":true},{"id":808,"x":256,"y":48,"width":16,"height":16,"visible":true},{"id":809,"x":448,"y":48,"width":16,"height":16,"visible":true},{"id":810,"x":464,"y":48,"width":16,"height":16,"visible":true},{"id":811,"x":480,"y":48,"width":16,"height":16,"visible":true},{"id":812,"x":496,"y":48,"width":16,"height":16,"visible":true},{"id":813,"x":0,"y":64,"width":16,"height":16,"visible":true},{"id":814,"x":16,"y":64,"width":16,"height":16,"visible":true},{"id":815,"x":32,"y":64,"width":16,"height":16,"visible":true},{"id":816,"x":192,"y":64,"width":16,"height":16,"visible":true},{"id":817,"x":208,"y":64,"width":16,"height":16,"visible":true},{"id":818,"x":224,"y":64,"width":16,"height":16,"visible":true},{"id":819,"x":240,"y":64,"width":16,"height":16,"visible":true},{"id":820,"x":256,"y":64,"width":16,"height":16,"visible":true},{"id":821,"x":448,"y":64,"width":16,"height":16,"visible":true},{"id":822,"x":464,"y":64,"width":16,"height":16,"visible":true},{"id":823,"x":480,"y":64,"width":16,"height":16,"visible":true},{"id":824,"x":496,"y":64,"width":16,"height":16,"visible":true},{"id":825,"x":0,"y":80,"width":16,"height":16,"visible":true},{"id":826,"x":16,"y":80,"width":16,"height":16,"visible":true},{"id":827,"x":32,"y":80,"width":16,"height":16,"visible":true},{"id":828,"x":192,"y":80,"width":16,"height":16,"visible":true},{"id":829,"x":208,"y":80,"width":16,"height":16,"visible":true},{"id":830,"x":224,"y":80,"width":16,"height":16,"visible":true},{"id":831,"x":240,"y":80,"width":16,"height":16,"visible":true},{"id":832,"x":256,"y":80,"width":16,"height":16,"visible":true},{"id":833,"x":368,"y":80,"width":16,"height":16,"visible":true},{"id":834,"x":384,"y":80,"width":16,"height":16,"visible":true},{"id":835,"x":464,"y":80,"width":16,"height":16,"visible":true},{"id":836,"x":480,"y":80,"width":16,"height":16,"visible":true},{"id":837,"x":496,"y":80,"width":16,"height":16,"visible":true},{"id":838,"x":0,"y":96,"width":16,"height":16,"visible":true},{"id":839,"x":16,"y":96,"width":16,"height":16,"visible":true},{"id":840,"x":112,"y":96,"width":16,"height":16,"visible":true},{"id":841,"x":128,"y":96,"width":16,"height":16,"visible":true},{"id":842,"x":192,"y":96,"width":16,"height":16,"visible":true},{"id":843,"x":208,"y":96,"width":16,"height":16,"visible":true},{"id":844,"x":224,"y":96,"width":16,"height":16,"visible":true},{"id":845,"x":240,"y":96,"width":16,"height":16,"visible":true},{"id":846,"x":256,"y":96,"width":16,"height":16,"visible":true},{"id":847,"x":368,"y":96,"width":16,"height":16,"visible":true},{"id":848,"x":384,"y":96,"width":16,"height":16,"visible":true},{"id":849,"x":464,"y":96,"width":16,"height":16,"visible":true},{"id":850,"x":480,"y":96,"width":16,"height":16,"visible":true},{"id":851,"x":496,"y":96,"width":16,"height":16,"visible":true},{"id":852,"x":0,"y":112,"width":16,"height":16,"visible":true},{"id":853,"x":16,"y":112,"width":16,"height":16,"visible":true},{"id":854,"x":112,"y":112,"width":16,"height":16,"visible":true},{"id":855,"x":128,"y":112,"width":16,"height":16,"visible":true},{"id":856,"x":368,"y":112,"width":16,"height":16,"visible":true},{"id":857,"x":384,"y":112,"width":16,"height":16,"visible":true},{"id":858,"x":464,"y":112,"width":16,"height":16,"visible":true},{"id":859,"x":480,"y":112,"width":16,"height":16,"visible":true},{"id":860,"x":496,"y":112,"width":16,"height":16,"visible":true},{"id":861,"x":0,"y":128,"width":16,"height":16,"visible":true},{"id":862,"x":16,"y":128,"width":16,"height":16,"visible":true},{"id":863,"x":112,"y":128,"width":16,"height":16,"visible":true},{"id":864,"x":128,"y":128,"width":16,"height":16,"visible":true},{"id":865,"x":464,"y":128,"width":16,"height":16,"visible":true},{"id":866,"x":480,"y":128,"width":16,"height":16,"visible":true},{"id":867,"x":496,"y":128,"width":16,"height":16,"visible":true},{"id":868,"x":0,"y":144,"width":16,"height":16,"visible":true},{"id":869,"x":16,"y":144,"width":16,"height":16,"visible":true},{"id":870,"x":464,"y":144,"width":16,"height":16,"visible":true},{"id":871,"x":480,"y":144,"width":16,"height":16,"visible":true},{"id":872,"x":496,"y":144,"width":16,"height":16,"visible":true},{"id":873,"x":0,"y":160,"width":16,"height":16,"visible":true},{"id":874,"x":16,"y":160,"width":16,"height":16,"visible":true},{"id":875,"x":32,"y":160,"width":16,"height":16,"visible":true},{"id":876,"x":208,"y":160,"width":16,"height":16,"visible":true},{"id":877,"x":224,"y":160,"width":16,"height":16,"visible":true},{"id":878,"x":240,"y":160,"width":16,"height":16,"visible":true},{"id":879,"x":256,"y":160,"width":16,"height":16,"visible":true},{"id":880,"x":448,"y":160,"width":16,"height":16,"visible":true},{"id":881,"x":464,"y":160,"width":16,"height":16,"visible":true},{"id":882,"x":480,"y":160,"width":16,"height":16,"visible":true},{"id":883,"x":496,"y":160,"width":16,"height":16,"visible":true},{"id":884,"x":0,"y":176,"width":16,"height":16,"visible":true},{"id":885,"x":16,"y":176,"width":16,"height":16,"visible":true},{"id":886,"x":32,"y":176,"width":16,"height":16,"visible":true},{"id":887,"x":208,"y":176,"width":16,"height":16,"visible":true},{"id":888,"x":224,"y":176,"width":16,"height":16,"visible":true},{"id":889,"x":240,"y":176,"width":16,"height":16,"visible":true},{"id":890,"x":256,"y":176,"width":16,"height":16,"visible":true},{"id":891,"x":448,"y":176,"width":16,"height":16,"visible":true},{"id":892,"x":464,"y":176,"width":16,"height":16,"visible":true},{"id":893,"x":480,"y":176,"width":16,"height":16,"visible":true},{"id":894,"x":496,"y":176,"width":16,"height":16,"visible":true},{"id":895,"x":0,"y":192,"width":16,"height":16,"visible":true},{"id":896,"x":16,"y":192,"width":16,"height":16,"visible":true},{"id":897,"x":32,"y":192,"width":16,"height":16,"visible":true},{"id":898,"x":48,"y":192,"width":16,"height":16,"visible":true},{"id":899,"x":64,"y":192,"width":16,"height":16,"visible":true},{"id":900,"x":80,"y":192,"width":16,"height":16,"visible":true},{"id":901,"x":96,"y":192,"width":16,"height":16,"visible":true},{"id":902,"x":112,"y":192,"width":16,"height":16,"visible":true},{"id":903,"x":128,"y":192,"width":16,"height":16,"visible":true},{"id":904,"x":208,"y":192,"width":16,"height":16,"visible":true},{"id":905,"x":224,"y":192,"width":16,"height":16,"visible":true},{"id":906,"x":240,"y":192,"width":16,"height":16,"visible":true},{"id":907,"x":256,"y":192,"width":16,"height":16,"visible":true},{"id":908,"x":448,"y":192,"width":16,"height":16,"visible":true},{"id":909,"x":464,"y":192,"width":16,"height":16,"visible":true},{"id":910,"x":480,"y":192,"width":16,"height":16,"visible":true},{"id":911,"x":496,"y":192,"width":16,"height":16,"visible":true},{"id":912,"x":0,"y":208,"width":16,"height":16,"visible":true},{"id":913,"x":16,"y":208,"width":16,"height":16,"visible":true},{"id":914,"x":32,"y":208,"width":16,"height":16,"visible":true},{"id":915,"x":48,"y":208,"width":16,"height":16,"visible":true},{"id":916,"x":64,"y":208,"width":16,"height":16,"visible":true},{"id":917,"x":80,"y":208,"width":16,"height":16,"visible":true},{"id":918,"x":96,"y":208,"width":16,"height":16,"visible":true},{"id":919,"x":112,"y":208,"width":16,"height":16,"visible":true},{"id":920,"x":128,"y":208,"width":16,"height":16,"visible":true},{"id":921,"x":208,"y":208,"width":16,"height":16,"visible":true},{"id":922,"x":224,"y":208,"width":16,"height":16,"visible":true},{"id":923,"x":240,"y":208,"width":16,"height":16,"visible":true},{"id":924,"x":256,"y":208,"width":16,"height":16,"visible":true},{"id":925,"x":272,"y":208,"width":16,"height":16,"visible":true},{"id":926,"x":288,"y":208,"width":16,"height":16,"visible":true},{"id":927,"x":304,"y":208,"width":16,"height":16,"visible":true},{"id":928,"x":320,"y":208,"width":16,"height":16,"visible":true},{"id":929,"x":336,"y":208,"width":16,"height":16,"visible":true},{"id":930,"x":352,"y":208,"width":16,"height":16,"visible":true},{"id":931,"x":432,"y":208,"width":16,"height":16,"visible":true},{"id":932,"x":448,"y":208,"width":16,"height":16,"visible":true},{"id":933,"x":464,"y":208,"width":16,"height":16,"visible":true},{"id":934,"x":480,"y":208,"width":16,"height":16,"visible":true},{"id":935,"x":496,"y":208,"width":16,"height":16,"visible":true},{"id":936,"x":0,"y":224,"width":16,"height":16,"visible":true},{"id":937,"x":16,"y":224,"width":16,"height":16,"visible":true},{"id":938,"x":32,"y":224,"width":16,"height":16,"visible":true},{"id":939,"x":48,"y":224,"width":16,"height":16,"visible":true},{"id":940,"x":64,"y":224,"width":16,"height":16,"visible":true},{"id":941,"x":80,"y":224,"width":16,"height":16,"visible":true},{"id":942,"x":96,"y":224,"width":16,"height":16,"visible":true},{"id":943,"x":112,"y":224,"width":16,"height":16,"visible":true},{"id":944,"x":128,"y":224,"width":16,"height":16,"visible":true},{"id":945,"x":208,"y":224,"width":16,"height":16,"visible":true},{"id":946,"x":224,"y":224,"width":16,"height":16,"visible":true},{"id":947,"x":240,"y":224,"width":16,"height":16,"visible":true},{"id":948,"x":256,"y":224,"width":16,"height":16,"visible":true},{"id":949,"x":272,"y":224,"width":16,"height":16,"visible":true},{"id":950,"x":288,"y":224,"width":16,"height":16,"visible":true},{"id":951,"x":304,"y":224,"width":16,"height":16,"visible":true},{"id":952,"x":320,"y":224,"width":16,"height":16,"visible":true},{"id":953,"x":336,"y":224,"width":16,"height":16,"visible":true},{"id":954,"x":352,"y":224,"width":16,"height":16,"visible":true},{"id":955,"x":432,"y":224,"width":16,"height":16,"visible":true},{"id":956,"x":448,"y":224,"width":16,"height":16,"visible":true},{"id":957,"x":464,"y":224,"width":16,"height":16,"visible":true},{"id":958,"x":480,"y":224,"width":16,"height":16,"visible":true},{"id":959,"x":496,"y":224,"width":16,"height":16,"visible":true},{"id":960,"x":0,"y":240,"width":16,"height":16,"visible":true},{"id":961,"x":16,"y":240,"width":16,"height":16,"visible":true},{"id":962,"x":32,"y":240,"width":16,"height":16,"visible":true},{"id":963,"x":48,"y":240,"width":16,"height":16,"visible":true},{"id":964,"x":64,"y":240,"width":16,"height":16,"visible":true},{"id":965,"x":80,"y":240,"width":16,"height":16,"visible":true},{"id":966,"x":96,"y":240,"width":16,"height":16,"visible":true},{"id":967,"x":112,"y":240,"width":16,"height":16,"visible":true},{"id":968,"x":128,"y":240,"width":16,"height":16,"visible":true},{"id":969,"x":208,"y":240,"width":16,"height":16,"visible":true},{"id":970,"x":224,"y":240,"width":16,"height":16,"visible":true},{"id":971,"x":240,"y":240,"width":16,"height":16,"visible":true},{"id":972,"x":256,"y":240,"width":16,"height":16,"visible":true},{"id":973,"x":272,"y":240,"width":16,"height":16,"visible":true},{"id":974,"x":288,"y":240,"width":16,"height":16,"visible":true},{"id":975,"x":304,"y":240,"width":16,"height":16,"visible":true},{"id":976,"x":320,"y":240,"width":16,"height":16,"visible":true},{"id":977,"x":336,"y":240,"width":16,"height":16,"visible":true},{"id":978,"x":352,"y":240,"width":16,"height":16,"visible":true},{"id":979,"x":432,"y":240,"width":16,"height":16,"visible":true},{"id":980,"x":448,"y":240,"width":16,"height":16,"visible":true},{"id":981,"x":464,"y":240,"width":16,"height":16,"visible":true},{"id":982,"x":480,"y":240,"width":16,"height":16,"visible":true},{"id":983,"x":496,"y":240,"width":16,"height":16,"visible":true},{"id":984,"x":0,"y":256,"width":16,"height":16,"visible":true},{"id":985,"x":16,"y":256,"width":16,"height":16,"visible":true},{"id":986,"x":32,"y":256,"width":16,"height":16,"visible":true},{"id":987,"x":48,"y":256,"width":16,"height":16,"visible":true},{"id":988,"x":64,"y":256,"width":16,"height":16,"visible":true},{"id":989,"x":80,"y":256,"width":16,"height":16,"visible":true},{"id":990,"x":96,"y":256,"width":16,"height":16,"visible":true},{"id":991,"x":288,"y":256,"width":16,"height":16,"visible":true},{"id":992,"x":304,"y":256,"width":16,"height":16,"visible":true},{"id":993,"x":320,"y":256,"width":16,"height":16,"visible":true},{"id":994,"x":432,"y":256,"width":16,"height":16,"visible":true},{"id":995,"x":448,"y":256,"width":16,"height":16,"visible":true},{"id":996,"x":464,"y":256,"width":16,"height":16,"visible":true},{"id":997,"x":480,"y":256,"width":16,"height":16,"visible":true},{"id":998,"x":496,"y":256,"width":16,"height":16,"visible":true},{"id":999,"x":0,"y":272,"width":16,"height":16,"visible":true},{"id":1000,"x":16,"y":272,"width":16,"height":16,"visible":true},{"id":1001,"x":32,"y":272,"width":16,"height":16,"visible":true},{"id":1002,"x":48,"y":272,"width":16,"height":16,"visible":true},{"id":1003,"x":64,"y":272,"width":16,"height":16,"visible":true},{"id":1004,"x":80,"y":272,"width":16,"height":16,"visible":true},{"id":1005,"x":96,"y":272,"width":16,"height":16,"visible":true},{"id":1006,"x":288,"y":272,"width":16,"height":16,"visible":true},{"id":1007,"x":304,"y":272,"width":16,"height":16,"visible":true},{"id":1008,"x":320,"y":272,"width":16,"height":16,"visible":true},{"id":1009,"x":432,"y":272,"width":16,"height":16,"visible":true},{"id":1010,"x":448,"y":272,"width":16,"height":16,"visible":true},{"id":1011,"x":464,"y":272,"width":16,"height":16,"visible":true},{"id":1012,"x":480,"y":272,"width":16,"height":16,"visible":true},{"id":1013,"x":496,"y":272,"width":16,"height":16,"visible":true},{"id":1014,"x":0,"y":288,"width":16,"height":16,"visible":true},{"id":1015,"x":16,"y":288,"width":16,"height":16,"visible":true},{"id":1016,"x":32,"y":288,"width":16,"height":16,"visible":true},{"id":1017,"x":48,"y":288,"width":16,"height":16,"visible":true},{"id":1018,"x":64,"y":288,"width":16,"height":16,"visible":true},{"id":1019,"x":288,"y":288,"width":16,"height":16,"visible":true},{"id":1020,"x":304,"y":288,"width":16,"height":16,"visible":true},{"id":1021,"x":320,"y":288,"width":16,"height":16,"visible":true},{"id":1022,"x":432,"y":288,"width":16,"height":16,"visible":true},{"id":1023,"x":448,"y":288,"width":16,"height":16,"visible":true},{"id":1024,"x":464,"y":288,"width":16,"height":16,"visible":true},{"id":1025,"x":480,"y":288,"width":16,"height":16,"visible":true},{"id":1026,"x":496,"y":288,"width":16,"height":16,"visible":true},{"id":1027,"x":0,"y":304,"width":16,"height":16,"visible":true},{"id":1028,"x":16,"y":304,"width":16,"height":16,"visible":true},{"id":1029,"x":32,"y":304,"width":16,"height":16,"visible":true},{"id":1030,"x":48,"y":304,"width":16,"height":16,"visible":true},{"id":1031,"x":64,"y":304,"width":16,"height":16,"visible":true},{"id":1032,"x":432,"y":304,"width":16,"height":16,"visible":true},{"id":1033,"x":448,"y":304,"width":16,"height":16,"visible":true},{"id":1034,"x":464,"y":304,"width":16,"height":16,"visible":true},{"id":1035,"x":480,"y":304,"width":16,"height":16,"visible":true},{"id":1036,"x":496,"y":304,"width":16,"height":16,"visible":true},{"id":1037,"x":0,"y":320,"width":16,"height":16,"visible":true},{"id":1038,"x":16,"y":320,"width":16,"height":16,"visible":true},{"id":1039,"x":32,"y":320,"width":16,"height":16,"visible":true},{"id":1040,"x":48,"y":320,"width":16,"height":16,"visible":true},{"id":1041,"x":64,"y":320,"width":16,"height":16,"visible":true},{"id":1042,"x":432,"y":320,"width":16,"height":16,"visible":true},{"id":1043,"x":448,"y":320,"width":16,"height":16,"visible":true},{"id":1044,"x":464,"y":320,"width":16,"height":16,"visible":true},{"id":1045,"x":480,"y":320,"width":16,"height":16,"visible":true},{"id":1046,"x":496,"y":320,"width":16,"height":16,"visible":true},{"id":1047,"x":0,"y":336,"width":16,"height":16,"visible":true},{"id":1048,"x":16,"y":336,"width":16,"height":16,"visible":true},{"id":1049,"x":32,"y":336,"width":16,"height":16,"visible":true},{"id":1050,"x":48,"y":336,"width":16,"height":16,"visible":true},{"id":1051,"x":64,"y":336,"width":16,"height":16,"visible":true},{"id":1052,"x":224,"y":336,"width":16,"height":16,"visible":true},{"id":1053,"x":240,"y":336,"width":16,"height":16,"visible":true},{"id":1054,"x":256,"y":336,"width":16,"height":16,"visible":true},{"id":1055,"x":432,"y":336,"width":16,"height":16,"visible":true},{"id":1056,"x":448,"y":336,"width":16,"height":16,"visible":true},{"id":1057,"x":464,"y":336,"width":16,"height":16,"visible":true},{"id":1058,"x":480,"y":336,"width":16,"height":16,"visible":true},{"id":1059,"x":496,"y":336,"width":16,"height":16,"visible":true},{"id":1060,"x":0,"y":352,"width":16,"height":16,"visible":true},{"id":1061,"x":16,"y":352,"width":16,"height":16,"visible":true},{"id":1062,"x":32,"y":352,"width":16,"height":16,"visible":true},{"id":1063,"x":48,"y":352,"width":16,"height":16,"visible":true},{"id":1064,"x":64,"y":352,"width":16,"height":16,"visible":true},{"id":1065,"x":224,"y":352,"width":16,"height":16,"visible":true},{"id":1066,"x":240,"y":352,"width":16,"height":16,"visible":true},{"id":1067,"x":256,"y":352,"width":16,"height":16,"visible":true},{"id":1068,"x":432,"y":352,"width":16,"height":16,"visible":true},{"id":1069,"x":448,"y":352,"width":16,"height":16,"visible":true},{"id":1070,"x":464,"y":352,"width":16,"height":16,"visible":true},{"id":1071,"x":480,"y":352,"width":16,"height":16,"visible":true},{"id":1072,"x":496,"y":352,"width":16,"height":16,"visible":true},{"id":1073,"x":0,"y":368,"width":16,"height":16,"visible":true},{"id":1074,"x":16,"y":368,"width":16,"height":16,"visible":true},{"id":1075,"x":32,"y":368,"width":16,"height":16,"visible":true},{"id":1076,"x":48,"y":368,"width":16,"height":16,"visible":true},{"id":1077,"x":64,"y":368,"width":16,"height":16,"visible":true},{"id":1078,"x":80,"y":368,"width":16,"height":16,"visible":true},{"id":1079,"x":96,"y":368,"width":16,"height":16,"visible":true},{"id":1080,"x":352,"y":368,"width":16,"height":16,"visible":true},{"id":1081,"x":368,"y":368,"width":16,"height":16,"visible":true},{"id":1082,"x":384,"y":368,"width":16,"height":16,"visible":true},{"id":1083,"x":400,"y":368,"width":16,"height":16,"visible":true},{"id":1084,"x":416,"y":368,"width":16,"height":16,"visible":true},{"id":1085,"x":432,"y":368,"width":16,"height":16,"visible":true},{"id":1086,"x":448,"y":368,"width":16,"height":16,"visible":true},{"id":1087,"x":464,"y":368,"width":16,"height":16,"visible":true},{"id":1088,"x":480,"y":368,"width":16,"height":16,"visible":true},{"id":1089,"x":496,"y":368,"width":16,"height":16,"visible":true},{"id":1090,"x":0,"y":384,"width":16,"height":16,"visible":true},{"id":1091,"x":16,"y":384,"width":16,"height":16,"visible":true},{"id":1092,"x":32,"y":384,"width":16,"height":16,"visible":true},{"id":1093,"x":48,"y":384,"width":16,"height":16,"visible":true},{"id":1094,"x":64,"y":384,"width":16,"height":16,"visible":true},{"id":1095,"x":80,"y":384,"width":16,"height":16,"visible":true},{"id":1096,"x":96,"y":384,"width":16,"height":16,"visible":true},{"id":1097,"x":112,"y":384,"width":16,"height":16,"visible":true},{"id":1098,"x":128,"y":384,"width":16,"height":16,"visible":true},{"id":1099,"x":144,"y":384,"width":16,"height":16,"visible":true},{"id":1100,"x":160,"y":384,"width":16,"height":16,"visible":true},{"id":1101,"x":176,"y":384,"width":16,"height":16,"visible":true},{"id":1102,"x":192,"y":384,"width":16,"height":16,"visible":true},{"id":1103,"x":208,"y":384,"width":16,"height":16,"visible":true},{"id":1104,"x":224,"y":384,"width":16,"height":16,"visible":true},{"id":1105,"x":240,"y":384,"width":16,"height":16,"visible":true},{"id":1106,"x":256,"y":384,"width":16,"height":16,"visible":true},{"id":1107,"x":272,"y":384,"width":16,"height":16,"visible":true},{"id":1108,"x":288,"y":384,"width":16,"height":16,"visible":true},{"id":1109,"x":304,"y":384,"width":16,"height":16,"visible":true},{"id":1110,"x":320,"y":384,"width":16,"height":16,"visible":true},{"id":1111,"x":336,"y":384,"width":16,"height":16,"visible":true},{"id":1112,"x":352,"y":384,"width":16,"height":16,"visible":true},{"id":1113,"x":368,"y":384,"width":16,"height":16,"visible":true},{"id":1114,"x":384,"y":384,"width":16,"height":16,"visible":true},{"id":1115,"x":400,"y":384,"width":16,"height":16,"visible":true},{"id":1116,"x":416,"y":384,"width":16,"height":16,"visible":true},{"id":1117,"x":432,"y":384,"width":16,"height":16,"visible":true},{"id":1118,"x":448,"y":384,"width":16,"height":16,"visible":true},{"id":1119,"x":464,"y":384,"width":16,"height":16,"visible":true},{"id":1120,"x":480,"y":384,"width":16,"height":16,"visible":true},{"id":1121,"x":496,"y":384,"width":16,"height":16,"visible":true},{"id":1122,"x":0,"y":400,"width":16,"height":16,"visible":true},{"id":1123,"x":16,"y":400,"width":16,"height":16,"visible":true},{"id":1124,"x":32,"y":400,"width":16,"height":16,"visible":true},{"id":1125,"x":48,"y":400,"width":16,"height":16,"visible":true},{"id":1126,"x":64,"y":400,"width":16,"height":16,"visible":true},{"id":1127,"x":80,"y":400,"width":16,"height":16,"visible":true},{"id":1128,"x":96,"y":400,"width":16,"height":16,"visible":true},{"id":1129,"x":112,"y":400,"width":16,"height":16,"visible":true},{"id":1130,"x":128,"y":400,"width":16,"height":16,"visible":true},{"id":1131,"x":144,"y":400,"width":16,"height":16,"visible":true},{"id":1132,"x":160,"y":400,"width":16,"height":16,"visible":true},{"id":1133,"x":176,"y":400,"width":16,"height":16,"visible":true},{"id":1134,"x":192,"y":400,"width":16,"height":16,"visible":true},{"id":1135,"x":208,"y":400,"width":16,"height":16,"visible":true},{"id":1136,"x":224,"y":400,"width":16,"height":16,"visible":true},{"id":1137,"x":240,"y":400,"width":16,"height":16,"visible":true},{"id":1138,"x":256,"y":400,"width":16,"height":16,"visible":true},{"id":1139,"x":272,"y":400,"width":16,"height":16,"visible":true},{"id":1140,"x":288,"y":400,"width":16,"height":16,"visible":true},{"id":1141,"x":304,"y":400,"width":16,"height":16,"visible":true},{"id":1142,"x":320,"y":400,"width":16,"height":16,"visible":true},{"id":1143,"x":336,"y":400,"width":16,"height":16,"visible":true},{"id":1144,"x":352,"y":400,"width":16,"height":16,"visible":true},{"id":1145,"x":368,"y":400,"width":16,"height":16,"visible":true},{"id":1146,"x":384,"y":400,"width":16,"height":16,"visible":true},{"id":1147,"x":400,"y":400,"width":16,"height":16,"visible":true},{"id":1148,"x":416,"y":400,"width":16,"height":16,"visible":true},{"id":1149,"x":432,"y":400,"width":16,"height":16,"visible":true},{"id":1150,"x":448,"y":400,"width":16,"height":16,"visible":true},{"id":1151,"x":464,"y":400,"width":16,"height":16,"visible":true},{"id":1152,"x":480,"y":400,"width":16,"height":16,"visible":true},{"id":1153,"x":496,"y":400,"width":16,"height":16,"visible":true},{"id":1154,"x":0,"y":416,"width":16,"height":16,"visible":true},{"id":1155,"x":16,"y":416,"width":16,"height":16,"visible":true},{"id":1156,"x":32,"y":416,"width":16,"height":16,"visible":true},{"id":1157,"x":48,"y":416,"width":16,"height":16,"visible":true},{"id":1158,"x":64,"y":416,"width":16,"height":16,"visible":true},{"id":1159,"x":80,"y":416,"width":16,"height":16,"visible":true},{"id":1160,"x":96,"y":416,"width":16,"height":16,"visible":true},{"id":1161,"x":112,"y":416,"width":16,"height":16,"visible":true},{"id":1162,"x":128,"y":416,"width":16,"height":16,"visible":true},{"id":1163,"x":144,"y":416,"width":16,"height":16,"visible":true},{"id":1164,"x":160,"y":416,"width":16,"height":16,"visible":true},{"id":1165,"x":176,"y":416,"width":16,"height":16,"visible":true},{"id":1166,"x":192,"y":416,"width":16,"height":16,"visible":true},{"id":1167,"x":208,"y":416,"width":16,"height":16,"visible":true},{"id":1168,"x":224,"y":416,"width":16,"height":16,"visible":true},{"id":1169,"x":240,"y":416,"width":16,"height":16,"visible":true},{"id":1170,"x":256,"y":416,"width":16,"height":16,"visible":true},{"id":1171,"x":272,"y":416,"width":16,"height":16,"visible":true},{"id":1172,"x":288,"y":416,"width":16,"height":16,"visible":true},{"id":1173,"x":304,"y":416,"width":16,"height":16,"visible":true},{"id":1174,"x":320,"y":416,"width":16,"height":16,"visible":true},{"id":1175,"x":336,"y":416,"width":16,"height":16,"visible":true},{"id":1176,"x":352,"y":416,"width":16,"height":16,"visible":true},{"id":1177,"x":368,"y":416,"width":16,"height":16,"visible":true},{"id":1178,"x":384,"y":416,"width":16,"height":16,"visible":true},{"id":1179,"x":400,"y":416,"width":16,"height":16,"visible":true},{"id":1180,"x":416,"y":416,"width":16,"height":16,"visible":true},{"id":1181,"x":432,"y":416,"width":16,"height":16,"visible":true},{"id":1182,"x":448,"y":416,"width":16,"height":16,"visible":true},{"id":1183,"x":464,"y":416,"width":16,"height":16,"visible":true},{"id":1184,"x":480,"y":416,"width":16,"height":16,"visible":true},{"id":1185,"x":496,"y":416,"width":16,"height":16,"visible":true}]}]}