{"type":"map","version":"1.10","orientation":"orthogonal","renderorder":"right-down","width":32,"height":32,"tilewidth":8,"tileheight":8,"infinite":false,"tilesets":[{"firstgid":1,"source":"terrain.tsj"},{"firstgid":293,"source":"props.tsj"}],"layers":[{"id":1,"type":"tilelayer","name":"cliff","width":32,"height":32,"data":[0,0,0,0,0,0,0,0,0,0,0,0,0,0,0,0,0,0,0,0,0,0,0,0,0,0,0,0,0,0,0,0,0,0,0,0,0,0,0,0,0,0,0,0,0,0,0,0,0,0,0,0,0,0,0,0,0,0,0,0,0,0,0,0,0,0,0,0,0,0,0,0,0,0,0,0,0,0,0,0,0,0,0,0,0,0,0,0,0,0,0,0,0,0,0,0,0,0,0,0,0,0,0,0,0,0,0,0,0,0,0,0,0,0,0,0,0,0,0,0,0,0,0,0,0,0,0,0,0,0,0,0,0,0,0,0,0,0,0,0,0,0,0,0,0,0,0,0,0,0,0,0,0,0,0,0,0,0,0,0,0,0,0,0,0,0,0,0,0,0,0,0,0,0,0,0,0,0,0,0,0,0,0,0,0,0,0,0,0,0,0,0,0,0,0,0,0,0,0,0,0,0,0,0,0,0,0,0,0,0,0,0,0,0,0,0,0,0,0,0,0,0,0,0,0,0,0,0,0,0,0,0,0,0,0,0,0,0,0,0,0,0,0,0,0,0,0,0,0,0,0,0,0,0,0,0,0,0,0,0,0,0,0,0,0,0,0,0,0,0,0,0,0,0,0,0,0,0,0,0,0,0,0,0,0,0,0,0,0,0,0,0,0,0,0,0,0,0,0,0,0,0,0,0,0,0,0,0,0,0,0,0,0,0,0,0,0,0,0,0,0,0,0,0,0,0,0,0,0,0,0,0,0,0,0,0,0,0,0,0,0,0,0,0,0,0,0,0,0,0,0,0,0,0,0,0,0,0,0,0,0,0,0,0,0,0,0,0,0,0,0,0,0,0,0,0,0,0,0,0,0,0,0,0,0,0,0,0,0,0,0,0,0,0,0,0,0,0,0,0,0,0,0,0,0,0,0,0,0,0,0,0,0,0,0,0,0,0,0,0,0,0,0,0,0,0,0,0,0,0,0,0,0,0,0,0,0,0,0,0,0,0,0,0,0,0,0,0,0,0,0,0,0,0,0,0,0,0,0,0,0,0,0,276,273,274,0,0,0,0,0,0,0,0,0,0,0,0,0,0,0,0,275,0,0,0,0,0,0,0,275,276,273,274,275,276,273,274,275,276,0,0,0,0,0,0,0,0,0,0,0,0,0,0,275,276,273,274,275,276,273,274,275,276,273,274,275,0,0,0,275,276,273,274,0,0,0,0,0,0,273,0,0,0,0,0,0,276,273,274,275,276,273,274,0,0,0,0,0,0,0,0,0,0,273,274,275,0,0,0,0,276,273,0,0,0,0,0,0,0,0,0,0,0,0,0,0,0,0,0,0,0,0,0,0,0,0,0,275,0,0,0,275,276,0,0,0,0,0,0,0,0,0,0,0,0,0,0,0,0,0,0,0,0,0,0,0,0,0,0,0,0,0,0,275,0,0,0,0,0,0,0,0,0,0,0,0,0,0,0,0,0,0,0,0,0,0,0,0,0,0,0,0,0,0,0,0,0,0,0,0,0,0,0,0,0,0,0,0,0,0,0,0,0,0,0,0,0,0,0,0,0,0,0,0,0,0,0,0,0,0,0,0,0,0,0,0,0,0,0,0,0,0,0,0,0,0,0,0,0,0,0,0,0,0,0,0,0,0,0,0,0,0,0,0,0,0,0,0,0,0,0,0,0,0,0,0,0,0,0,0,0,0,0,0,0,0,0,0,0,0,0,0,0,0,0,0,0,0,0,0,0,0,0,0,0,0,0,0,0,0,0,0,0,0,0,0,0,0,0,0,0,0,0,0,0,0,0,0,0,0,0,0,0,0,0,0,0,0,0,0,0,0,0,0,0,0,0,0,0,0,0,0,0,0,0,0,0,0,0,0,0,0,0,0,0,0,0,0,276,0,0,0,0,0,0,0,0,0,0,0,0,0,0,0,0,0,0,0,276,0,0,0,0,0,0,0,0,0,0,0,276,273,274,275,276,273,274,275,276,0,0,0,0,0,0,0,0,0,274,275,276,0,0,0,0,0,0,0,0,0,0,0,0,273,274,275,276,273,274,275,276,273,274,275,276,273,274,275,276,273,274,275,0,0,0,0,0,0,0,0,0,0,0,0,0,0,0,0,0,0,0,0,0,273,274,275,276,273,274,275,276,273,0,0,0,0,0,0,0,0,0,0,0,0,0,0,0,0,0,0,0,0,0,0,0,0,0,0,0,0,0,0,0,0,0,0,0,0,0,0,0,0,0,0,0,0,0,0,0,0,0,0,0,0,0,0,0,0,0,0,0,0,0,0,0,0,0,0,0,0,0,0,0],"opacity":1,"visible":true,"x":0,"y":0},{"id":2,"type":"tilelayer","name":"ground","width":32,"height":32,"data":[0,0,0,0,0,0,0,0,0,0,0,0,0,0,0,0,0,0,0,0,0,0,0,0,0,0,0,0,0,0,0,0,0,0,0,0,0,0,0,0,0,0,0,0,0,0,0,0,0,0,0,0,0,0,0,0,0,0,0,0,0,0,0,0,0,0,0,0,0,0,0,0,0,0,0,0,0,0,0,0,0,0,0,0,0,0,0,0,0,0,0,0,0,0,0,0,0,0,0,0,0,0,0,0,0,0,0,0,0,0,0,0,0,0,0,0,0,0,0,0,0,0,0,0,0,0,0,0,0,0,0,0,0,0,0,0,0,0,0,0,0,0,0,0,0,0,0,0,0,0,0,0,0,0,0,0,0,0,0,0,0,0,0,0,0,0,0,0,0,0,0,0,170,34,34,34,22,23,58,0,0,0,0,0,0,0,0,0,0,0,0,0,0,0,0,0,0,0,0,0,0,0,0,170,17,17,17,17,9,10,11,63,0,0,0,0,0,0,0,0,0,0,0,0,0,0,0,0,0,0,0,0,0,0,170,17,17,17,17,17,13,14,15,16,34,34,68,0,0,0,0,0,0,0,0,0,0,0,0,0,0,0,0,0,0,170,17,17,17,17,17,17,17,17,17,17,17,17,17,34,34,68,0,0,0,0,0,0,0,0,0,0,0,0,0,0,0,153,17,17,17,17,17,17,17,17,17,17,17,17,17,17,17,17,68,0,0,0,0,0,0,0,0,0,0,0,170,34,34,17,17,17,17,17,17,17,17,17,17,17,17,17,17,17,17,17,17,68,0,0,0,0,0,0,170,34,34,34,17,17,17,17,17,17,17,17,17,17,17,17,17,17,17,17,17,17,17,17,17,51,0,0,0,0,0,0,153,17,1,2,3,4,17,17,17,17,1,2,3,4,17,17,17,17,17,17,17,17,17,17,17,51,0,0,0,0,0,0,153,17,5,6,7,8,17,17,17,17,5,6,7,76,85,85,17,17,17,17,17,17,17,17,17,17,68,0,0,0,0,0,221,17,9,10,11,12,17,17,85,85,77,78,113,0,0,0,221,85,17,17,17,17,17,17,17,17,51,0,0,0,0,0,0,221,81,82,83,84,85,119,0,0,0,0,0,0,0,0,0,0,221,85,17,17,17,17,17,17,119,0,0,0,0,0,0,0,0,0,0,0,0,0,0,0,0,0,0,0,0,0,0,0,0,0,207,4,17,17,17,119,0,0,0,0,0,0,0,0,0,0,0,0,0,0,0,0,0,0,0,0,0,0,0,0,0,0,0,144,17,17,119,0,0,0,0,0,0,0,0,0,0,0,0,0,0,0,0,0,0,0,0,0,0,0,0,0,0,0,0,148,17,51,0,0,0,0,0,0,0,0,0,0,0,0,0,0,0,0,0,0,0,0,0,0,0,0,0,0,0,0,0,152,17,51,0,0,0,0,0,0,0,0,0,0,0,0,0,0,0,0,0,0,0,0,0,0,0,0,0,0,0,0,0,153,17,51,0,0,0,0,0,0,0,0,0,0,0,0,0,0,0,170,34,34,34,34,68,0,0,0,0,0,0,0,0,153,17,51,0,0,0,0,0,0,0,0,0,0,0,0,0,0,170,17,17,17,17,17,17,34,68,0,0,0,0,0,0,153,17,51,0,0,0,0,0,0,0,0,0,0,0,0,0,0,153,17,17,17,17,17,17,17,17,34,34,34,34,34,34,17,17,51,0,0,0,0,0,0,0,0,0,0,0,0,0,170,1,2,3,4,17,17,17,17,17,17,17,17,17,17,17,17,17,17,68,0,0,0,0,0,0,0,0,0,0,0,0,221,5,6,7,8,17,17,17,17,17,17,17,17,17,17,17,17,17,17,17,136,0,0,0,0,0,0,0,0,0,0,0,0,213,78,79,80,85,85,85,85,17,17,17,17,17,17,17,17,17,85,119,0,0,0,0,0,0,0,0,0,0,0,0,0,0,0,0,0,0,0,0,0,221,85,85,85,85,85,85,85,119,0,0,0,0,0,0,0,0,0,0,0,0,0,0,0,0,0,0,0,0,0,0,0,0,0,0,0,0,0,0,0,0,0,0,0,0,0,0,0,0,0,0,0,0,0,0,0,0,0,0,0,0,0,0,0,0,0,0,0,0,0,0,0,0,0,0,0,0,0,0,0,0,0,0,0,0,0,0,0,0,0,0,0,0,0,0,0,0,0,0,0,0,0,0,0,0,0,0,0,0,0,0,0,0,0,0,0,0,0,0,0,0,0,0,0,0,0,0,0,0,0,0,0,0,0,0,0,0,0,0,0,0,0,0,0],"opacity":1,"visible":true,"x":0,"y":0},{"id":3,"type":"tilelayer","name":"water","width":32,"height":32,"data":[0,0,0,0,0,0,0,0,0,0,0,0,0,0,0,0,0,0,0,0,0,0,0,0,0,0,0,0,0,0,0,0,0,0,0,0,0,0,0,0,0,0,0,0,0,0,0,0,0,0,0,0,0,0,0,0,0,0,0,0,0,0,0,0,0,0,0,0,0,0,0,0,0,0,0,0,0,0,0,0,0,0,0,0,0,0,0,0,0,0,0,0,0,0,0,0,0,0,0,0,0,0,0,0,0,0,0,0,0,0,0,0,0,0,0,0,0,0,0,0,0,0,0,0,0,0,0,0,0,0,0,0,0,0,0,0,0,0,0,0,0,0,0,0,0,0,0,0,0,0,0,0,0,0,0,0,0,0,0,0,0,0,0,0,0,0,0,0,0,0,0,0,0,0,0,0,0,0,0,0,0,0,0,0,0,0,0,0,0,0,0,0,0,0,0,0,0,0,0,0,0,0,0,0,0,0,0,0,0,287,279,0,0,0,0,0,0,0,0,0,0,0,0,0,0,0,0,0,0,0,0,0,0,0,0,0,0,0,0,0,0,287,279,0,0,0,0,0,0,0,0,0,0,0,0,0,0,0,0,0,0,0,0,0,0,0,0,0,0,0,0,0,287,0,0,0,0,0,0,0,0,0,0,0,0,0,0,0,0,0,0,0,0,0,0,0,0,0,0,0,0,0,0,0,287,0,0,0,0,0,0,0,0,0,0,0,0,0,0,0,0,0,0,0,0,0,0,0,0,0,0,0,0,0,0,0,287,0,0,0,0,0,0,0,0,0,0,0,0,0,0,0,0,0,0,0,0,0,0,0,0,0,0,0,0,0,0,0,287,0,0,0,0,0,0,0,0,0,0,0,0,0,0,0,0,0,0,0,0,0,0,0,0,0,0,0,0,0,0,0,287,0,0,0,0,0,0,0,0,0,0,0,0,0,0,0,0,0,0,0,0,0,0,0,0,0,0,0,0,0,0,0,287,0,0,0,0,0,0,0,0,0,0,0,0,0,0,0,0,0,0,0,0,0,0,0,0,0,0,0,0,0,0,0,0,0,0,0,0,0,0,0,0,0,0,0,0,0,0,0,0,0,0,0,0,0,0,0,0,0,0,0,0,0,0,0,0,0,0,0,0,0,0,0,0,0,0,0,0,0,0,0,0,0,0,0,0,0,0,0,0,0,0,0,0,0,0,0,0,0,0,0,0,0,0,0,0,0,0,0,0,0,0,0,0,0,0,0,0,0,0,0,0,0,0,0,0,0,0,0,0,0,0,0,0,0,0,0,0,0,0,0,0,0,0,0,0,0,0,0,0,0,0,0,0,0,0,0,0,0,0,0,0,0,0,0,0,0,0,0,0,0,0,0,0,0,0,0,0,0,0,0,0,0,0,0,0,0,0,0,0,0,0,0,0,0,0,0,0,0,0,0,0,0,0,0,0,0,0,0,0,0,0,0,0,0,0,0,0,0,0,0,0,0,0,0,0,0,0,0,0,0,0,0,0,0,0,0,0,0,0,0,0,0,0,0,0,0,0,0,0,0,0,0,0,0,0,0,0,0,0,0,0,0,0,0,0,0,0,0,0,0,0,0,0,0,0,0,0,0,0,0,0,0,0,0,0,0,0,0,0,0,0,0,0,0,0,0,0,0,0,0,0,0,0,0,0,0,0,0,0,0,0,0,0,0,0,0,0,0,0,0,0,0,0,0,0,0,0,0,0,0,0,0,0,0,0,0,0,0,0,0,0,0,0,0,0,0,0,0,0,0,0,0,0,0,0,0,0,0,0,0,0,0,0,0,0,0,0,0,0,0,0,0,0,0,0,0,0,0,0,0,0,0,0,0,0,0,0,0,0,0,0,0,0,0,0,0,0,0,0,0,0,0,0,0,0,0,0,0,0,0,0,0,0,0,0,0,0,0,0,0,0,0,0,0,0,0,0,0,0,0,0,0,0,0,0,0,0,0,0,0,0,0,0,0,0,0,0,0,0,0,0,0,0,0,0,0,0,0,0,0,0,0,0,0,0,0,0,0,0,0,0,0,0,0,0,0,0,0,0,0,0,0,0,0,0,0,0,0,0,0,0,0,0,0,0,0,0,0,0,0,0,0,0,0,0,0,0,0,0,0,0,0,0,0,0,0,0,0,0,0,0,0,0,0,0,0,0,0,0,0,0,0,0,0,0,0,0,0,0,0,0,0,0,0,0,0,0,0,0,0,0,0,0,0,0,0,0,0,0,0,0,0,0,0,0,0,0,0,0,0,0,0,0,0,0,0,0,0,0,0,0,0,0,0,0,0,0,0,0,0,0,0],"opacity":1,"visible":true,"x":0,"y":0},{"id":4,"type":"objectgroup","name":"props","visible":true,"opacity":1,"draworder":"topdown","objects":[{"id":1,"gid":297,"x":82,"y":73,"width":28,"height":28,"rotation":0,"visible":true},{"id":2,"gid":298,"x":89,"y":58,"width":29,"height":29,"rotation":0,"visible":true},{"id":3,"gid":299,"x":105,"y":48,"width":28,"height":28,"rotation":0,"visible":true},{"id":4,"gid":300,"x":121,"y":41,"width":28,"height":28,"rotation":0,"visible":true},{"id":5,"gid":297,"x":137,"y":54,"width":29,"height":29,"rotation":0,"visible":true},{"id":6,"gid":298,"x":151,"y":52,"width":28,"height":28,"rotation":0,"visible":true},{"id":7,"gid":299,"x":162,"y":70,"width":29,"height":29,"rotation":0,"visible":true},{"id":8,"gid":300,"x":175,"y":74,"width":27,"height":27,"rotation":0,"visible":true},{"id":9,"gid":297,"x":188,"y":79,"width":29,"height":29,"rotation":0,"visible":true},{"id":10,"gid":298,"x":204,"y":85,"width":28,"height":28,"rotation":0,"visible":true},{"id":11,"gid":299,"x":219,"y":91,"width":25,"height":25,"rotation":0,"visible":true},{"id":12,"gid":300,"x":225,"y":105,"width":24,"height":24,"rotation":0,"visible":true},{"id":13,"gid":297,"x":18,"y":108,"width":24,"height":24,"rotation":0,"visible":true},{"id":14,"gid":298,"x":33,"y":105,"width":25,"height":25,"rotation":0,"visible":true},{"id":15,"gid":299,"x":47,"y":104,"width":24,"height":24,"rotation":0,"visible":true},{"id":16,"gid":300,"x":61,"y":103,"width":25,"height":25,"rotation":0,"visible":true},{"id":17,"gid":297,"x":74,"y":94,"width":27,"height":27,"rotation":0,"visible":true},{"id":18,"gid":298,"x":82,"y":79,"width":24,"height":24,"rotation":0,"visible":true},{"id":19,"gid":299,"x":98,"y":139,"width":27,"height":27,"rotation":0,"visible":true},{"id":20,"gid":300,"x":147,"y":138,"width":26,"height":26,"rotation":0,"visible":true},{"id":21,"gid":304,"x":126,"y":148,"width":25,"height":36,"rotation":0,"visible":true},{"id":22,"gid":303,"x":186,"y":163,"width":28,"height":33,"rotation":0,"visible":true},{"id":23,"gid":303,"x":186,"y":188,"width":28,"height":31,"rotation":0,"visible":true},{"id":24,"gid":305,"x":80,"y":180,"width":37,"height":41,"rotation":0,"visible":true},{"id":25,"gid":297,"x":108,"y":181,"width":23,"height":18,"rotation":0,"visible":true},{"id":26,"gid":300,"x":98,"y":236,"width":37,"height":31,"rotation":0,"visible":true},{"id":27,"gid":298,"x":207,"y":179,"width":21,"height":31,"rotation":0,"visible":true},{"id":28,"gid":306,"x":104,"y":100,"width":17,"height":24,"rotation":0,"visible":true},{"id":29,"gid":307,"x":169,"y":93,"width":29,"height":25,"rotation":0,"visible":true},{"id":30,"gid":308,"x":153,"y":209,"width":23,"height":26,"rotation":0,"visible":true},{"id":31,"gid":297,"x":131,"y":78,"width":13,"height":13,"rotation":0,"visible":true},{"id":32,"gid":300,"x":148,"y":198,"width":23,"height":19,"rotation":0,"visible":true},{"id":33,"gid":301,"x":20,"y":138,"width":26,"height":19,"rotation":0,"visible":true},{"id":34,"gid":302,"x":46,"y":140,"width":27,"height":19,"rotation":0,"visible":true},{"id":35,"gid":301,"x":72,"y":138,"width":26,"height":19,"rotation":0,"visible":true},{"id":36,"gid":302,"x":170,"y":148,"width":25,"height":18,"rotation":0,"visible":true},{"id":37,"gid":301,"x":200,"y":149,"width":26,"height":17,"rotation":0,"visible":true},{"id":38,"gid":302,"x":63,"y":222,"width":26,"height":20,"rotation":0,"visible":true},{"id":39,"gid":301,"x":83,"y":228,"width":25,"height":19,"rotation":0,"visible":true},{"id":40,"gid":302,"x":132,"y":233,"width":27,"height":18,"rotation":0,"visible":true},{"id":41,"gid":301,"x":156,"y":233,"width":25,"height":19,"rotation":0,"visible":true},{"id":42,"gid":302,"x":181,"y":232,"width":25,"height":17,"rotation":0,"visible":true},{"id":43,"gid":301,"x":202,"y":227,"width":22,"height":20,"rotation":0,"visible":true}]}]}